; generated by Slic3r 1.36.2-prusa3d-stable-win64 on 2017-11-05 at 17:45:35

; 

; external perimeters extrusion width = 0.45mm
; perimeters extrusion width = 0.45mm
; infill extrusion width = 0.45mm
; solid infill extrusion width = 0.45mm
; top infill extrusion width = 0.45mm
; first layer extrusion width = 0.42mm

M107
M115 U3.0.12 ; tell printer latest fw version
M83  ; extruder relative mode
M104 S240 ; set extruder temp
M140 S87 ; set bed temp
M190 S87 ; wait for bed temp
M109 S240 ; wait for extruder temp
G28 W ; home all without mesh bed level
G80 ; mesh bed leveling
G1 Y-3.0 F1000.0 ; go outside pritn area
G1 X60.0 E9.0  F1000.0 ; intro line
G1 X100.0 E12.5  F1000.0 ; intro line
; Filament gcode

G21 ; set units to millimeters
G90 ; use absolute coordinates
M83 ; use relative distances for extrusion
G1 E-1.00000 F2100.00000
G1 Z0.200 F7200.000
G1 X91.693 Y71.102 F7200.000
G1 E1.00000 F2100.00000
M204 S1000
G1 F1200
G1 X92.851 Y70.862 E0.03556
G1 X117.488 Y69.310 E0.74255
G1 X119.828 Y69.449 E0.07050
G1 X122.291 Y69.926 E0.07547
G1 X124.610 Y70.710 E0.07363
G1 X126.755 Y71.769 E0.07197
G1 X128.810 Y73.146 E0.07442
G1 X130.645 Y74.774 E0.07376
G1 X132.264 Y76.658 E0.07473
G1 X133.519 Y78.579 E0.06903
G1 X133.884 Y79.531 E0.03066
G1 X134.004 Y80.587 E0.03197
G1 X133.859 Y81.577 E0.03011
G1 X133.454 Y82.551 E0.03173
G1 X132.300 Y84.307 E0.06319
G1 X131.003 Y85.863 E0.06094
G1 X129.432 Y87.362 E0.06533
G1 X127.846 Y88.562 E0.05982
G1 X125.535 Y89.888 E0.08015
G1 X124.231 Y90.454 E0.04274
G1 X122.954 Y90.896 E0.04065
G1 X120.338 Y91.493 E0.08072
G1 X118.951 Y91.651 E0.04197
G1 X117.464 Y91.702 E0.04478
G1 X92.622 Y90.127 E0.74874
G1 X91.698 Y89.912 E0.02855
G1 X90.836 Y89.508 E0.02862
G1 X90.085 Y88.933 E0.02845
G1 X89.472 Y88.206 E0.02860
G1 X88.932 Y87.103 E0.03696
G1 X88.701 Y85.894 E0.03702
G1 X88.703 Y75.089 E0.32501
G1 X88.867 Y74.121 E0.02954
G1 X89.288 Y73.105 E0.03306
G1 X89.872 Y72.297 E0.02999
G1 X90.631 Y71.637 E0.03027
G1 X91.640 Y71.129 E0.03396
G1 X91.807 Y71.464 F7200.000
G1 F1200
G1 X92.889 Y71.237 E0.03325
G1 X117.490 Y69.687 E0.74148
G1 X119.778 Y69.822 E0.06893
G1 X122.195 Y70.291 E0.07406
G1 X124.467 Y71.059 E0.07213
G1 X126.564 Y72.094 E0.07035
G1 X128.577 Y73.443 E0.07289
G1 X130.378 Y75.040 E0.07240
G1 X131.963 Y76.885 E0.07318
G1 X133.188 Y78.760 E0.06735
G1 X133.547 Y79.743 E0.03148
G1 X133.620 Y80.749 E0.03035
G1 X133.408 Y81.754 E0.03088
G1 X132.964 Y82.638 E0.02975
G1 X131.829 Y84.304 E0.06063
G1 X130.533 Y85.811 E0.05978
G1 X129.084 Y87.163 E0.05962
G1 X127.503 Y88.338 E0.05925
G1 X125.224 Y89.619 E0.07866
G1 X123.942 Y90.161 E0.04187
G1 X122.696 Y90.580 E0.03954
G1 X121.437 Y90.905 E0.03911
G1 X119.965 Y91.166 E0.04497
G1 X117.465 Y91.325 E0.07533
G1 X92.679 Y89.754 E0.74708
G1 X91.822 Y89.556 E0.02644
G1 X91.030 Y89.184 E0.02632
G1 X90.341 Y88.656 E0.02612
G1 X89.773 Y87.977 E0.02662
G1 X89.286 Y86.973 E0.03356
G1 X89.077 Y85.862 E0.03401
G1 X89.079 Y75.120 E0.32313
G1 X89.229 Y74.228 E0.02721
G1 X89.619 Y73.286 E0.03065
G1 X90.155 Y72.547 E0.02747
G1 X90.860 Y71.938 E0.02802
G1 X91.753 Y71.491 E0.03005
G1 F5760
G1 X92.889 Y71.237 E-0.40296
G1 F5760
G1 X94.465 Y71.138 E-0.54704
G1 E-0.05000 F2100.00000
G1 X120.105 Y79.106 F7200.000
G1 E1.00000 F2100.00000
G1 F480
G1 X120.184 Y78.972 E0.00468
G1 X120.336 Y78.844 E0.00598
G1 X120.596 Y78.777 E0.00807
G1 X120.831 Y78.797 E0.00708
G1 X121.029 Y78.864 E0.00630
G1 X121.221 Y78.989 E0.00690
G1 X121.356 Y79.155 E0.00643
G1 X121.449 Y79.364 E0.00689
G1 X121.635 Y80.011 E0.02024
G1 X122.119 Y81.214 E0.03901
G1 X122.300 Y80.616 E0.01879
G1 X122.674 Y79.542 E0.03422
G1 X122.810 Y79.253 E0.00961
G1 X122.962 Y79.030 E0.00810
G1 X123.122 Y78.878 E0.00667
G1 X123.301 Y78.791 E0.00596
G1 X123.491 Y78.780 E0.00575
G1 X123.680 Y78.848 E0.00604
G1 X123.852 Y78.982 E0.00655
G1 X123.987 Y79.162 E0.00677
G1 X124.071 Y79.379 E0.00699
G1 X124.088 Y79.582 E0.00613
G1 X124.019 Y79.865 E0.00877
G1 X123.733 Y80.518 E0.02145
G1 X123.519 Y81.166 E0.02053
G1 X122.567 Y83.826 E0.08496
G1 X122.186 Y84.808 E0.03169
G1 X121.916 Y85.403 E0.01968
G1 X121.799 Y85.600 E0.00687
G1 X121.624 Y85.824 E0.00856
G1 X121.344 Y86.050 E0.01082
G1 X121.075 Y86.183 E0.00905
G1 X120.854 Y86.259 E0.00701
G1 X120.560 Y86.326 E0.00908
G1 X120.315 Y86.337 E0.00736
G1 X120.105 Y86.294 E0.00646
G1 X119.957 Y86.221 E0.00495
G1 X119.769 Y86.025 E0.00818
G1 X119.667 Y85.811 E0.00714
G1 X119.628 Y85.652 E0.00491
G1 X119.619 Y85.503 E0.00450
G1 X119.659 Y85.307 E0.00603
G1 X119.768 Y85.148 E0.00579
G1 X119.934 Y85.040 E0.00596
G1 X120.412 Y84.902 E0.01494
G1 X120.571 Y84.832 E0.00525
G1 X120.780 Y84.654 E0.00826
G1 X120.918 Y84.424 E0.00806
G1 X121.136 Y83.852 E0.01841
G1 X121.323 Y83.464 E0.01296
G1 X121.384 Y83.233 E0.00718
G1 X121.340 Y83.011 E0.00681
G1 X121.067 Y82.387 E0.02050
G1 X120.473 Y80.783 E0.05145
G1 X120.173 Y80.053 E0.02373
G1 X120.082 Y79.735 E0.00996
G1 X120.050 Y79.375 E0.01086
G1 X120.093 Y79.164 E0.00647
G1 X120.007 Y78.985 F7200.000
G1 X119.374 Y79.333 F7200.000
G1 F480
G1 X119.399 Y79.438 E0.00323
G1 X119.323 Y79.739 E0.00934
G1 X118.636 Y80.902 E0.04063
G1 X118.563 Y81.074 E0.00564
G1 X118.539 Y81.204 E0.00397
G1 X118.549 Y81.323 E0.00359
G1 X118.596 Y81.448 E0.00402
G1 X119.279 Y82.585 E0.03988
G1 X119.414 Y82.886 E0.00992
G1 X119.451 Y83.136 E0.00763
G1 X119.422 Y83.370 E0.00707
G1 X119.322 Y83.571 E0.00676
G1 X119.116 Y83.737 E0.00795
G1 X118.899 Y83.807 E0.00686
G1 X118.671 Y83.813 E0.00687
G1 X118.465 Y83.750 E0.00647
G1 X118.298 Y83.625 E0.00628
G1 X118.110 Y83.365 E0.00965
G1 X117.650 Y82.535 E0.02854
G1 X117.481 Y82.907 E0.01228
G1 X117.289 Y83.234 E0.01141
G1 X117.083 Y83.525 E0.01072
G1 X116.919 Y83.688 E0.00697
G1 X116.675 Y83.801 E0.00809
G1 X116.401 Y83.774 E0.00826
G1 X116.150 Y83.636 E0.00864
G1 X116.003 Y83.463 E0.00680
G1 X115.939 Y83.278 E0.00590
G1 X115.934 Y83.131 E0.00443
G1 X115.975 Y82.923 E0.00636
G1 X116.041 Y82.758 E0.00535
G1 X116.568 Y81.833 E0.03203
G1 X116.895 Y81.372 E0.01700
G1 X116.928 Y81.279 E0.00297
G1 X116.896 Y81.173 E0.00332
G1 X116.663 Y80.821 E0.01269
G1 X116.104 Y79.815 E0.03463
G1 X116.020 Y79.567 E0.00786
G1 X116.005 Y79.288 E0.00840
G1 X116.110 Y79.046 E0.00794
G1 X116.320 Y78.871 E0.00822
G1 X116.470 Y78.807 E0.00492
G1 X116.636 Y78.777 E0.00507
G1 X116.763 Y78.780 E0.00381
G1 X116.946 Y78.837 E0.00577
G1 X117.074 Y78.917 E0.00454
G1 X117.239 Y79.077 E0.00690
G1 X117.465 Y79.405 E0.01199
G1 X117.736 Y79.932 E0.01782
G1 X117.912 Y79.533 E0.01312
G1 X118.061 Y79.263 E0.00926
G1 X118.245 Y79.041 E0.00868
G1 X118.432 Y78.886 E0.00729
G1 X118.682 Y78.779 E0.00819
G1 X118.944 Y78.800 E0.00791
G1 X119.179 Y78.951 E0.00840
G1 X119.334 Y79.164 E0.00794
G1 X119.360 Y79.275 E0.00343
G1 X119.479 Y79.356 F7200.000
G1 F5760
G1 X119.399 Y79.438 E-0.05798
G1 F5760
G1 X119.323 Y79.739 E-0.10751
G1 F5760
G1 X118.636 Y80.902 E-0.46780
G1 F5760
G1 X118.563 Y81.074 E-0.06492
G1 F5760
G1 X118.539 Y81.204 E-0.04573
G1 F5760
G1 X118.549 Y81.323 E-0.04137
G1 F5760
G1 X118.596 Y81.448 E-0.04625
G1 F5760
G1 X118.772 Y81.741 E-0.11844
G1 E-0.05000 F2100.00000
G1 X115.267 Y82.124 F7200.000
G1 E1.00000 F2100.00000
G1 F480
G1 X115.383 Y82.305 E0.00645
G1 X115.468 Y82.506 E0.00657
G1 X115.523 Y82.812 E0.00936
G1 X115.513 Y83.031 E0.00660
G1 X115.465 Y83.244 E0.00656
G1 X115.332 Y83.525 E0.00934
G1 X115.198 Y83.698 E0.00660
G1 X115.034 Y83.844 E0.00659
G1 X114.762 Y83.996 E0.00936
G1 X114.552 Y84.058 E0.00660
G1 X114.340 Y84.081 E0.00642
G1 X114.126 Y84.066 E0.00644
G1 X113.919 Y84.016 E0.00641
G1 X113.719 Y83.926 E0.00661
G1 X113.469 Y83.739 E0.00938
G1 X113.327 Y83.574 E0.00657
G1 X113.217 Y83.385 E0.00656
G1 X113.121 Y83.089 E0.00937
G1 X113.103 Y82.870 E0.00660
G1 X113.121 Y82.653 E0.00657
G1 X113.217 Y82.356 E0.00937
G1 X113.327 Y82.168 E0.00656
G1 X113.466 Y82.005 E0.00644
G1 X113.632 Y81.870 E0.00642
G1 X113.818 Y81.765 E0.00645
G1 X114.026 Y81.694 E0.00658
G1 X114.303 Y81.661 E0.00839
G1 X114.550 Y81.683 E0.00747
G1 X114.758 Y81.744 E0.00653
G1 X114.950 Y81.841 E0.00645
G1 X115.120 Y81.968 E0.00639
G1 X115.226 Y82.081 E0.00465
G1 X115.479 Y82.095 F7200.000
G1 F5760
G1 X115.383 Y82.305 E-0.09478
G1 F5760
G1 X115.468 Y82.506 E-0.07567
G1 F5760
G1 X115.523 Y82.812 E-0.10778
G1 F5760
G1 X115.513 Y83.031 E-0.07603
G1 F5760
G1 X115.465 Y83.244 E-0.07555
G1 F5760
G1 X115.332 Y83.525 E-0.10758
G1 F5760
G1 X115.198 Y83.698 E-0.07604
G1 F5760
G1 X115.034 Y83.844 E-0.07592
G1 F5760
G1 X114.762 Y83.996 E-0.10783
G1 F5760
G1 X114.552 Y84.058 E-0.07601
G1 F5760
G1 X114.340 Y84.081 E-0.07387
G1 F5760
G1 X114.331 Y84.080 E-0.00294
G1 E-0.05000 F2100.00000
G1 X108.791 Y83.566 F7200.000
G1 E1.00000 F2100.00000
G1 F480
G1 X108.646 Y83.448 E0.00560
G1 X108.538 Y83.271 E0.00625
G1 X108.471 Y83.046 E0.00707
G1 X108.447 Y82.773 E0.00822
G1 X108.465 Y82.171 E0.01813
G1 X108.470 Y78.556 E0.10873
G1 X108.427 Y77.931 E0.01886
G1 X108.502 Y77.657 E0.00853
G1 X108.695 Y77.470 E0.00808
G1 X108.976 Y77.361 E0.00906
G1 X109.273 Y77.330 E0.00898
G1 X110.882 Y77.366 E0.04840
G1 X111.334 Y77.426 E0.01372
G1 X111.804 Y77.548 E0.01461
G1 X112.181 Y77.733 E0.01264
G1 X112.523 Y78.005 E0.01315
G1 X112.793 Y78.321 E0.01249
G1 X113.042 Y78.745 E0.01479
G1 X113.186 Y79.110 E0.01181
G1 X113.261 Y79.379 E0.00841
G1 X113.356 Y79.980 E0.01828
G1 X113.376 Y80.486 E0.01525
G1 X113.362 Y80.840 E0.01066
G1 X113.270 Y81.475 E0.01928
G1 X113.101 Y82.017 E0.01708
G1 X112.986 Y82.265 E0.00823
G1 X112.787 Y82.586 E0.01135
G1 X112.555 Y82.862 E0.01085
G1 X112.372 Y83.030 E0.00746
G1 X112.182 Y83.173 E0.00718
G1 X111.880 Y83.343 E0.01040
G1 X111.454 Y83.487 E0.01353
G1 X110.917 Y83.573 E0.01638
G1 X110.395 Y83.600 E0.01572
G1 X109.577 Y83.592 E0.02459
G1 X109.133 Y83.634 E0.01343
G1 X108.927 Y83.617 E0.00621
G1 X108.847 Y83.587 E0.00258
G1 X108.630 Y83.659 F7200.000
G1 F5760
G1 X108.646 Y83.448 E-0.08445
G1 F5760
G1 X108.538 Y83.271 E-0.07195
G1 F5760
G1 X108.471 Y83.046 E-0.08146
G1 F5760
G1 X108.447 Y82.773 E-0.09464
G1 F5760
G1 X108.465 Y82.171 E-0.20871
G1 F5760
G1 X108.466 Y80.991 E-0.40879
G1 E-0.05000 F2100.00000
G1 X105.230 Y78.980 F7200.000
G1 E1.00000 F2100.00000
G1 F480
G1 X105.106 Y79.036 E0.00410
G1 X104.863 Y79.077 E0.00741
G1 X105.136 Y78.907 E0.00966
G1 X105.279 Y78.875 E0.00444
G1 X105.270 Y78.936 E0.00186
G1 X104.352 Y78.922 F7200.000
G1 F480
G1 X104.162 Y78.940 E0.00573
G1 X103.968 Y78.877 E0.00613
G1 X103.770 Y78.722 E0.00757
G1 X103.629 Y78.526 E0.00727
G1 X103.547 Y78.302 E0.00716
G1 X103.539 Y78.082 E0.00663
G1 X103.636 Y77.835 E0.00799
G1 X103.789 Y77.656 E0.00708
G1 X103.998 Y77.497 E0.00790
G1 X104.275 Y77.353 E0.00939
G1 X104.584 Y77.249 E0.00981
G1 X104.929 Y77.188 E0.01053
G1 X105.533 Y77.172 E0.01817
G1 X105.814 Y77.203 E0.00851
G1 X106.140 Y77.273 E0.01003
G1 X106.345 Y77.346 E0.00654
G1 X106.606 Y77.486 E0.00893
G1 X106.766 Y77.610 E0.00606
G1 X106.961 Y77.820 E0.00863
G1 X107.108 Y78.062 E0.00852
G1 X107.206 Y78.395 E0.01044
G1 X107.224 Y78.691 E0.00894
G1 X107.187 Y79.183 E0.01482
G1 X107.099 Y79.509 E0.01016
G1 X106.974 Y79.712 E0.00718
G1 X106.799 Y79.871 E0.00713
G1 X106.539 Y80.015 E0.00891
G1 X106.775 Y80.114 E0.00769
G1 X106.911 Y80.204 E0.00489
G1 X107.066 Y80.366 E0.00675
G1 X107.187 Y80.572 E0.00719
G1 X107.298 Y80.883 E0.00992
G1 X107.417 Y81.315 E0.01348
G1 X107.464 Y81.633 E0.00969
G1 X107.443 Y82.039 E0.01223
G1 X107.326 Y82.460 E0.01315
G1 X107.173 Y82.777 E0.01057
G1 X106.908 Y83.136 E0.01342
G1 X106.580 Y83.417 E0.01298
G1 X106.196 Y83.621 E0.01308
G1 X105.779 Y83.734 E0.01302
G1 X105.404 Y83.771 E0.01132
G1 X104.994 Y83.765 E0.01235
G1 X104.747 Y83.736 E0.00746
G1 X104.429 Y83.665 E0.00982
G1 X104.141 Y83.556 E0.00926
G1 X103.918 Y83.420 E0.00784
G1 X103.731 Y83.238 E0.00784
G1 X103.590 Y82.978 E0.00892
G1 X103.536 Y82.729 E0.00764
G1 X103.569 Y82.424 E0.00925
G1 X103.716 Y82.180 E0.00856
G1 X103.951 Y82.032 E0.00835
G1 X104.252 Y81.979 E0.00921
G1 X104.499 Y82.007 E0.00748
G1 X104.701 Y82.081 E0.00645
G1 X105.131 Y82.390 E0.01593
G1 X105.235 Y82.444 E0.00355
G1 X105.373 Y82.464 E0.00419
G1 X105.493 Y82.443 E0.00365
G1 X105.687 Y82.349 E0.00649
G1 X105.799 Y82.251 E0.00449
G1 X105.885 Y82.127 E0.00451
G1 X105.939 Y81.986 E0.00455
G1 X105.960 Y81.774 E0.00640
G1 X105.916 Y81.566 E0.00640
G1 X105.795 Y81.341 E0.00769
G1 X105.658 Y81.184 E0.00628
G1 X105.492 Y81.052 E0.00638
G1 X105.304 Y80.957 E0.00632
G1 X105.170 Y80.913 E0.00425
G1 X104.676 Y80.822 E0.01512
G1 X104.475 Y80.745 E0.00647
G1 X104.294 Y80.575 E0.00747
G1 X104.224 Y80.375 E0.00637
G1 X104.220 Y80.152 E0.00669
G1 X104.277 Y79.923 E0.00710
G1 X104.353 Y79.770 E0.00514
G1 X104.501 Y79.599 E0.00678
G1 X104.743 Y79.480 E0.00813
G1 X105.198 Y79.403 E0.01388
G1 X105.348 Y79.352 E0.00476
G1 X105.472 Y79.273 E0.00443
G1 X105.573 Y79.166 E0.00443
G1 X105.639 Y79.050 E0.00402
G1 X105.664 Y78.942 E0.00333
G1 X105.649 Y78.779 E0.00493
G1 X105.604 Y78.671 E0.00352
G1 X105.533 Y78.584 E0.00339
G1 X105.453 Y78.530 E0.00289
G1 X105.353 Y78.499 E0.00317
G1 X105.224 Y78.496 E0.00387
G1 X105.003 Y78.552 E0.00685
G1 X104.496 Y78.866 E0.01794
G1 X104.407 Y78.901 E0.00286
G1 X104.297 Y79.105 F7200.000
G1 F5760
G1 X104.162 Y78.940 E-0.08614
G1 F5760
G1 X103.968 Y78.877 E-0.07059
G1 F5760
G1 X103.770 Y78.722 E-0.08714
G1 F5760
G1 X103.629 Y78.526 E-0.08368
G1 F5760
G1 X103.547 Y78.302 E-0.08247
G1 F5760
G1 X103.539 Y78.082 E-0.07629
G1 F5760
G1 X103.636 Y77.835 E-0.09196
G1 F5760
G1 X103.789 Y77.656 E-0.08158
G1 F5760
G1 X103.998 Y77.497 E-0.09102
G1 F5760
G1 X104.275 Y77.353 E-0.10813
G1 F5760
G1 X104.524 Y77.269 E-0.09101
G1 E-0.05000 F2100.00000
G1 X102.659 Y77.442 F7200.000
G1 E1.00000 F2100.00000
G1 F480
G1 X102.769 Y77.541 E0.00444
G1 X102.867 Y77.718 E0.00608
G1 X102.914 Y78.010 E0.00890
G1 X102.873 Y78.276 E0.00810
G1 X102.770 Y78.467 E0.00653
G1 X102.569 Y78.621 E0.00760
G1 X102.357 Y78.687 E0.00669
G1 X102.030 Y78.721 E0.00990
G1 X101.102 Y78.707 E0.02791
G1 X101.006 Y78.749 E0.00315
G1 X100.981 Y78.957 E0.00632
G1 X100.998 Y82.870 E0.11771
G1 X100.953 Y83.119 E0.00761
G1 X100.865 Y83.322 E0.00666
G1 X100.718 Y83.488 E0.00665
G1 X100.531 Y83.590 E0.00642
G1 X100.239 Y83.629 E0.00885
G1 X99.928 Y83.560 E0.00959
G1 X99.718 Y83.406 E0.00783
G1 X99.639 Y83.273 E0.00466
G1 X99.595 Y83.082 E0.00590
G1 X99.635 Y82.434 E0.01951
G1 X99.618 Y79.651 E0.08372
G1 X99.653 Y79.087 E0.01700
G1 X99.629 Y78.915 E0.00524
G1 X99.591 Y78.843 E0.00243
G1 X99.524 Y78.776 E0.00286
G1 X99.344 Y78.699 E0.00587
G1 X99.088 Y78.686 E0.00772
G1 X98.364 Y78.761 E0.02190
G1 X98.154 Y78.724 E0.00643
G1 X97.979 Y78.625 E0.00602
G1 X97.844 Y78.465 E0.00632
G1 X97.759 Y78.260 E0.00667
G1 X97.728 Y78.027 E0.00707
G1 X97.763 Y77.797 E0.00700
G1 X97.860 Y77.591 E0.00684
G1 X98.009 Y77.433 E0.00653
G1 X98.174 Y77.345 E0.00563
G1 X98.402 Y77.309 E0.00696
G1 X99.029 Y77.352 E0.01891
G1 X102.339 Y77.341 E0.09954
G1 X102.491 Y77.366 E0.00464
G1 X102.605 Y77.417 E0.00375
G1 X102.792 Y77.377 F7200.000
G1 F5760
G1 X102.769 Y77.541 E-0.07121
G1 F5760
G1 X102.867 Y77.718 E-0.07004
G1 F5760
G1 X102.914 Y78.010 E-0.10247
G1 F5760
G1 X102.873 Y78.276 E-0.09326
G1 F5760
G1 X102.770 Y78.467 E-0.07524
G1 F5760
G1 X102.569 Y78.621 E-0.08749
G1 F5760
G1 X102.357 Y78.687 E-0.07700
G1 F5760
G1 X102.030 Y78.721 E-0.11400
G1 F5760
G1 X101.281 Y78.709 E-0.25929
G1 E-0.05000 F2100.00000
G1 X97.099 Y78.433 F7200.000
G1 E1.00000 F2100.00000
G1 F480
G1 X97.073 Y78.584 E0.00460
G1 X96.987 Y78.781 E0.00647
G1 X96.882 Y78.917 E0.00516
G1 X96.707 Y79.051 E0.00663
G1 X96.498 Y79.115 E0.00656
G1 X96.286 Y79.103 E0.00641
G1 X96.056 Y79.031 E0.00724
G1 X95.366 Y78.641 E0.02385
G1 X95.216 Y78.596 E0.00471
G1 X95.091 Y78.585 E0.00378
G1 X94.806 Y78.617 E0.00862
G1 X94.596 Y78.688 E0.00668
G1 X94.405 Y78.795 E0.00658
G1 X94.249 Y78.927 E0.00615
G1 X94.078 Y79.157 E0.00862
G1 X93.975 Y79.380 E0.00740
G1 X93.894 Y79.655 E0.00863
G1 X93.841 Y79.990 E0.01020
G1 X93.817 Y80.428 E0.01317
G1 X93.836 Y80.904 E0.01434
G1 X93.886 Y81.251 E0.01054
G1 X93.968 Y81.549 E0.00929
G1 X94.079 Y81.789 E0.00795
G1 X94.251 Y82.017 E0.00858
G1 X94.466 Y82.184 E0.00821
