; generated by Slic3r 1.36.2-prusa3d-linux64 on 2017-08-28 at 15:32:33

; 

; external perimeters extrusion width = 0.45mm
; perimeters extrusion width = 0.45mm
; infill extrusion width = 0.45mm
; solid infill extrusion width = 0.45mm
; top infill extrusion width = 0.40mm
; first layer extrusion width = 0.60mm

M107
M190 S60 ; set bed temperature and wait for it to be reached
M104 S215 ; set temperature
G28 ; home all axes
G1 Z5 F5000 ; lift nozzle

; Filament gcode

M109 S215 ; set temperature and wait for it to be reached
G21 ; set units to millimeters
G90 ; use absolute coordinates
M82 ; use absolute distances for extrusion
G92 E0
G1 Z0.400 F7800.000
G1 E-2.00000 F2400.00000
G92 E0
G1 X82.513 Y22.515 F7800.000
G1 E2.00000 F2400.00000
G1 F1800
G1 X82.911 Y21.685 E2.10470
G1 X83.424 Y20.912 E2.21012
G1 X84.038 Y20.217 E2.31555
G1 X84.742 Y19.613 E2.42097
G1 X85.523 Y19.112 E2.52640
G1 X86.365 Y18.724 E2.63182
G1 X87.253 Y18.455 E2.73725
G1 X88.169 Y18.311 E2.84267
G1 X131.256 Y18.286 E7.74030
G1 X132.479 Y18.399 E7.87982
G1 X133.660 Y18.733 E8.01933
G1 X134.766 Y19.280 E8.15957
G1 X135.748 Y20.015 E8.29908
G1 X136.580 Y20.918 E8.43859
G1 X137.235 Y21.956 E8.57811
G1 X137.689 Y23.096 E8.71762
G1 X137.928 Y24.300 E8.85713
G1 X137.964 Y75.058 E14.62659
G1 X137.838 Y76.298 E14.76827
G1 X137.487 Y77.487 E14.90924
G1 X96.971 Y177.526 E27.17761
G1 X96.287 Y178.798 E27.34174
G1 X95.314 Y179.925 E27.51094
G1 X94.117 Y180.809 E27.68013
G1 X92.754 Y181.408 E27.84932
G1 X91.293 Y181.692 E28.01852
G1 X68.628 Y181.713 E30.59474
G1 X67.427 Y181.583 E30.73208
G1 X66.263 Y181.237 E30.87014
G1 X65.427 Y180.834 E30.97557
G1 X64.660 Y180.325 E31.08026
G1 X63.970 Y179.715 E31.18496
G1 X63.366 Y179.011 E31.29039
G1 X62.864 Y178.231 E31.39581
G1 X62.477 Y177.395 E31.50051
G1 X62.209 Y176.514 E31.60521
G1 X62.063 Y175.598 E31.71064
G1 X62.071 Y134.316 E36.40300
G1 X82.145 Y23.793 E49.17147
G1 X82.496 Y22.573 E49.31575
G1 E47.31575 F2400.00000
G92 E0
G1 X88.922 Y136.828 F7800.000
G1 E2.00000 F2400.00000
G1 F1800
G1 X88.922 Y173.172 E6.13106
G1 X70.578 Y173.172 E8.21610
G1 X70.578 Y136.828 E12.34715
G1 X76.422 Y136.828 E13.01135
G1 X76.422 Y156.828 E15.28470
G1 X85.078 Y156.828 E16.26868
G1 X85.078 Y136.828 E18.54202
G1 X88.862 Y136.828 E18.97207
G1 E16.97207 F2400.00000
G92 E0
G1 X77.136 Y156.114 F7800.000
G1 E2.00000 F2400.00000
G1 F1800
G1 X84.364 Y156.114 E2.82162
G1 X84.364 Y136.114 E5.09497
G1 X89.636 Y136.114 E5.69419
G1 X89.636 Y173.886 E9.98760
G1 X69.864 Y173.886 E12.23499
G1 X69.864 Y136.114 E16.52840
G1 X77.136 Y136.114 E17.35495
G1 X77.136 Y156.054 E19.62148
G1 X77.850 Y155.400 F7800.000
G1 F1800
G1 X83.650 Y155.400 E20.28075
G1 X83.650 Y135.400 E22.55410
G1 X89.150 Y135.400 E23.17927
G1 X89.150 Y25.400 E35.68268
G1 X130.850 Y25.400 E40.42261
G1 X130.850 Y74.600 E46.01505
G1 X129.650 Y74.600 E46.15145
G1 X129.650 Y26.600 E51.60748
G1 X90.350 Y26.600 E56.07461
G1 X90.350 Y174.600 E72.89738
G1 X69.150 Y174.600 E75.30713
G1 X69.150 Y135.400 E79.76289
G1 X77.850 Y135.400 E80.75180
G1 X77.850 Y155.340 E83.01833
G1 X77.905 Y155.796 F7800.000
G1 E81.01833 F2400.00000
G92 E0
G1 X76.701 Y157.043 F7800.000
G1 E2.00000 F2400.00000
G1 F1800
G1 X88.386 Y168.728 E3.89470
G1 X88.386 Y167.710 E4.01145
G1 X78.040 Y157.364 E5.68893
G1 X79.059 Y157.364 E5.80568
G1 X88.386 Y166.691 E7.31804
G1 X88.386 Y165.673 E7.43479
G1 X80.077 Y157.364 E8.78203
G1 X81.096 Y157.364 E8.89878
G1 X88.386 Y164.654 E10.08090
G1 X88.386 Y163.636 E10.19765
G1 X82.114 Y157.364 E11.21465
G1 X83.132 Y157.364 E11.33141
G1 X88.386 Y162.618 E12.18329
G1 X88.386 Y161.599 E12.30004
G1 X84.151 Y157.364 E12.98680
G1 X85.169 Y157.364 E13.10356
G1 X88.386 Y160.581 E13.62520
G1 X88.386 Y159.563 E13.74196
G1 X85.614 Y156.791 E14.19144
G1 X85.614 Y155.772 E14.30820
G1 X88.386 Y158.544 E14.75769
G1 X88.386 Y157.526 E14.87445
G1 X85.614 Y154.754 E15.32393
G1 X85.614 Y153.736 E15.44069
G1 X88.386 Y156.508 E15.89018
G1 X88.386 Y155.489 E16.00693
G1 X85.614 Y152.717 E16.45642
G1 X85.614 Y151.699 E16.57318
G1 X88.386 Y154.471 E17.02267
G1 X88.386 Y153.453 E17.13942
G1 X85.614 Y150.680 E17.58891
G1 X85.614 Y149.662 E17.70567
G1 X88.386 Y152.434 E18.15516
G1 X88.386 Y151.416 E18.27191
G1 X85.614 Y148.644 E18.72140
G1 X85.614 Y147.625 E18.83816
G1 X88.386 Y150.398 E19.28765
G1 X88.386 Y149.379 E19.40440
G1 X85.614 Y146.607 E19.85389
G1 X85.614 Y145.589 E19.97065
G1 X88.386 Y148.361 E20.42014
G1 X88.386 Y147.343 E20.53689
G1 X85.614 Y144.570 E20.98638
G1 X85.614 Y143.552 E21.10314
G1 X88.386 Y146.324 E21.55262
G1 X88.386 Y145.306 E21.66938
G1 X85.614 Y142.534 E22.11887
G1 X85.614 Y141.515 E22.23563
G1 X88.386 Y144.287 E22.68511
G1 X88.386 Y143.269 E22.80187
G1 X85.614 Y140.497 E23.25136
G1 X85.614 Y139.479 E23.36811
G1 X88.386 Y142.251 E23.81760
G1 X88.386 Y141.232 E23.93436
G1 X85.614 Y138.460 E24.38385
G1 X85.614 Y137.442 E24.50060
G1 X88.386 Y140.214 E24.95009
G1 X88.386 Y139.196 E25.06685
G1 X86.554 Y137.364 E25.36386
G1 X87.573 Y137.364 E25.48062
G1 X88.707 Y138.499 E25.66462
G1 E23.66462 F2400.00000
G92 E0
G1 X89.750 Y135.757 F7800.000
G1 E2.00000 F2400.00000
G1 F1800
G1 X89.750 Y26.243 E8.72665
G1 F1800
G1 X89.792 Y26.042 E8.74213
G1 X89.892 Y26.021 E8.74986
G1 F1800
G1 X89.993 Y26.000 E8.75617
G1 X130.007 Y26.000 E11.21395
G1 F1800
G1 X130.208 Y26.042 E11.22942
G1 X130.229 Y26.142 E11.23716
G1 F1800
G1 X130.250 Y26.243 E11.24347
G1 X130.250 Y74.243 E14.19176
G1 E12.19176 F2400.00000
G92 E0
G1 X76.207 Y138.219 F7800.000
G1 E2.00000 F2400.00000
G1 F1800
G1 X75.352 Y137.364 E2.13864
G1 X74.334 Y137.364 E2.25539
G1 X75.886 Y138.916 E2.50704
G1 X75.886 Y139.934 E2.62380
G1 X73.316 Y137.364 E3.04056
G1 X72.297 Y137.364 E3.15732
G1 X75.886 Y140.953 E3.73920
G1 X75.886 Y141.971 E3.85596
G1 X71.279 Y137.364 E4.60296
G1 X71.114 Y137.364 E4.62189
G1 X71.114 Y138.217 E4.71972
G1 X75.886 Y142.989 E5.49349
G1 X75.886 Y144.008 E5.61025
G1 X71.114 Y139.236 E6.38402
G1 X71.114 Y140.254 E6.50078
G1 X75.886 Y145.026 E7.27455
G1 X75.886 Y146.044 E7.39131
G1 X71.114 Y141.272 E8.16508
G1 X71.114 Y142.291 E8.28184
G1 X75.886 Y147.063 E9.05561
G1 X75.886 Y148.081 E9.17237
G1 X71.114 Y143.309 E9.94615
G1 X71.114 Y144.327 E10.06290
G1 X75.886 Y149.099 E10.83668
G1 X75.886 Y150.118 E10.95343
G1 X71.114 Y145.346 E11.72721
G1 X71.114 Y146.364 E11.84396
G1 X75.886 Y151.136 E12.61774
G1 X75.886 Y152.154 E12.73449
G1 X71.114 Y147.382 E13.50827
G1 X71.114 Y148.401 E13.62503
G1 X75.886 Y153.173 E14.39880
G1 X75.886 Y154.191 E14.51556
G1 X71.114 Y149.419 E15.28933
G1 X71.114 Y150.437 E15.40609
G1 X75.886 Y155.210 E16.17986
G1 X75.886 Y156.228 E16.29662
G1 X71.114 Y151.456 E17.07039
G1 X71.114 Y152.474 E17.18715
G1 X88.386 Y169.746 E19.98771
G1 X88.386 Y170.765 E20.10447
G1 X71.114 Y153.492 E22.90503
G1 X71.114 Y154.511 E23.02179
G1 X88.386 Y171.783 E25.82235
G1 X88.386 Y172.636 E25.92017
G1 X88.221 Y172.636 E25.93911
G1 X71.114 Y155.529 E28.71288
G1 X71.114 Y156.547 E28.82964
G1 X87.203 Y172.636 E31.43830
G1 X86.184 Y172.636 E31.55505
G1 X71.114 Y157.566 E33.99859
G1 X71.114 Y158.584 E34.11535
G1 X85.166 Y172.636 E36.39377
G1 X84.147 Y172.636 E36.51052
G1 X71.114 Y159.603 E38.62383
G1 X71.114 Y160.621 E38.74058
G1 X83.129 Y172.636 E40.68876
G1 X82.111 Y172.636 E40.80552
G1 X71.114 Y161.639 E42.58858
G1 X71.114 Y162.658 E42.70534
G1 X81.092 Y172.636 E44.32329
G1 X80.074 Y172.636 E44.44004
G1 X71.114 Y163.676 E45.89287
G1 X71.114 Y164.694 E46.00963
G1 X79.056 Y172.636 E47.29733
G1 X78.037 Y172.636 E47.41409
G1 X71.114 Y165.713 E48.53668
G1 X71.114 Y166.731 E48.65344
G1 X77.019 Y172.636 E49.61091
G1 X76.001 Y172.636 E49.72766
G1 X71.114 Y167.749 E50.52001
G1 X71.114 Y168.768 E50.63677
G1 X74.982 Y172.636 E51.26400
G1 X73.964 Y172.636 E51.38076
G1 X71.114 Y169.786 E51.84288
G1 X71.114 Y170.804 E51.95963
G1 X72.946 Y172.636 E52.25663
G1 X71.927 Y172.636 E52.37338
G1 X70.793 Y171.501 E52.55737
G1 Z0.700 F7800.000
M104 S210 ; set temperature
M140 S55 ; set bed temperature
G1 X77.254 Y155.996 F7800.000
G1 F3600
G1 X84.246 Y155.996 E52.87363
G1 X84.246 Y135.996 E53.77822
G1 X89.754 Y135.996 E54.02732
G1 X89.754 Y174.004 E55.74636
G1 X69.746 Y174.004 E56.65128
G1 X69.746 Y135.996 E58.37033
G1 X77.254 Y135.996 E58.70989
G1 X77.254 Y155.936 E59.61175
G1 X77.639 Y155.611 F7800.000
G1 F3600
G1 X83.861 Y155.611 E59.89313
G1 X83.861 Y135.611 E60.79772
G1 X89.361 Y135.611 E61.04648
G1 X89.361 Y25.611 E66.02167
G1 X130.639 Y25.611 E67.88867
G1 X130.639 Y74.389 E70.09489
G1 X129.861 Y74.389 E70.13012
G1 X129.861 Y26.389 E72.30111
G1 X90.139 Y26.389 E74.09767
G1 X90.139 Y174.389 E80.79157
G1 X69.361 Y174.389 E81.73137
G1 X69.361 Y135.611 E83.48530
G1 X77.639 Y135.611 E83.85974
G1 X77.639 Y155.551 E84.76161
G1 X78.025 Y155.225 F7800.000
G1 F1800
G1 X83.475 Y155.225 E85.00811
G1 X83.475 Y135.225 E85.91269
G1 X88.975 Y135.225 E86.16145
G1 X88.975 Y25.225 E91.13665
G1 X131.025 Y25.225 E93.03853
G1 X131.025 Y74.775 E95.27963
G1 X129.475 Y74.775 E95.34974
G1 X129.475 Y26.775 E97.52073
G1 X90.525 Y26.775 E99.28240
G1 X90.525 Y174.775 E105.97631
G1 X68.975 Y174.775 E106.95099
G1 X68.975 Y135.225 E108.73980
G1 X78.025 Y135.225 E109.14913
G1 X78.025 Y155.165 E110.05099
G1 X78.081 Y155.621 F7800.000
G1 X69.862 Y170.377 F7800.000
G1 F1200
G1 X83.953 Y156.285 E110.95847
G1 X83.404 Y156.285 E110.98346
G1 X70.035 Y169.654 E111.84442
G1 X70.035 Y169.105 E111.86941
G1 X82.855 Y156.285 E112.69502
G1 X82.306 Y156.285 E112.72002
G1 X70.035 Y168.556 E113.51028
G1 X70.035 Y168.008 E113.53527
G1 X81.758 Y156.285 E114.29019
G1 X81.209 Y156.285 E114.31518
G1 X70.035 Y167.459 E115.03475
G1 X70.035 Y166.910 E115.05975
G1 X80.660 Y156.285 E115.74397
G1 X80.111 Y156.285 E115.76897
G1 X70.035 Y166.361 E116.41784
G1 X70.035 Y165.812 E116.44284
G1 X79.562 Y156.285 E117.05637
G1 X79.013 Y156.285 E117.08136
G1 X70.035 Y165.263 E117.65955
G1 X70.035 Y164.715 E117.68454
G1 X78.465 Y156.285 E118.22738
G1 X77.916 Y156.285 E118.25237
G1 X70.035 Y164.166 E118.75986
G1 X70.035 Y163.617 E118.78486
G1 X77.367 Y156.285 E119.25700
G1 X76.965 Y156.285 E119.27532
G1 X76.965 Y156.139 E119.28200
G1 X70.035 Y163.068 E119.72824
G1 X70.035 Y162.519 E119.75323
G1 X76.965 Y155.590 E120.19947
G1 X76.965 Y155.041 E120.22447
G1 X70.035 Y161.970 E120.67071
G1 X70.035 Y161.421 E120.69570
G1 X76.965 Y154.492 E121.14194
G1 X76.965 Y153.943 E121.16693
G1 X70.035 Y160.873 E121.61317
G1 X70.035 Y160.324 E121.63817
G1 X76.965 Y153.395 E122.08441
G1 X76.965 Y152.846 E122.10940
G1 X70.035 Y159.775 E122.55564
G1 X70.035 Y159.226 E122.58064
G1 X76.965 Y152.297 E123.02688
G1 X76.965 Y151.748 E123.05187
G1 X70.035 Y158.677 E123.49811
G1 X70.035 Y158.128 E123.52310
G1 X76.965 Y151.199 E123.96935
G1 X76.965 Y150.650 E123.99434
G1 X70.035 Y157.579 E124.44058
G1 X70.035 Y157.031 E124.46557
G1 X76.965 Y150.101 E124.91181
G1 X76.965 Y149.553 E124.93681
G1 X70.035 Y156.482 E125.38305
G1 X70.035 Y155.933 E125.40804
G1 X76.965 Y149.004 E125.85428
G1 X76.965 Y148.455 E125.87928
G1 X70.035 Y155.384 E126.32552
G1 X70.035 Y154.835 E126.35051
G1 X76.965 Y147.906 E126.79675
G1 X76.965 Y147.357 E126.82174
G1 X70.035 Y154.286 E127.26798
G1 X70.035 Y153.737 E127.29298
G1 X76.965 Y146.808 E127.73922
G1 X76.965 Y146.259 E127.76421
G1 X70.035 Y153.189 E128.21045
G1 X70.035 Y152.640 E128.23545
G1 X76.965 Y145.711 E128.68169
G1 X76.965 Y145.162 E128.70668
G1 X70.035 Y152.091 E129.15292
G1 X70.035 Y151.542 E129.17791
G1 X76.965 Y144.613 E129.62416
G1 X76.965 Y144.064 E129.64915
G1 X70.035 Y150.993 E130.09539
G1 X70.035 Y150.444 E130.12038
G1 X76.965 Y143.515 E130.56662
G1 X76.965 Y142.966 E130.59162
G1 X70.035 Y149.896 E131.03786
G1 X70.035 Y149.347 E131.06285
G1 X76.965 Y142.418 E131.50909
G1 X76.965 Y141.869 E131.53409
G1 X70.035 Y148.798 E131.98033
G1 X70.035 Y148.249 E132.00532
G1 X76.965 Y141.320 E132.45156
G1 X76.965 Y140.771 E132.47655
G1 X70.035 Y147.700 E132.92279
G1 X70.035 Y147.151 E132.94779
G1 X76.965 Y140.222 E133.39403
G1 X76.965 Y139.673 E133.41902
G1 X70.035 Y146.602 E133.86526
G1 X70.035 Y146.054 E133.89026
G1 X76.965 Y139.124 E134.33650
G1 X76.965 Y138.576 E134.36149
G1 X70.035 Y145.505 E134.80773
G1 X70.035 Y144.956 E134.83272
G1 X76.965 Y138.027 E135.27897
G1 X76.965 Y137.478 E135.30396
G1 X70.035 Y144.407 E135.75020
G1 X70.035 Y143.858 E135.77519
G1 X76.965 Y136.929 E136.22143
G1 X76.965 Y136.380 E136.24643
G1 X70.035 Y143.309 E136.69267
G1 X70.035 Y142.760 E136.71766
G1 X76.510 Y136.285 E137.13466
G1 X75.962 Y136.285 E137.15965
G1 X70.035 Y142.212 E137.54130
G1 X70.035 Y141.663 E137.56629
G1 X75.413 Y136.285 E137.91259
G1 X74.864 Y136.285 E137.93759
G1 X70.035 Y141.114 E138.24854
G1 X70.035 Y140.565 E138.27354
G1 X74.315 Y136.285 E138.54914
G1 X73.766 Y136.285 E138.57414
G1 X70.035 Y140.016 E138.81440
G1 X70.035 Y139.467 E138.83939
G1 X73.217 Y136.285 E139.04431
G1 X72.668 Y136.285 E139.06930
G1 X70.035 Y138.918 E139.23887
G1 X70.035 Y138.370 E139.26387
G1 X72.120 Y136.285 E139.39809
G1 X71.571 Y136.285 E139.42309
G1 X70.035 Y137.821 E139.52196
G1 X70.035 Y137.272 E139.54696
G1 X71.022 Y136.285 E139.61049
G1 X70.473 Y136.285 E139.63548
G1 X69.862 Y136.897 E139.67484
G1 E137.67484 F2400.00000
G92 E0
G1 X84.917 Y136.112 F7800.000
G1 E2.00000 F2400.00000
G1 F1200
G1 X84.535 Y136.493 E2.02456
G1 X84.535 Y137.042 E2.04955
G1 X85.292 Y136.285 E2.09828
G1 X85.841 Y136.285 E2.12327
G1 X84.535 Y137.591 E2.20735
G1 X84.535 Y138.140 E2.23234
G1 X86.390 Y136.285 E2.35176
G1 X86.939 Y136.285 E2.37676
G1 X84.535 Y138.689 E2.53152
G1 X84.535 Y139.237 E2.55652
G1 X87.487 Y136.285 E2.74663
G1 X88.036 Y136.285 E2.77163
G1 X84.535 Y139.786 E2.99709
G1 X84.535 Y140.335 E3.02208
G1 X88.585 Y136.285 E3.28289
G1 X89.134 Y136.285 E3.30788
G1 X84.535 Y140.884 E3.60403
G1 X84.535 Y141.433 E3.62903
G1 X89.465 Y136.504 E3.94647
G1 X89.465 Y137.053 E3.97146
G1 X84.535 Y141.982 E4.28890
G1 X84.535 Y142.531 E4.31389
G1 X89.465 Y137.601 E4.63133
G1 X89.465 Y138.150 E4.65633
G1 X84.535 Y143.079 E4.97377
G1 X84.535 Y143.628 E4.99876
G1 X89.465 Y138.699 E5.31620
G1 X89.465 Y139.248 E5.34119
G1 X84.535 Y144.177 E5.65863
G1 X84.535 Y144.726 E5.68363
G1 X89.465 Y139.797 E6.00106
G1 X89.465 Y140.346 E6.02606
G1 X84.535 Y145.275 E6.34350
G1 X84.535 Y145.824 E6.36849
G1 X89.465 Y140.895 E6.68593
G1 X89.465 Y141.443 E6.71092
G1 X84.535 Y146.373 E7.02836
G1 X84.535 Y146.921 E7.05336
G1 X89.465 Y141.992 E7.37080
G1 X89.465 Y142.541 E7.39579
G1 X84.535 Y147.470 E7.71323
G1 X84.535 Y148.019 E7.73822
G1 X89.465 Y143.090 E8.05566
G1 X89.465 Y143.639 E8.08066
G1 X84.535 Y148.568 E8.39810
G1 X84.535 Y149.117 E8.42309
G1 X89.465 Y144.188 E8.74053
G1 X89.465 Y144.737 E8.76552
G1 X84.535 Y149.666 E9.08296
G1 X84.535 Y150.215 E9.10795
G1 X89.465 Y145.285 E9.42539
G1 X89.465 Y145.834 E9.45039
G1 X84.535 Y150.763 E9.76783
G1 X84.535 Y151.312 E9.79282
G1 X89.465 Y146.383 E10.11026
G1 X89.465 Y146.932 E10.13525
G1 X84.535 Y151.861 E10.45269
G1 X84.535 Y152.410 E10.47769
G1 X89.465 Y147.481 E10.79513
G1 X89.465 Y148.030 E10.82012
G1 X84.535 Y152.959 E11.13756
G1 X84.535 Y153.508 E11.16255
G1 X89.465 Y148.578 E11.47999
G1 X89.465 Y149.127 E11.50499
G1 X84.535 Y154.056 E11.82243
G1 X84.535 Y154.605 E11.84742
G1 X89.465 Y149.676 E12.16486
G1 X89.465 Y150.225 E12.18985
G1 X84.535 Y155.154 E12.50729
G1 X84.535 Y155.703 E12.53228
G1 X89.465 Y150.774 E12.84972
G1 X89.465 Y151.323 E12.87472
G1 X70.035 Y170.752 E14.12597
G1 X70.035 Y171.301 E14.15096
G1 X89.465 Y151.872 E15.40221
G1 X89.465 Y152.420 E15.42720
G1 X70.035 Y171.850 E16.67845
G1 X70.035 Y172.398 E16.70344
G1 X89.465 Y152.969 E17.95469
G1 X89.465 Y153.518 E17.97968
G1 X70.035 Y172.947 E19.23093
G1 X70.035 Y173.496 E19.25592
G1 X89.465 Y154.067 E20.50717
G1 X89.465 Y154.616 E20.53217
G1 X70.366 Y173.715 E21.76213
G1 X70.915 Y173.715 E21.78713
G1 X89.465 Y155.165 E22.98175
G1 X89.465 Y155.714 E23.00674
G1 X71.464 Y173.715 E24.16602
G1 X72.012 Y173.715 E24.19101
G1 X89.465 Y156.262 E25.31494
G1 X89.465 Y156.811 E25.33993
G1 X72.561 Y173.715 E26.42851
G1 X73.110 Y173.715 E26.45351
G1 X89.465 Y157.360 E27.50674
G1 X89.465 Y157.909 E27.53174
G1 X73.659 Y173.715 E28.54963
