; generated by Slic3r 1.36.2-prusa3d-linux64 on 2017-08-29 at 12:14:57

; 

; external perimeters extrusion width = 0.45mm
; perimeters extrusion width = 0.45mm
; infill extrusion width = 0.45mm
; solid infill extrusion width = 0.45mm
; top infill extrusion width = 0.40mm
; first layer extrusion width = 0.80mm

M107
M190 S60 ; set bed temperature and wait for it to be reached
M104 S215 ; set temperature
G28 ; home all axes
G1 Z5 F5000 ; lift nozzle

; Filament gcode

M109 S215 ; set temperature and wait for it to be reached
G21 ; set units to millimeters
G90 ; use absolute coordinates
M82 ; use absolute distances for extrusion
G92 E0
G1 Z0.400 F7800.000
G1 E-2.00000 F2400.00000
G92 E0
G1 X27.175 Y49.910 F7800.000
G1 E2.00000 F2400.00000
G1 F1800
G1 X28.124 Y48.908 E2.15689
G1 X29.075 Y48.225 E2.28989
G1 X30.129 Y47.718 E2.42288
G1 X31.256 Y47.402 E2.55587
G1 X32.420 Y47.286 E2.68886
G1 X167.506 Y47.286 E18.04378
G1 X168.444 Y47.353 E18.15066
G1 X169.358 Y47.548 E18.25681
G1 X170.241 Y47.871 E18.36368
G1 X171.070 Y48.314 E18.47056
G1 X171.829 Y48.868 E18.57744
G1 X172.500 Y49.518 E18.68359
G1 X173.077 Y50.261 E18.79046
G1 X173.544 Y51.077 E18.89734
G1 X173.997 Y52.306 E19.04627
G1 X174.202 Y53.600 E19.19520
G1 X174.214 Y60.058 E19.92921
G1 X174.139 Y61.001 E20.03681
G1 X154.019 Y147.608 E30.14334
G1 X153.691 Y148.598 E30.26182
G1 X153.218 Y149.519 E30.37959
G1 X152.608 Y150.357 E30.49735
G1 X151.873 Y151.095 E30.61583
G1 X150.927 Y151.774 E30.74810
G1 X149.879 Y152.279 E30.88037
G1 X148.765 Y152.594 E31.01191
G1 X147.608 Y152.713 E31.14417
G1 X52.455 Y152.714 E41.95993
G1 X51.027 Y152.551 E42.12333
G1 X49.672 Y152.090 E42.28602
G1 X48.446 Y151.352 E42.44870
G1 X47.403 Y150.371 E42.61138
G1 X46.870 Y149.659 E42.71245
G1 X46.438 Y148.887 E42.81307
G1 X26.424 Y106.858 E48.10438
G1 X26.114 Y106.072 E48.20037
G1 X25.904 Y105.254 E48.29636
G1 X25.786 Y104.014 E48.43804
G1 X25.791 Y53.738 E54.15278
G1 X25.985 Y52.377 E54.30895
G1 X26.454 Y51.079 E54.46585
G1 X27.144 Y49.961 E54.61520
G1 E52.61520 F2400.00000
G92 E0
G1 X164.429 Y57.071 F7800.000
G1 E2.00000 F2400.00000
G1 F1800
G1 X148.571 Y57.071 E3.80248
G1 X148.571 Y146.367 E13.95248
G1 X148.517 Y146.498 E13.96863
G1 X147.998 Y147.017 E14.05202
G1 X147.867 Y147.071 E14.06817
G1 X102.633 Y147.071 E19.20977
G1 X102.502 Y147.017 E19.22591
G1 X101.983 Y146.498 E19.30931
G1 X101.929 Y146.367 E19.32545
G1 X101.929 Y115.633 E22.81887
G1 X101.983 Y115.502 E22.83502
G1 X102.502 Y114.983 E22.91842
G1 X102.633 Y114.929 E22.93456
G1 X105.367 Y114.929 E23.24529
G1 X105.498 Y114.983 E23.26144
G1 X106.017 Y115.502 E23.34484
G1 X106.071 Y115.633 E23.36098
G1 X106.071 Y142.929 E26.46360
G1 X144.429 Y142.929 E30.82360
G1 X144.429 Y53.633 E40.97360
G1 X144.483 Y53.502 E40.98975
G1 X145.002 Y52.983 E41.07314
G1 X145.133 Y52.929 E41.08929
G1 X167.867 Y52.929 E43.67337
G1 X167.998 Y52.983 E43.68951
G1 X168.517 Y53.502 E43.77291
G1 X168.571 Y53.633 E43.78906
G1 X168.571 Y60.367 E44.55446
G1 X168.517 Y60.498 E44.57060
G1 X167.998 Y61.017 E44.65400
G1 X167.867 Y61.071 E44.67015
G1 X165.133 Y61.071 E44.98088
G1 X165.002 Y61.017 E44.99703
G1 X164.483 Y60.498 E45.08042
G1 X164.429 Y60.367 E45.09657
G1 X164.429 Y57.131 E45.46435
G1 X165.143 Y56.357 F7800.000
G1 F1800
G1 X147.857 Y56.357 E47.42919
G1 X147.857 Y146.148 E57.63548
G1 X147.648 Y146.357 E57.66910
G1 X102.852 Y146.357 E62.76092
G1 X102.643 Y146.148 E62.79455
G1 X102.643 Y115.852 E66.23819
G1 X102.852 Y115.643 E66.27182
G1 X105.148 Y115.643 E66.53278
G1 X105.357 Y115.852 E66.56640
G1 X105.357 Y143.643 E69.72531
G1 X145.143 Y143.643 E74.24766
G1 X145.143 Y53.852 E84.45395
G1 X145.352 Y53.643 E84.48758
G1 X167.648 Y53.643 E87.02188
G1 X167.857 Y53.852 E87.05551
G1 X167.857 Y60.148 E87.77114
G1 X167.648 Y60.357 E87.80476
G1 X165.352 Y60.357 E88.06572
G1 X165.143 Y60.148 E88.09935
G1 X165.143 Y56.417 E88.52342
G1 E86.52342 F2400.00000
G92 E0
G1 X55.571 Y142.929 F7800.000
G1 E2.00000 F2400.00000
G1 F1800
G1 X93.929 Y142.929 E6.36000
G1 X93.929 Y115.633 E9.46262
G1 X93.983 Y115.502 E9.47877
G1 X94.502 Y114.983 E9.56216
G1 X94.633 Y114.929 E9.57831
G1 X97.367 Y114.929 E9.88904
G1 X97.498 Y114.983 E9.90519
G1 X98.017 Y115.502 E9.98858
G1 X98.071 Y115.633 E10.00473
G1 X98.071 Y146.367 E13.49815
G1 X98.017 Y146.498 E13.51429
G1 X97.498 Y147.017 E13.59769
G1 X97.367 Y147.071 E13.61384
G1 X52.133 Y147.071 E18.75543
G1 X52.002 Y147.017 E18.77158
G1 X51.483 Y146.498 E18.85497
G1 X51.429 Y146.367 E18.87112
G1 X51.429 Y105.071 E23.56508
G1 X47.133 Y105.071 E24.05335
G1 X47.002 Y105.017 E24.06950
G1 X46.483 Y104.498 E24.15290
G1 X46.429 Y104.367 E24.16904
G1 X46.429 Y75.071 E27.49900
G1 X42.571 Y75.071 E27.93747
G1 X42.571 Y104.367 E31.26743
G1 X42.517 Y104.498 E31.28358
G1 X41.998 Y105.017 E31.36697
G1 X41.867 Y105.071 E31.38312
G1 X32.133 Y105.071 E32.48952
G1 X32.002 Y105.017 E32.50567
G1 X31.483 Y104.498 E32.58906
G1 X31.429 Y104.367 E32.60521
G1 X31.429 Y53.633 E38.37198
G1 X31.483 Y53.502 E38.38812
G1 X32.002 Y52.983 E38.47152
G1 X32.133 Y52.929 E38.48767
G1 X54.867 Y52.929 E41.07174
G1 X54.998 Y52.983 E41.08789
G1 X55.517 Y53.502 E41.17129
G1 X55.571 Y53.633 E41.18743
G1 X55.571 Y142.869 E51.33061
G1 X54.857 Y143.643 F7800.000
G1 F1800
G1 X94.643 Y143.643 E55.85296
G1 X94.643 Y115.852 E59.01187
G1 X94.852 Y115.643 E59.04550
G1 X97.148 Y115.643 E59.30646
G1 X97.357 Y115.852 E59.34008
G1 X97.357 Y146.148 E62.78373
G1 X97.148 Y146.357 E62.81735
G1 X52.352 Y146.357 E67.90918
G1 X52.143 Y146.148 E67.94280
G1 X52.143 Y104.357 E72.69305
G1 X47.352 Y104.357 E73.23761
G1 X47.143 Y104.148 E73.27124
G1 X47.143 Y74.357 E76.65748
G1 X41.857 Y74.357 E77.25831
G1 X41.857 Y104.148 E80.64456
G1 X41.648 Y104.357 E80.67818
G1 X32.352 Y104.357 E81.73481
G1 X32.143 Y104.148 E81.76844
G1 X32.143 Y53.852 E87.48543
G1 X32.352 Y53.643 E87.51906
G1 X54.648 Y53.643 E90.05336
G1 X54.857 Y53.852 E90.08699
G1 X54.857 Y143.583 E100.28646
G1 E98.28646 F2400.00000
G92 E0
G1 X52.672 Y102.172 F7800.000
G1 E2.00000 F2400.00000
G1 F1800
G1 X49.328 Y102.172 E2.38003
G1 X49.328 Y72.172 E5.79005
G1 X39.672 Y72.172 E6.88770
G1 X39.672 Y102.172 E10.29772
G1 X34.328 Y102.172 E10.90509
G1 X34.328 Y55.828 E16.17281
G1 X52.672 Y55.828 E18.25786
G1 X52.672 Y102.112 E23.51877
G1 E21.51877 F2400.00000
G92 E0
G1 X48.614 Y72.886 F7800.000
G1 E2.00000 F2400.00000
G1 F1800
G1 X40.386 Y72.886 E2.93529
G1 X40.386 Y102.886 E6.34531
G1 X33.614 Y102.886 E7.11503
G1 X33.614 Y55.114 E12.54511
G1 X53.386 Y55.114 E14.79251
G1 X53.386 Y102.886 E20.22259
G1 X48.614 Y102.886 E20.76498
G1 X48.614 Y72.946 E24.16818
G1 X47.900 Y73.600 F7800.000
G1 F1800
G1 X41.100 Y73.600 E24.94112
G1 X41.100 Y103.600 E28.35114
G1 X32.900 Y103.600 E29.28321
G1 X32.900 Y54.400 E34.87565
G1 X54.100 Y54.400 E37.28539
G1 X54.100 Y144.400 E47.51546
G1 X95.400 Y144.400 E52.20992
G1 X95.400 Y116.400 E55.39261
G1 X96.600 Y116.400 E55.52901
G1 X96.600 Y145.600 E58.84810
G1 X52.900 Y145.600 E63.81536
G1 X52.900 Y103.600 E68.58939
G1 X47.900 Y103.600 E69.15773
G1 X47.900 Y73.660 E72.56093
G1 X47.878 Y73.201 F7800.000
G1 X48.643 Y71.957 F7800.000
G1 F1800
G1 X34.864 Y58.179 E74.78838
G1 X34.864 Y59.194 E74.90446
G1 X47.306 Y71.636 E76.91581
G1 X46.290 Y71.636 E77.03188
G1 X34.864 Y60.210 E78.87908
G1 X34.864 Y61.225 E78.99515
G1 X45.275 Y71.636 E80.67819
G1 X44.260 Y71.636 E80.79426
G1 X34.864 Y62.240 E82.31315
G1 X34.864 Y63.256 E82.42922
G1 X43.244 Y71.636 E83.78395
G1 X42.229 Y71.636 E83.90003
G1 X34.864 Y64.271 E85.09061
G1 X34.864 Y65.287 E85.20668
G1 X41.213 Y71.636 E86.23310
G1 X40.198 Y71.636 E86.34918
G1 X34.864 Y66.302 E87.21145
G1 X34.864 Y67.318 E87.32752
G1 X39.182 Y71.636 E88.02563
G1 X39.136 Y71.636 E88.03092
G1 X39.136 Y72.605 E88.14171
G1 X34.864 Y68.333 E88.83234
G1 X34.864 Y69.349 E88.94842
G1 X39.136 Y73.621 E89.63905
G1 X39.136 Y74.636 E89.75512
G1 X34.864 Y70.364 E90.44576
G1 X34.864 Y71.379 E90.56183
G1 X39.136 Y75.652 E91.25246
G1 X39.136 Y76.667 E91.36854
G1 X34.864 Y72.395 E92.05917
G1 X34.864 Y73.410 E92.17525
G1 X39.136 Y77.682 E92.86588
G1 X39.136 Y78.698 E92.98195
G1 X34.864 Y74.426 E93.67259
G1 X34.864 Y75.441 E93.78866
G1 X39.136 Y79.713 E94.47929
G1 X39.136 Y80.729 E94.59537
G1 X34.864 Y76.457 E95.28600
G1 X34.864 Y77.472 E95.40208
G1 X39.136 Y81.744 E96.09271
G1 X39.136 Y82.760 E96.20878
G1 X34.864 Y78.487 E96.89942
G1 X34.864 Y79.503 E97.01549
G1 X39.136 Y83.775 E97.70613
G1 X39.136 Y84.791 E97.82220
G1 X34.864 Y80.518 E98.51283
G1 X34.864 Y81.534 E98.62891
G1 X39.136 Y85.806 E99.31954
G1 X39.136 Y86.821 E99.43562
G1 X34.864 Y82.549 E100.12625
G1 X34.864 Y83.565 E100.24232
G1 X39.136 Y87.837 E100.93296
G1 X39.136 Y88.852 E101.04903
G1 X34.864 Y84.580 E101.73966
G1 X34.864 Y85.596 E101.85574
G1 X39.136 Y89.868 E102.54637
G1 X39.136 Y90.883 E102.66245
G1 X34.864 Y86.611 E103.35308
G1 X34.864 Y87.626 E103.46915
G1 X39.136 Y91.899 E104.15979
G1 X39.136 Y92.914 E104.27586
G1 X34.864 Y88.642 E104.96649
G1 X34.864 Y89.657 E105.08257
G1 X39.136 Y93.929 E105.77320
G1 X39.136 Y94.945 E105.88928
G1 X34.864 Y90.673 E106.57991
G1 X34.864 Y91.688 E106.69598
G1 X39.136 Y95.960 E107.38662
G1 X39.136 Y96.976 E107.50269
G1 X34.864 Y92.704 E108.19332
G1 X34.864 Y93.719 E108.30940
G1 X39.136 Y97.991 E109.00003
G1 X39.136 Y99.007 E109.11611
G1 X34.864 Y94.734 E109.80674
G1 X34.864 Y95.750 E109.92281
G1 X39.136 Y100.022 E110.61345
G1 X39.136 Y101.038 E110.72952
G1 X34.864 Y96.765 E111.42015
G1 X34.864 Y97.781 E111.53623
G1 X38.719 Y101.636 E112.15947
G1 X37.704 Y101.636 E112.27555
G1 X34.864 Y98.796 E112.73464
G1 X34.864 Y99.812 E112.85071
G1 X36.688 Y101.636 E113.14565
G1 X35.673 Y101.636 E113.26172
G1 X34.543 Y100.506 E113.44445
G1 E111.44445 F2400.00000
G92 E0
G1 X49.543 Y101.290 F7800.000
G1 E2.00000 F2400.00000
G1 F1800
G1 X49.889 Y101.636 E2.05601
G1 X50.904 Y101.636 E2.17209
G1 X49.864 Y100.596 E2.34030
G1 X49.864 Y99.580 E2.45638
G1 X51.920 Y101.636 E2.78875
G1 X52.136 Y101.636 E2.81346
G1 X52.136 Y100.837 E2.90482
G1 X49.864 Y98.565 E3.27214
G1 X49.864 Y97.549 E3.38821
G1 X52.136 Y99.821 E3.75553
G1 X52.136 Y98.806 E3.87160
G1 X49.864 Y96.534 E4.23892
G1 X49.864 Y95.518 E4.35499
G1 X52.136 Y97.791 E4.72231
G1 X52.136 Y96.775 E4.83838
G1 X49.864 Y94.503 E5.20570
G1 X49.864 Y93.487 E5.32177
G1 X52.136 Y95.760 E5.68909
G1 X52.136 Y94.744 E5.80516
G1 X49.864 Y92.472 E6.17248
G1 X49.864 Y91.457 E6.28855
G1 X52.136 Y93.729 E6.65587
G1 X52.136 Y92.713 E6.77195
G1 X49.864 Y90.441 E7.13926
G1 X49.864 Y89.426 E7.25534
G1 X52.136 Y91.698 E7.62265
G1 X52.136 Y90.682 E7.73873
G1 X49.864 Y88.410 E8.10604
G1 X49.864 Y87.395 E8.22212
G1 X52.136 Y89.667 E8.58943
G1 X52.136 Y88.652 E8.70551
G1 X49.864 Y86.379 E9.07282
G1 X49.864 Y85.364 E9.18890
G1 X52.136 Y87.636 E9.55621
G1 X52.136 Y86.621 E9.67229
G1 X49.864 Y84.349 E10.03960
G1 X49.864 Y83.333 E10.15568
G1 X52.136 Y85.605 E10.52299
G1 X52.136 Y84.590 E10.63907
G1 X49.864 Y82.318 E11.00638
G1 X49.864 Y81.302 E11.12246
G1 X52.136 Y83.574 E11.48977
G1 X52.136 Y82.559 E11.60585
G1 X49.864 Y80.287 E11.97316
G1 X49.864 Y79.271 E12.08924
G1 X52.136 Y81.543 E12.45655
G1 X52.136 Y80.528 E12.57263
G1 X49.864 Y78.256 E12.93994
G1 X49.864 Y77.240 E13.05602
G1 X52.136 Y79.513 E13.42333
G1 X52.136 Y78.497 E13.53941
G1 X49.864 Y76.225 E13.90672
G1 X49.864 Y75.210 E14.02280
G1 X52.136 Y77.482 E14.39011
G1 X52.136 Y76.466 E14.50619
G1 X49.864 Y74.194 E14.87351
G1 X49.864 Y73.179 E14.98958
G1 X52.136 Y75.451 E15.35690
G1 X52.136 Y74.435 E15.47297
G1 X34.864 Y57.163 E18.26517
G1 X34.864 Y56.364 E18.35654
G1 X35.080 Y56.364 E18.38124
G1 X52.136 Y73.420 E21.13850
G1 X52.136 Y72.405 E21.25458
G1 X36.095 Y56.364 E23.84768
G1 X37.111 Y56.364 E23.96376
G1 X52.136 Y71.389 E26.39271
G1 X52.136 Y70.374 E26.50879
G1 X38.126 Y56.364 E28.77359
G1 X39.142 Y56.364 E28.88966
G1 X52.136 Y69.358 E30.99031
G1 X52.136 Y68.343 E31.10638
G1 X40.157 Y56.364 E33.04287
G1 X41.173 Y56.364 E33.15895
G1 X52.136 Y67.327 E34.93128
G1 X52.136 Y66.312 E35.04736
G1 X42.188 Y56.364 E36.65554
G1 X43.204 Y56.364 E36.77161
G1 X52.136 Y65.296 E38.21564
G1 X52.136 Y64.281 E38.33172
G1 X44.219 Y56.364 E39.61159
G1 X45.234 Y56.364 E39.72766
G1 X52.136 Y63.266 E40.84338
G1 X52.136 Y62.250 E40.95946
G1 X46.250 Y56.364 E41.91102
G1 X47.265 Y56.364 E42.02710
G1 X52.136 Y61.235 E42.81451
G1 X52.136 Y60.219 E42.93058
G1 X48.281 Y56.364 E43.55384
G1 X49.296 Y56.364 E43.66991
G1 X52.136 Y59.204 E44.12901
G1 X52.136 Y58.188 E44.24509
G1 X50.312 Y56.364 E44.54004
G1 X51.327 Y56.364 E44.65611
G1 X52.457 Y57.494 E44.83886
G1 E42.83886 F2400.00000
G92 E0
G1 X53.500 Y103.243 F7800.000
G1 E2.00000 F2400.00000
G1 F1800
G1 X53.500 Y144.757 E4.54991
G1 F1800
G1 X53.542 Y144.958 E4.56538
G1 X53.642 Y144.979 E4.57312
G1 F1800
G1 X53.743 Y145.000 E4.57943
G1 X95.757 Y145.000 E7.16005
G1 F1800
G1 X95.958 Y144.958 E7.17552
G1 X95.979 Y144.858 E7.18326
G1 F1800
G1 X96.000 Y144.757 E7.18957
G1 X96.000 Y116.757 E8.90941
G1 E6.90941 F2400.00000
G92 E0
G1 X165.900 Y55.600 F7800.000
G1 E2.00000 F2400.00000
G1 F1800
G1 X147.100 Y55.600 E4.13695
G1 X147.100 Y145.600 E14.36701
G1 X103.400 Y145.600 E19.33428
G1 X103.400 Y116.400 E22.65336
G1 X104.600 Y116.400 E22.78976
G1 X104.600 Y144.400 E25.97245
G1 X145.900 Y144.400 E30.66691
G1 X145.900 Y54.400 E40.89698
G1 X167.100 Y54.400 E43.30673
G1 X167.100 Y59.600 E43.89780
G1 X165.900 Y59.600 E44.03420
G1 X165.900 Y55.660 E44.48205
G1 X165.861 Y55.202 F7800.000
G1 X166.257 Y55.000 F7800.000
G1 F1800
G1 X146.743 Y55.000 E45.68066
G1 X146.642 Y55.021 E45.68697
G1 F1800
G1 X146.542 Y55.042 E45.69471
G1 X146.500 Y55.243 E45.71018
G1 F1800
G1 X146.500 Y144.757 E51.20838
G1 X146.479 Y144.858 E51.21469
G1 F1800
G1 X146.458 Y144.958 E51.22243
G1 X146.257 Y145.000 E51.23790
G1 F1800
G1 X104.243 Y145.000 E53.81852
G1 X104.142 Y144.979 E53.82483
G1 F1800
G1 X104.042 Y144.958 E53.83257
G1 X104.000 Y144.757 E53.84804
G1 F1800
G1 X104.000 Y116.757 E55.56788
G1 E53.56788 F2400.00000
G92 E0
G1 X166.500 Y59.243 F7800.000
G1 E2.00000 F2400.00000
G1 F1800
G1 X166.500 Y55.243 E2.24569
G1 X166.479 Y55.142 E2.25200
G1 F1800
G1 X166.458 Y55.042 E2.25974
G1 X166.257 Y55.000 E2.27521
G1 Z0.800 F7800.000
M104 S210 ; set temperature
M140 S55 ; set bed temperature
G1 E0.27521 F2400.00000
G92 E0
G1 X48.453 Y73.047 F7800.000
G1 E2.00000 F2400.00000
G1 F3000
G1 X40.547 Y73.047 E2.43852
G1 X40.547 Y103.047 E4.10238
G1 X33.453 Y103.047 E4.49580
G1 X33.453 Y54.953 E7.16316
G1 X53.547 Y54.953 E8.27758
G1 X53.547 Y103.047 E10.94494
G1 X48.453 Y103.047 E11.22743
G1 X48.453 Y73.107 E12.88796
G1 X48.089 Y73.411 F7800.000
G1 F3000
G1 X40.911 Y73.411 E13.28609
G1 X40.911 Y103.411 E14.94995
G1 X33.089 Y103.411 E15.38376
G1 X33.089 Y54.589 E18.09152
G1 X53.911 Y54.589 E19.24633
G1 X53.911 Y144.589 E24.23792
G1 X95.589 Y144.589 E26.54949
G1 X95.589 Y116.589 E28.10243
G1 X96.411 Y116.589 E28.14800
G1 X96.411 Y145.411 E29.74652
G1 X53.089 Y145.411 E32.14923
G1 X53.089 Y103.411 E34.47864
G1 X48.089 Y103.411 E34.75595
G1 X48.089 Y73.471 E36.41649
G1 X47.725 Y73.775 F7800.000
G1 F1500
G1 X41.275 Y73.775 E36.77422
G1 X41.275 Y103.775 E38.43808
G1 X32.725 Y103.775 E38.91228
G1 X32.725 Y54.225 E41.66043
G1 X54.275 Y54.225 E42.85564
G1 X54.275 Y144.225 E47.84723
G1 X95.225 Y144.225 E50.11841
G1 X95.225 Y116.225 E51.67135
G1 X96.775 Y116.225 E51.75731
G1 X96.775 Y145.775 E53.39622
G1 X52.725 Y145.775 E55.83933
G1 X52.725 Y103.775 E58.16874
G1 X47.725 Y103.775 E58.44605
G1 X47.725 Y73.835 E60.10659
G1 X47.703 Y73.376 F7800.000
G1 X40.761 Y72.937 F7800.000
G1 F1200
G1 X53.274 Y60.425 E61.09369
G1 X53.274 Y60.943 E61.12257
G1 X41.443 Y72.774 E62.05589
G1 X41.960 Y72.774 E62.08478
G1 X53.274 Y61.460 E62.97726
G1 X53.274 Y61.978 E63.00614
G1 X42.478 Y72.774 E63.85778
G1 X42.996 Y72.774 E63.88666
G1 X53.274 Y62.496 E64.69746
G1 X53.274 Y63.014 E64.72634
G1 X43.514 Y72.774 E65.49630
G1 X44.031 Y72.774 E65.52518
G1 X53.274 Y63.531 E66.25429
G1 X53.274 Y64.049 E66.28317
G1 X44.549 Y72.774 E66.97144
G1 X45.067 Y72.774 E67.00032
G1 X53.274 Y64.567 E67.64775
G1 X53.274 Y65.085 E67.67663
G1 X45.585 Y72.774 E68.28321
G1 X46.102 Y72.774 E68.31209
G1 X53.274 Y65.602 E68.87783
