; generated by Slic3r 1.36.2-prusa3d-linux64 on 2017-08-28 at 15:21:43

; 

; external perimeters extrusion width = 0.45mm
; perimeters extrusion width = 0.45mm
; infill extrusion width = 0.45mm
; solid infill extrusion width = 0.45mm
; top infill extrusion width = 0.40mm
; first layer extrusion width = 0.80mm

M107
M190 S60 ; set bed temperature and wait for it to be reached
M104 S215 ; set temperature
G28 ; home all axes
G1 Z5 F5000 ; lift nozzle

; Filament gcode

M109 S215 ; set temperature and wait for it to be reached
G21 ; set units to millimeters
G90 ; use absolute coordinates
M82 ; use absolute distances for extrusion
G92 E0
G1 Z0.400 F7800.000
G1 E-2.00000 F2400.00000
G92 E0
G1 X93.796 Y88.109 F7800.000
G1 E2.00000 F2400.00000
G1 F1800
G1 X94.852 Y87.125 E2.16413
G1 X96.100 Y86.386 E2.32898
G1 X97.179 Y86.004 E2.45908
G1 X98.307 Y85.810 E2.58917
G1 X103.131 Y85.786 E3.13757
G1 X104.076 Y85.853 E3.24518
G1 X104.995 Y86.051 E3.35205
G1 X105.877 Y86.376 E3.45893
G1 X106.711 Y86.824 E3.56653
G1 X107.469 Y87.381 E3.67341
G1 X108.146 Y88.042 E3.78101
G1 X108.723 Y88.793 E3.88861
G1 X109.189 Y89.617 E3.99622
G1 X109.644 Y90.893 E4.15022
G1 X109.834 Y92.234 E4.30421
G1 X109.835 Y97.743 E4.93039
G1 X109.577 Y99.358 E5.11620
G1 X105.205 Y110.238 E6.44909
G1 X104.608 Y111.303 E6.58788
G1 X103.828 Y112.242 E6.72667
G1 X103.073 Y112.894 E6.84007
G1 X102.229 Y113.427 E6.95348
G1 X101.316 Y113.829 E7.06689
G1 X100.353 Y114.091 E7.18030
G1 X99.298 Y114.210 E7.30096
G1 X96.702 Y114.212 E7.59607
G1 X95.848 Y114.135 E7.69351
G1 X95.017 Y113.952 E7.79022
G1 X94.094 Y113.611 E7.90217
G1 X93.224 Y113.135 E8.01486
G1 X92.434 Y112.536 E8.12754
G1 X91.745 Y111.832 E8.23950
G1 X91.163 Y111.029 E8.35218
G1 X90.708 Y110.156 E8.46414
G1 X90.385 Y109.219 E8.57682
G1 X90.202 Y108.244 E8.68950
G1 X90.161 Y103.487 E9.23025
G1 X90.213 Y102.664 E9.32405
G1 X92.422 Y90.645 E10.71309
G1 X92.971 Y89.302 E10.87794
G1 X93.762 Y88.158 E11.03598
G1 E9.03598 F2400.00000
G92 E0
G1 X98.675 Y107.100 F7800.000
G1 E2.00000 F2400.00000
G1 F1800
G1 X97.275 Y107.100 E2.15913
G1 X97.275 Y105.900 E2.29554
G1 X98.675 Y105.900 E2.45467
G1 X98.675 Y107.040 E2.58425
G1 X98.286 Y107.006 F7800.000
G1 X98.700 Y105.500 F7800.000
G1 F1800
G1 X98.700 Y103.500 E2.79495
G1 X98.812 Y103.825 F7800.000
G1 F1800
G1 X98.487 Y104.475 E2.81713
G1 F1800
G1 X98.325 Y104.800 E2.83426
G1 X98.812 Y103.825 F7800.000
G1 F1800
G1 X98.975 Y103.500 E2.83931
G1 X98.975 Y92.700 E2.98929
G1 X98.992 Y92.617 E2.99046
G1 X99.075 Y92.600 E2.99164
G1 X102.925 Y92.600 E3.04510
G1 X103.008 Y92.617 E3.04628
G1 X103.025 Y92.700 E3.04745
G1 X103.025 Y97.500 E3.11411
G1 E1.11411 F2400.00000
G92 E0
G1 X97.350 Y103.500 F7800.000
G1 E2.00000 F2400.00000
G1 F1800
G1 X97.350 Y105.500 E2.27722
G1 Z0.726 F7800.000
M104 S210 ; set temperature
M140 S55 ; set bed temperature
G1 E0.27722 F2400.00000
G92 E0
G1 X103.025 Y97.500 F7800.000
G1 E2.00000 F2400.00000
G1 F600
G1 X103.025 Y92.700 E2.06835
G1 X103.008 Y92.617 E2.06955
G1 X102.925 Y92.600 E2.07076
G1 X99.075 Y92.600 E2.12558
G1 X98.992 Y92.617 E2.12679
G1 X98.975 Y92.700 E2.12799
G1 X98.975 Y107.300 E2.33589
G1 X98.958 Y107.383 E2.33709
G1 X98.875 Y107.400 E2.33830
G1 X97.075 Y107.400 E2.36393
G1 X96.992 Y107.383 E2.36513
G1 X96.975 Y107.300 E2.36634
G1 X96.975 Y107.000 E2.37061
G1 Z1.033 F7800.000
G1 E0.37061 F2400.00000
G92 E0
G1 X103.025 Y97.500 F7800.000
G1 E2.00000 F2400.00000
G1 F600
G1 X103.025 Y92.700 E2.06776
G1 X103.008 Y92.617 E2.06895
G1 X102.925 Y92.600 E2.07014
G1 X99.075 Y92.600 E2.12449
G1 X98.992 Y92.617 E2.12568
G1 X98.975 Y92.700 E2.12688
G1 X98.975 Y107.300 E2.33297
G1 X98.958 Y107.383 E2.33416
G1 X98.875 Y107.400 E2.33535
G1 X97.075 Y107.400 E2.36076
G1 X96.992 Y107.383 E2.36196
G1 X96.975 Y107.300 E2.36315
G1 X96.975 Y107.000 E2.36738
M106 S255
G1 Z1.328 F7800.000
G1 E0.36738 F2400.00000
G92 E0
G1 X103.025 Y97.500 F7800.000
G1 E2.00000 F2400.00000
G1 F600
G1 X103.025 Y92.700 E2.06717
G1 X103.008 Y92.617 E2.06835
G1 X102.925 Y92.600 E2.06953
G1 X99.075 Y92.600 E2.12341
G1 X98.992 Y92.617 E2.12459
G1 X98.975 Y92.700 E2.12578
G1 X98.975 Y107.300 E2.33008
G1 X98.958 Y107.383 E2.33126
G1 X98.875 Y107.400 E2.33244
G1 X97.075 Y107.400 E2.35763
G1 X96.992 Y107.383 E2.35882
G1 X96.975 Y107.300 E2.36000
G1 X96.975 Y107.000 E2.36420
G1 Z1.589 F7800.000
G1 E0.36420 F2400.00000
G92 E0
G1 X103.025 Y97.500 F7800.000
G1 E2.00000 F2400.00000
G1 F600
G1 X103.025 Y92.700 E2.06454
G1 X103.008 Y92.617 E2.06568
G1 X102.925 Y92.600 E2.06682
G1 X99.075 Y92.600 E2.11859
G1 X98.992 Y92.617 E2.11972
G1 X98.975 Y92.700 E2.12086
G1 X98.975 Y107.300 E2.31718
G1 X98.958 Y107.383 E2.31832
G1 X98.875 Y107.400 E2.31946
G1 X97.075 Y107.400 E2.34366
G1 X96.992 Y107.383 E2.34480
G1 X96.975 Y107.300 E2.34593
G1 X96.975 Y107.000 E2.34997
G1 Z1.836 F7800.000
G1 E0.34997 F2400.00000
G92 E0
G1 X103.025 Y97.500 F7800.000
G1 E2.00000 F2400.00000
G1 F600
G1 X103.025 Y92.700 E2.06317
G1 X103.008 Y92.617 E2.06428
G1 X102.925 Y92.600 E2.06540
G1 X99.075 Y92.600 E2.11606
G1 X98.992 Y92.617 E2.11718
G1 X98.975 Y92.700 E2.11829
G1 X98.975 Y107.300 E2.31043
G1 X98.958 Y107.383 E2.31154
G1 X98.875 Y107.400 E2.31265
G1 X97.075 Y107.400 E2.33634
G1 X96.992 Y107.383 E2.33746
G1 X96.975 Y107.300 E2.33857
G1 X96.975 Y107.000 E2.34252
G1 Z2.086 F7800.000
G1 E0.34252 F2400.00000
G92 E0
G1 X103.025 Y97.500 F7800.000
G1 E2.00000 F2400.00000
G1 F600
G1 X103.025 Y92.700 E2.06339
G1 X103.008 Y92.617 E2.06451
G1 X102.925 Y92.600 E2.06562
G1 X99.075 Y92.600 E2.11647
G1 X98.992 Y92.617 E2.11759
G1 X98.975 Y92.700 E2.11870
G1 X98.975 Y107.300 E2.31151
G1 X98.958 Y107.383 E2.31263
G1 X98.875 Y107.400 E2.31375
G1 X97.075 Y107.400 E2.33752
G1 X96.992 Y107.383 E2.33864
G1 X96.975 Y107.300 E2.33975
G1 X96.975 Y107.000 E2.34372
G1 Z2.336 F7800.000
G1 E0.34372 F2400.00000
G92 E0
G1 X103.025 Y97.500 F7800.000
G1 E2.00000 F2400.00000
G1 F600
G1 X103.025 Y92.700 E2.06345
G1 X103.008 Y92.617 E2.06457
G1 X102.925 Y92.600 E2.06569
G1 X99.075 Y92.600 E2.11658
G1 X98.992 Y92.617 E2.11770
G1 X98.975 Y92.700 E2.11882
G1 X98.975 Y107.300 E2.31182
G1 X98.958 Y107.383 E2.31294
G1 X98.875 Y107.400 E2.31405
G1 X97.075 Y107.400 E2.33785
G1 X96.992 Y107.383 E2.33897
G1 X96.975 Y107.300 E2.34009
G1 X96.975 Y107.000 E2.34405
G1 Z2.572 F7800.000
G1 E0.34405 F2400.00000
G92 E0
G1 X103.025 Y97.500 F7800.000
G1 E2.00000 F2400.00000
G1 F600
G1 X103.025 Y92.700 E2.06193
G1 X103.008 Y92.617 E2.06302
G1 X102.925 Y92.600 E2.06411
G1 X99.075 Y92.600 E2.11378
G1 X98.992 Y92.617 E2.11487
G1 X98.975 Y92.700 E2.11596
G1 X98.975 Y107.300 E2.30433
G1 X98.958 Y107.383 E2.30542
G1 X98.875 Y107.400 E2.30651
G1 X97.075 Y107.400 E2.32973
G1 X96.992 Y107.383 E2.33083
G1 X96.975 Y107.300 E2.33192
G1 X96.975 Y107.000 E2.33579
G1 Z2.797 F7800.000
G1 E0.33579 F2400.00000
G92 E0
G1 X103.025 Y97.500 F7800.000
G1 E2.00000 F2400.00000
G1 F600
G1 X103.025 Y92.700 E2.06026
G1 X103.008 Y92.617 E2.06133
G1 X102.925 Y92.600 E2.06239
G1 X99.075 Y92.600 E2.11073
G1 X98.992 Y92.617 E2.11179
G1 X98.975 Y92.700 E2.11285
G1 X98.975 Y107.300 E2.29616
G1 X98.958 Y107.383 E2.29722
G1 X98.875 Y107.400 E2.29828
G1 X97.075 Y107.400 E2.32088
G1 X96.992 Y107.383 E2.32194
G1 X96.975 Y107.300 E2.32300
G1 X96.975 Y107.000 E2.32677
G1 Z3.013 F7800.000
G1 E0.32677 F2400.00000
G92 E0
G1 X103.025 Y97.500 F7800.000
G1 E2.00000 F2400.00000
G1 F600
G1 X103.025 Y92.700 E2.05910
G1 X103.008 Y92.617 E2.06015
G1 X102.925 Y92.600 E2.06119
G1 X99.075 Y92.600 E2.10859
G1 X98.992 Y92.617 E2.10963
G1 X98.975 Y92.700 E2.11068
G1 X98.975 Y107.300 E2.29045
G1 X98.958 Y107.383 E2.29149
G1 X98.875 Y107.400 E2.29253
G1 X97.075 Y107.400 E2.31470
G1 X96.992 Y107.383 E2.31574
G1 X96.975 Y107.300 E2.31678
G1 X96.975 Y107.000 E2.32047
G1 Z3.223 F7800.000
G1 E0.32047 F2400.00000
G92 E0
G1 X103.025 Y97.500 F7800.000
G1 E2.00000 F2400.00000
G1 F600
G1 X103.025 Y92.700 E2.05818
G1 X103.008 Y92.617 E2.05920
G1 X102.925 Y92.600 E2.06023
G1 X99.075 Y92.600 E2.10689
G1 X98.992 Y92.617 E2.10792
G1 X98.975 Y92.700 E2.10894
G1 X98.975 Y107.300 E2.28590
G1 X98.958 Y107.383 E2.28692
G1 X98.875 Y107.400 E2.28795
G1 X97.075 Y107.400 E2.30976
G1 X96.992 Y107.383 E2.31079
G1 X96.975 Y107.300 E2.31182
G1 X96.975 Y107.000 E2.31545
G1 Z3.441 F7800.000
G1 E0.31545 F2400.00000
G92 E0
G1 X103.025 Y97.500 F7800.000
G1 E2.00000 F2400.00000
G1 F600
G1 X103.025 Y92.700 E2.05944
G1 X103.008 Y92.617 E2.06049
G1 X102.925 Y92.600 E2.06154
G1 X99.075 Y92.600 E2.10922
G1 X98.992 Y92.617 E2.11027
G1 X98.975 Y92.700 E2.11132
G1 X98.975 Y107.300 E2.29213
G1 X98.958 Y107.383 E2.29317
G1 X98.875 Y107.400 E2.29422
G1 X97.075 Y107.400 E2.31651
G1 X96.992 Y107.383 E2.31756
G1 X96.975 Y107.300 E2.31861
G1 X96.975 Y107.000 E2.32232
G1 Z3.671 F7800.000
G1 E0.32232 F2400.00000
G92 E0
G1 X103.025 Y97.500 F7800.000
G1 E2.00000 F2400.00000
G1 F600
G1 X103.025 Y92.700 E2.06099
G1 X103.008 Y92.617 E2.06207
G1 X102.925 Y92.600 E2.06314
G1 X99.075 Y92.600 E2.11206
G1 X98.992 Y92.617 E2.11314
G1 X98.975 Y92.700 E2.11421
G1 X98.975 Y107.300 E2.29973
G1 X98.958 Y107.383 E2.30080
G1 X98.875 Y107.400 E2.30188
G1 X97.075 Y107.400 E2.32475
G1 X96.992 Y107.383 E2.32582
G1 X96.975 Y107.300 E2.32690
G1 X96.975 Y107.000 E2.33071
G1 Z3.910 F7800.000
G1 E0.33071 F2400.00000
G92 E0
G1 X103.025 Y97.500 F7800.000
G1 E2.00000 F2400.00000
G1 F600
G1 X103.025 Y92.700 E2.06225
G1 X103.008 Y92.617 E2.06335
G1 X102.925 Y92.600 E2.06445
G1 X99.075 Y92.600 E2.11438
G1 X98.992 Y92.617 E2.11548
G1 X98.975 Y92.700 E2.11658
G1 X98.975 Y107.300 E2.30593
G1 X98.958 Y107.383 E2.30703
G1 X98.875 Y107.400 E2.30813
G1 X97.075 Y107.400 E2.33147
G1 X96.992 Y107.383 E2.33257
G1 X96.975 Y107.300 E2.33367
G1 X96.975 Y107.000 E2.33756
G1 Z4.159 F7800.000
G1 E0.33756 F2400.00000
G92 E0
G1 X103.025 Y97.500 F7800.000
G1 E2.00000 F2400.00000
G1 F600
G1 X103.025 Y92.700 E2.06333
G1 X103.008 Y92.617 E2.06444
G1 X102.925 Y92.600 E2.06556
G1 X99.075 Y92.600 E2.11635
G1 X98.992 Y92.617 E2.11747
G1 X98.975 Y92.700 E2.11858
G1 X98.975 Y107.300 E2.31120
G1 X98.958 Y107.383 E2.31231
G1 X98.875 Y107.400 E2.31343
G1 X97.075 Y107.400 E2.33717
G1 X96.992 Y107.383 E2.33829
G1 X96.975 Y107.300 E2.33941
G1 X96.975 Y107.000 E2.34336
G1 Z4.413 F7800.000
G1 E0.34336 F2400.00000
G92 E0
G1 X103.025 Y97.500 F7800.000
G1 E2.00000 F2400.00000
G1 F600
G1 X103.025 Y92.700 E2.06392
G1 X103.008 Y92.617 E2.06504
G1 X102.925 Y92.600 E2.06617
G1 X99.075 Y92.600 E2.11744
G1 X98.992 Y92.617 E2.11856
G1 X98.975 Y92.700 E2.11969
G1 X98.975 Y107.300 E2.31411
G1 X98.958 Y107.383 E2.31523
G1 X98.875 Y107.400 E2.31636
G1 X97.075 Y107.400 E2.34033
G1 X96.992 Y107.383 E2.34145
G1 X96.975 Y107.300 E2.34258
G1 X96.975 Y107.000 E2.34658
G1 Z4.672 F7800.000
G1 E0.34658 F2400.00000
G92 E0
G1 X103.025 Y97.500 F7800.000
G1 E2.00000 F2400.00000
G1 F600
G1 X103.025 Y92.700 E2.06438
G1 X103.008 Y92.617 E2.06551
G1 X102.925 Y92.600 E2.06665
G1 X99.075 Y92.600 E2.11828
G1 X98.992 Y92.617 E2.11941
G1 X98.975 Y92.700 E2.12055
G1 X98.975 Y107.300 E2.31636
G1 X98.958 Y107.383 E2.31749
G1 X98.875 Y107.400 E2.31863
G1 X97.075 Y107.400 E2.34277
G1 X96.992 Y107.383 E2.34390
G1 X96.975 Y107.300 E2.34504
G1 X96.975 Y107.000 E2.34906
G1 Z4.935 F7800.000
G1 E0.34906 F2400.00000
G92 E0
G1 X103.025 Y97.500 F7800.000
G1 E2.00000 F2400.00000
G1 F600
G1 X103.025 Y92.700 E2.06474
G1 X103.008 Y92.617 E2.06588
G1 X102.925 Y92.600 E2.06702
G1 X99.075 Y92.600 E2.11895
G1 X98.992 Y92.617 E2.12010
G1 X98.975 Y92.700 E2.12124
G1 X98.975 Y107.300 E2.31816
G1 X98.958 Y107.383 E2.31930
G1 X98.875 Y107.400 E2.32044
G1 X97.075 Y107.400 E2.34472
G1 X96.992 Y107.383 E2.34586
G1 X96.975 Y107.300 E2.34700
G1 X96.975 Y107.000 E2.35105
G1 Z5.199 F7800.000
G1 E0.35105 F2400.00000
G92 E0
G1 X103.025 Y97.500 F7800.000
G1 E2.00000 F2400.00000
G1 F600
G1 X103.025 Y92.700 E2.06491
G1 X103.008 Y92.617 E2.06606
G1 X102.925 Y92.600 E2.06720
G1 X99.075 Y92.600 E2.11927
G1 X98.992 Y92.617 E2.12041
G1 X98.975 Y92.700 E2.12156
G1 X98.975 Y107.300 E2.31900
G1 X98.958 Y107.383 E2.32014
G1 X98.875 Y107.400 E2.32129
G1 X97.075 Y107.400 E2.34563
G1 X96.992 Y107.383 E2.34677
G1 X96.975 Y107.300 E2.34792
G1 X96.975 Y107.000 E2.35198
G1 Z5.467 F7800.000
G1 E0.35198 F2400.00000
G92 E0
G1 X103.025 Y97.500 F7800.000
G1 E2.00000 F2400.00000
G1 F600
G1 X103.025 Y92.700 E2.06515
G1 X103.008 Y92.617 E2.06630
G1 X102.925 Y92.600 E2.06745
G1 X99.075 Y92.600 E2.11971
G1 X98.992 Y92.617 E2.12086
G1 X98.975 Y92.700 E2.12201
G1 X98.975 Y107.300 E2.32018
G1 X98.958 Y107.383 E2.32133
G1 X98.875 Y107.400 E2.32248
G1 X97.075 Y107.400 E2.34691
G1 X96.992 Y107.383 E2.34806
G1 X96.975 Y107.300 E2.34921
G1 X96.975 Y107.000 E2.35328
G1 Z5.740 F7800.000
G1 E0.35328 F2400.00000
G92 E0
G1 X103.025 Y97.500 F7800.000
G1 E2.00000 F2400.00000
G1 F600
G1 X103.025 Y92.700 E2.06565
G1 X103.008 Y92.617 E2.06681
G1 X102.925 Y92.600 E2.06797
G1 X99.075 Y92.600 E2.12063
G1 X98.992 Y92.617 E2.12179
G1 X98.975 Y92.700 E2.12294
G1 X98.975 Y107.300 E2.32264
G1 X98.958 Y107.383 E2.32380
G1 X98.875 Y107.400 E2.32496
G1 X97.075 Y107.400 E2.34958
G1 X96.992 Y107.383 E2.35073
G1 X96.975 Y107.300 E2.35189
G1 X96.975 Y107.000 E2.35599
G1 Z6.022 F7800.000
G1 E0.35599 F2400.00000
G92 E0
G1 X103.025 Y97.500 F7800.000
G1 E2.00000 F2400.00000
G1 F600
G1 X103.025 Y92.700 E2.06632
G1 X103.008 Y92.617 E2.06749
G1 X102.925 Y92.600 E2.06866
G1 X99.075 Y92.600 E2.12186
G1 X98.992 Y92.617 E2.12303
G1 X98.975 Y92.700 E2.12420
G1 X98.975 Y107.300 E2.32593
G1 X98.958 Y107.383 E2.32710
G1 X98.875 Y107.400 E2.32827
G1 X97.075 Y107.400 E2.35314
G1 X96.992 Y107.383 E2.35431
G1 X96.975 Y107.300 E2.35547
G1 X96.975 Y107.000 E2.35962
G1 Z6.311 F7800.000
G1 E0.35962 F2400.00000
G92 E0
G1 X103.025 Y97.500 F7800.000
G1 E2.00000 F2400.00000
G1 F600
G1 X103.025 Y92.700 E2.06681
G1 X103.008 Y92.617 E2.06798
G1 X102.925 Y92.600 E2.06916
G1 X99.075 Y92.600 E2.12274
G1 X98.992 Y92.617 E2.12392
G1 X98.975 Y92.700 E2.12510
G1 X98.975 Y107.300 E2.32830
G1 X98.958 Y107.383 E2.32948
G1 X98.875 Y107.400 E2.33066
G1 X97.075 Y107.400 E2.35571
G1 X96.992 Y107.383 E2.35688
G1 X96.975 Y107.300 E2.35806
G1 X96.975 Y107.000 E2.36224
G1 Z6.601 F7800.000
G1 E0.36224 F2400.00000
G92 E0
G1 X103.025 Y97.500 F7800.000
G1 E2.00000 F2400.00000
G1 F600
G1 X103.025 Y92.700 E2.06687
G1 X103.008 Y92.617 E2.06805
G1 X102.925 Y92.600 E2.06923
G1 X99.075 Y92.600 E2.12287
G1 X98.992 Y92.617 E2.12404
G1 X98.975 Y92.700 E2.12522
G1 X98.975 Y107.300 E2.32862
G1 X98.958 Y107.383 E2.32980
G1 X98.875 Y107.400 E2.33098
G1 X97.075 Y107.400 E2.35606
G1 X96.992 Y107.383 E2.35724
G1 X96.975 Y107.300 E2.35842
G1 X96.975 Y107.000 E2.36260
G1 Z6.886 F7800.000
G1 E0.36260 F2400.00000
G92 E0
G1 X103.025 Y97.500 F7800.000
G1 E2.00000 F2400.00000
G1 F600
G1 X103.025 Y92.700 E2.06656
G1 X103.008 Y92.617 E2.06773
G1 X102.925 Y92.600 E2.06891
G1 X99.075 Y92.600 E2.12229
G1 X98.992 Y92.617 E2.12347
G1 X98.975 Y92.700 E2.12464
G1 X98.975 Y107.300 E2.32710
G1 X98.958 Y107.383 E2.32827
G1 X98.875 Y107.400 E2.32944
G1 X97.075 Y107.400 E2.35440
G1 X96.992 Y107.383 E2.35558
G1 X96.975 Y107.300 E2.35675
G1 X96.975 Y107.000 E2.36091
G1 Z7.168 F7800.000
G1 E0.36091 F2400.00000
G92 E0
G1 X103.025 Y97.500 F7800.000
G1 E2.00000 F2400.00000
G1 F600
G1 X103.025 Y92.700 E2.06630
G1 X103.008 Y92.617 E2.06747
G1 X102.925 Y92.600 E2.06864
G1 X99.075 Y92.600 E2.12181
G1 X98.992 Y92.617 E2.12298
G1 X98.975 Y92.700 E2.12415
G1 X98.975 Y107.300 E2.32581
G1 X98.958 Y107.383 E2.32698
G1 X98.875 Y107.400 E2.32815
G1 X97.075 Y107.400 E2.35301
G1 X96.992 Y107.383 E2.35418
G1 X96.975 Y107.300 E2.35535
G1 X96.975 Y107.000 E2.35949
G1 Z7.447 F7800.000
G1 E0.35949 F2400.00000
G92 E0
G1 X103.025 Y97.500 F7800.000
G1 E2.00000 F2400.00000
G1 F600
G1 X103.025 Y92.700 E2.06611
G1 X103.008 Y92.617 E2.06727
G1 X102.925 Y92.600 E2.06844
G1 X99.075 Y92.600 E2.12146
G1 X98.992 Y92.617 E2.12263
G1 X98.975 Y92.700 E2.12379
G1 X98.975 Y107.300 E2.32487
G1 X98.958 Y107.383 E2.32604
G1 X98.875 Y107.400 E2.32720
G1 X97.075 Y107.400 E2.35200
G1 X96.992 Y107.383 E2.35316
G1 X96.975 Y107.300 E2.35433
G1 X96.975 Y107.000 E2.35846
G1 Z7.719 F7800.000
