; generated by Slic3r 1.36.2-prusa3d-stable-win64 on 2017-10-22 at 13:54:04

; 

; external perimeters extrusion width = 0.45mm
; perimeters extrusion width = 0.45mm
; infill extrusion width = 0.45mm
; solid infill extrusion width = 0.45mm
; top infill extrusion width = 0.45mm
; first layer extrusion width = 0.42mm

M107
M115 U3.0.12 ; tell printer latest fw version
M83  ; extruder relative mode
M104 S215 ; set extruder temp
M140 S55 ; set bed temp
M190 S55 ; wait for bed temp
M109 S215 ; wait for extruder temp
G28 W ; home all without mesh bed level
G80 ; mesh bed leveling
G1 Y-3.0 F1000.0 ; go outside pritn area
G1 X60.0 E9.0  F1000.0 ; intro line
G1 X100.0 E12.5  F1000.0 ; intro line
; Filament gcode

G21 ; set units to millimeters
G90 ; use absolute coordinates
M83 ; use relative distances for extrusion
G1 E-0.80000 F2100.00000
G1 Z0.200 F7200.000
G1 X116.209 Y95.722 F7200.000
G1 E0.80000 F2100.00000
M204 S1000
G1 F2100
G1 X117.191 Y94.938 E0.03780
G1 X119.056 Y93.725 E0.06692
G1 X119.942 Y93.274 E0.02991
G1 X120.743 Y92.997 E0.02548
G1 X122.993 Y92.428 E0.06982
G1 X124.471 Y92.266 E0.04472
G1 X127.442 Y92.505 E0.08968
G1 X128.264 Y92.683 E0.02528
G1 X129.057 Y92.961 E0.02528
G1 X131.135 Y93.874 E0.06827
G1 X131.941 Y94.326 E0.02779
G1 X132.677 Y94.884 E0.02779
G1 X134.376 Y96.447 E0.06943
G1 X134.956 Y97.081 E0.02586
G1 X135.448 Y97.778 E0.02567
G1 X136.926 Y100.597 E0.09573
G1 X137.281 Y101.862 E0.03953
G1 X137.650 Y104.081 E0.06767
G1 X137.713 Y105.003 E0.02779
G1 X137.651 Y105.918 E0.02760
G1 X137.285 Y108.122 E0.06719
G1 X136.929 Y109.387 E0.03953
G1 X135.459 Y112.202 E0.09553
G1 X134.964 Y112.905 E0.02586
G1 X134.379 Y113.544 E0.02605
G1 X132.683 Y115.110 E0.06944
G1 X131.948 Y115.669 E0.02779
G1 X131.137 Y116.125 E0.02798
G1 X129.063 Y117.037 E0.06816
G1 X128.269 Y117.316 E0.02528
G1 X127.448 Y117.494 E0.02528
G1 X124.463 Y117.734 E0.09006
G1 X122.955 Y117.563 E0.04568
G1 X120.699 Y116.990 E0.07001
G1 X119.800 Y116.664 E0.02875
G1 X119.000 Y116.242 E0.02721
G1 X117.026 Y114.950 E0.07097
G1 X115.844 Y113.898 E0.04759
G1 X114.079 Y111.625 E0.08656
G1 X113.661 Y110.910 E0.02490
G1 X113.336 Y110.156 E0.02471
G1 X112.598 Y108.015 E0.06810
G1 X112.385 Y107.130 E0.02740
G1 X112.291 Y106.204 E0.02798
G1 X112.287 Y104.010 E0.06602
G1 X112.346 Y103.120 E0.02683
G1 X112.522 Y102.246 E0.02683
G1 X113.577 Y99.256 E0.09537
G1 X114.263 Y98.113 E0.04011
G1 X116.171 Y95.768 E0.09092
G1 X116.462 Y96.005 F7200.000
G1 F2100
G1 X117.397 Y95.254 E0.03607
G1 X119.240 Y94.054 E0.06617
G1 X120.085 Y93.624 E0.02850
G1 X120.851 Y93.359 E0.02438
G1 X123.074 Y92.797 E0.06899
G1 X124.473 Y92.643 E0.04233
G1 X127.380 Y92.877 E0.08773
G1 X128.913 Y93.309 E0.04792
G1 X130.967 Y94.212 E0.06748
G1 X131.734 Y94.642 E0.02644
G1 X132.430 Y95.169 E0.02625
G1 X134.113 Y96.717 E0.06880
G1 X134.660 Y97.315 E0.02438
G1 X135.131 Y97.982 E0.02457
G1 X136.576 Y100.738 E0.09360
G1 X136.911 Y101.931 E0.03729
G1 X137.276 Y104.126 E0.06691
G1 X137.336 Y105.003 E0.02644
G1 X137.276 Y105.873 E0.02625
G1 X136.915 Y108.052 E0.06642
G1 X136.580 Y109.245 E0.03729
G1 X135.142 Y111.998 E0.09342
G1 X134.672 Y112.666 E0.02457
G1 X134.117 Y113.273 E0.02475
G1 X132.441 Y114.822 E0.06864
G1 X131.741 Y115.354 E0.02644
G1 X130.969 Y115.787 E0.02663
G1 X128.919 Y116.688 E0.06736
G1 X128.166 Y116.953 E0.02401
G1 X127.380 Y117.123 E0.02419
G1 X124.461 Y117.357 E0.08810
G1 X123.032 Y117.194 E0.04326
G1 X120.809 Y116.630 E0.06899
G1 X119.953 Y116.319 E0.02738
G1 X119.193 Y115.917 E0.02588
G1 X117.242 Y114.641 E0.07011
G1 X116.118 Y113.639 E0.04531
G1 X114.395 Y111.420 E0.08450
G1 X113.688 Y110.020 E0.04717
G1 X112.960 Y107.909 E0.06716
G1 X112.755 Y107.061 E0.02625
G1 X112.668 Y106.180 E0.02663
G1 X112.664 Y104.010 E0.06529
G1 X112.721 Y103.164 E0.02550
G1 X112.889 Y102.333 E0.02550
G1 X113.921 Y99.410 E0.09325
G1 X114.570 Y98.332 E0.03785
G1 X116.424 Y96.051 E0.08840
G1 F5760
G1 X117.397 Y95.254 E-0.43566
G1 F5760
G1 X118.182 Y94.743 E-0.32433
G1 E-0.04000 F2100.00000
G1 X117.629 Y96.680 F7200.000
G1 E0.80000 F2100.00000
G1 F2100
G1 X120.924 Y94.666 E0.11616
G1 X123.455 Y94.025 E0.07854
G1 X124.796 Y93.938 E0.04041
G1 X127.814 Y94.285 E0.09140
G1 X130.603 Y95.451 E0.09092
G1 X133.362 Y97.762 E0.10827
G1 X135.366 Y101.173 E0.11898
G1 X136.047 Y105.099 E0.11988
G1 X135.296 Y109.029 E0.12034
G1 X134.053 Y111.327 E0.07859
G1 X133.208 Y112.372 E0.04041
G1 X130.909 Y114.358 E0.09139
G1 X128.162 Y115.619 E0.09092
G1 X124.589 Y116.085 E0.10838
G1 X120.560 Y115.182 E0.12419
G1 X120.350 Y115.078 E0.00705
G1 X117.098 Y112.828 E0.11897
G1 X115.272 Y110.398 E0.09140
G1 X114.195 Y107.557 E0.09139
G1 X113.950 Y106.236 E0.04041
G1 X113.950 Y103.622 E0.07864
G1 X115.164 Y99.804 E0.12050
G1 X117.592 Y96.727 E0.11791
G1 X117.855 Y96.983 F7200.000
G1 F2100
G1 X121.044 Y95.024 E0.11258
G1 X123.531 Y94.394 E0.07716
G1 X124.770 Y94.314 E0.03736
G1 X127.694 Y94.643 E0.08849
G1 X130.431 Y95.788 E0.08924
G1 X133.094 Y98.029 E0.10472
G1 X135.023 Y101.333 E0.11505
G1 X135.669 Y105.129 E0.11583
G1 X134.951 Y108.875 E0.11473
G1 X133.729 Y111.132 E0.07720
G1 X132.949 Y112.099 E0.03736
G1 X130.727 Y114.027 E0.08849
G1 X128.031 Y115.265 E0.08924
G1 X124.574 Y115.707 E0.10482
G1 X120.704 Y114.832 E0.11936
G1 X120.551 Y114.759 E0.00510
G1 X117.381 Y112.576 E0.11577
G1 X115.590 Y110.194 E0.08966
G1 X114.554 Y107.440 E0.08849
G1 X114.327 Y106.219 E0.03737
G1 X114.327 Y103.651 E0.07725
G1 X115.481 Y100.010 E0.11489
G1 X117.818 Y97.031 E0.11390
G1 X118.082 Y97.287 F7200.000
G1 F2100
G1 X121.165 Y95.383 E0.10900
G1 X123.607 Y94.764 E0.07576
G1 X124.745 Y94.691 E0.03431
G1 X127.625 Y95.015 E0.08717
G1 X130.257 Y96.124 E0.08594
G1 X132.826 Y98.296 E0.10118
G1 X134.679 Y101.493 E0.11115
G1 X135.293 Y105.092 E0.10983
G1 X134.605 Y108.721 E0.11111
G1 X133.406 Y110.938 E0.07580
G1 X132.689 Y111.825 E0.03431
G1 X130.500 Y113.724 E0.08716
G1 X127.901 Y114.910 E0.08594
G1 X124.560 Y115.329 E0.10127
G1 X120.844 Y114.482 E0.11466
G1 X120.750 Y114.438 E0.00311
G1 X117.663 Y112.324 E0.11254
G1 X115.933 Y110.035 E0.08630
G1 X114.913 Y107.323 E0.08716
G1 X114.705 Y106.202 E0.03431
G1 X114.705 Y103.680 E0.07584
G1 X115.830 Y100.157 E0.11126
G1 X118.045 Y97.334 E0.10793
G1 X118.310 Y97.589 F7200.000
G1 F2100
G1 X121.286 Y95.741 E0.10538
G1 X123.682 Y95.134 E0.07436
G1 X124.720 Y95.067 E0.03128
G1 X127.504 Y95.373 E0.08423
G1 X130.084 Y96.460 E0.08423
G1 X132.557 Y98.562 E0.09761
G1 X134.336 Y101.651 E0.10723
G1 X134.915 Y105.121 E0.10582
G1 X134.260 Y108.567 E0.10553
G1 X133.082 Y110.743 E0.07440
G1 X132.428 Y111.551 E0.03128
G1 X130.319 Y113.392 E0.08422
G1 X127.771 Y114.554 E0.08423
G1 X124.548 Y114.950 E0.09768
G1 X120.977 Y114.129 E0.11022
G1 X117.945 Y112.072 E0.11020
G1 X116.251 Y109.830 E0.08454
G1 X115.272 Y107.207 E0.08422
G1 X115.082 Y106.184 E0.03128
G1 X115.082 Y103.709 E0.07444
G1 X116.148 Y100.362 E0.10568
G1 X118.273 Y97.636 E0.10395
G1 X118.569 Y97.869 F7200.000
G1 F2100
G1 X121.407 Y96.099 E0.10059
G1 X123.758 Y95.504 E0.07296
G1 X124.695 Y95.444 E0.02825
G1 X127.435 Y95.745 E0.08290
G1 X129.910 Y96.796 E0.08088
G1 X132.287 Y98.827 E0.09407
G1 X133.970 Y101.748 E0.10138
G1 X134.538 Y105.085 E0.10183
G1 X133.914 Y108.414 E0.10189
G1 X132.759 Y110.548 E0.07299
G1 X132.168 Y111.278 E0.02825
G1 X130.092 Y113.090 E0.08289
G1 X127.642 Y114.199 E0.08088
G1 X124.536 Y114.572 E0.09411
G1 X121.113 Y113.774 E0.10571
G1 X118.226 Y111.819 E0.10487
G1 X116.594 Y109.672 E0.08113
G1 X115.631 Y107.090 E0.08289
G1 X115.459 Y106.167 E0.02825
G1 X115.459 Y103.739 E0.07303
G1 X116.497 Y100.510 E0.10203
G1 X118.532 Y97.916 E0.09917
G1 X118.814 Y98.150 F7200.000
G1 F2100
G1 X121.528 Y96.458 E0.09621
G1 X123.834 Y95.874 E0.07155
G1 X124.671 Y95.821 E0.02525
G1 X127.313 Y96.103 E0.07992
G1 X129.735 Y97.131 E0.07915
G1 X132.016 Y99.092 E0.09048
G1 X133.626 Y101.906 E0.09751
G1 X134.162 Y105.049 E0.09592
G1 X133.568 Y108.261 E0.09824
G1 X132.436 Y110.353 E0.07156
G1 X131.907 Y111.005 E0.02525
G1 X129.911 Y112.758 E0.07991
G1 X127.513 Y113.843 E0.07915
G1 X124.525 Y114.194 E0.09052
G1 X121.295 Y113.441 E0.09975
G1 X118.507 Y111.566 E0.10106
G1 X116.912 Y109.466 E0.07933
G1 X115.990 Y106.975 E0.07991
G1 X115.836 Y106.149 E0.02525
G1 X115.836 Y103.768 E0.07162
G1 X116.815 Y100.715 E0.09645
G1 X118.777 Y98.197 E0.09601
G1 X119.042 Y98.452 F7200.000
G1 F2100
G1 X121.649 Y96.816 E0.09258
G1 X123.909 Y96.244 E0.07013
G1 X124.648 Y96.197 E0.02228
G1 X127.192 Y96.461 E0.07692
G1 X129.560 Y97.467 E0.07740
G1 X131.745 Y99.356 E0.08687
G1 X133.281 Y102.062 E0.09362
G1 X133.784 Y105.078 E0.09197
G1 X133.222 Y108.107 E0.09266
G1 X132.112 Y110.158 E0.07015
G1 X131.646 Y110.733 E0.02228
G1 X129.729 Y112.426 E0.07692
G1 X127.385 Y113.487 E0.07740
G1 X124.515 Y113.815 E0.08689
G1 X121.415 Y113.083 E0.09581
G1 X118.789 Y111.314 E0.09525
G1 X117.229 Y109.261 E0.07755
G1 X116.349 Y106.860 E0.07692
G1 X116.213 Y106.132 E0.02228
G1 X116.213 Y103.798 E0.07019
G1 X117.163 Y100.863 E0.09281
G1 X119.005 Y98.499 E0.09014
G1 X119.302 Y98.732 F7200.000
G1 F2100
G1 X121.770 Y97.174 E0.08780
G1 X123.985 Y96.613 E0.06871
G1 X124.625 Y96.574 E0.01929
G1 X127.125 Y96.833 E0.07559
G1 X129.384 Y97.801 E0.07396
G1 X131.473 Y99.619 E0.08328
G1 X132.915 Y102.158 E0.08785
G1 X133.407 Y105.044 E0.08804
G1 X132.876 Y107.954 E0.08899
G1 X131.789 Y109.963 E0.06871
G1 X131.385 Y110.461 E0.01929
G1 X129.501 Y112.125 E0.07559
G1 X127.258 Y113.131 E0.07396
G1 X124.506 Y113.437 E0.08330
G1 X121.597 Y112.750 E0.08991
G1 X119.069 Y111.059 E0.09147
G1 X117.573 Y109.104 E0.07405
G1 X116.709 Y106.744 E0.07559
G1 X116.590 Y106.114 E0.01930
G1 X116.590 Y103.828 E0.06876
G1 X117.511 Y101.012 E0.08913
G1 X119.264 Y98.779 E0.08540
G1 X119.548 Y99.012 F7200.000
G1 F2100
G1 X121.892 Y97.532 E0.08338
G1 X124.060 Y96.983 E0.06727
G1 X124.602 Y96.951 E0.01635
G1 X127.003 Y97.191 E0.07256
G1 X129.208 Y98.136 E0.07218
G1 X131.200 Y99.881 E0.07965
G1 X132.570 Y102.314 E0.08400
G1 X133.030 Y105.073 E0.08413
G1 X132.531 Y107.801 E0.08341
G1 X131.466 Y109.768 E0.06728
G1 X131.123 Y110.189 E0.01635
G1 X129.320 Y111.792 E0.07256
G1 X127.131 Y112.775 E0.07218
G1 X124.498 Y113.059 E0.07966
G1 X121.718 Y112.392 E0.08602
G1 X119.350 Y110.806 E0.08572
G1 X117.891 Y108.898 E0.07225
G1 X117.069 Y106.630 E0.07256
G1 X116.967 Y106.096 E0.01635
G1 X116.967 Y103.858 E0.06732
G1 X117.829 Y101.218 E0.08355
G1 X119.511 Y99.059 E0.08231
G1 X119.807 Y99.292 F7200.000
G1 F2100
G1 X122.013 Y97.891 E0.07861
G1 X124.135 Y97.353 E0.06583
G1 X124.581 Y97.327 E0.01344
G1 X126.881 Y97.549 E0.06952
G1 X129.032 Y98.471 E0.07038
G1 X130.926 Y100.142 E0.07599
G1 X132.225 Y102.469 E0.08017
G1 X132.653 Y105.039 E0.07835
G1 X132.185 Y107.648 E0.07975
G1 X131.143 Y109.573 E0.06582
G1 X130.860 Y109.918 E0.01344
G1 X129.139 Y111.461 E0.06952
G1 X127.004 Y112.418 E0.07038
G1 X124.491 Y112.681 E0.07601
G1 X121.898 Y112.059 E0.08021
G1 X119.630 Y110.552 E0.08192
G1 X118.208 Y108.692 E0.07041
G1 X117.428 Y106.517 E0.06951
G1 X117.344 Y106.078 E0.01344
G1 X117.344 Y103.889 E0.06586
G1 X118.176 Y101.368 E0.07986
G1 X119.770 Y99.339 E0.07760
G1 X120.053 Y99.571 F7200.000
G1 F2100
G1 X122.135 Y98.249 E0.07419
G1 X124.210 Y97.723 E0.06437
G1 X124.559 Y97.704 E0.01052
G1 X126.815 Y97.922 E0.06820
G1 X128.854 Y98.805 E0.06682
G1 X130.652 Y100.402 E0.07234
G1 X131.879 Y102.622 E0.07632
G1 X132.276 Y105.067 E0.07449
G1 X131.839 Y107.495 E0.07421
G1 X130.820 Y109.377 E0.06437
G1 X130.598 Y109.647 E0.01052
G1 X128.910 Y111.160 E0.06819
G1 X126.879 Y112.061 E0.06682
G1 X124.486 Y112.302 E0.07235
G1 X122.020 Y111.701 E0.07636
G1 X119.910 Y110.297 E0.07624
G1 X118.553 Y108.537 E0.06683
G1 X117.788 Y106.403 E0.06819
G1 X117.721 Y106.060 E0.01052
G1 X117.721 Y103.919 E0.06438
G1 X118.523 Y101.518 E0.07616
G1 X120.016 Y99.618 E0.07268
G1 X120.284 Y99.871 F7200.000
G1 F2100
G1 X122.258 Y98.607 E0.07050
G1 X124.284 Y98.094 E0.06287
G1 X124.537 Y98.081 E0.00764
G1 X126.693 Y98.280 E0.06513
G1 X128.676 Y99.138 E0.06498
G1 X130.376 Y100.661 E0.06867
G1 X131.513 Y102.717 E0.07064
G1 X131.899 Y105.034 E0.07067
G1 X131.492 Y107.343 E0.07051
G1 X130.498 Y109.181 E0.06287
G1 X130.335 Y109.376 E0.00764
G1 X128.729 Y110.827 E0.06512
G1 X126.754 Y111.704 E0.06498
G1 X124.482 Y111.924 E0.06868
G1 X122.200 Y111.368 E0.07064
G1 X120.189 Y110.041 E0.07247
G1 X118.870 Y108.331 E0.06497
G1 X118.148 Y106.290 E0.06512
G1 X118.098 Y106.041 E0.00764
G1 X118.098 Y103.950 E0.06290
G1 X118.841 Y101.724 E0.07058
G1 X120.247 Y99.918 E0.06885
G1 X120.543 Y100.151 F7200.000
G1 F2100
G1 X122.380 Y98.965 E0.06575
G1 X124.357 Y98.464 E0.06135
G1 X124.516 Y98.457 E0.00480
G1 X126.572 Y98.638 E0.06207
G1 X128.497 Y99.472 E0.06312
G1 X130.099 Y100.919 E0.06495
G1 X131.166 Y102.869 E0.06684
G1 X131.522 Y105.063 E0.06685
G1 X131.146 Y107.190 E0.06498
G1 X130.176 Y108.983 E0.06135
G1 X130.073 Y109.105 E0.00480
G1 X128.548 Y110.495 E0.06206
G1 X126.630 Y111.347 E0.06312
G1 X124.479 Y111.546 E0.06496
G1 X122.322 Y111.010 E0.06685
G1 X120.468 Y109.786 E0.06682
G1 X119.188 Y108.125 E0.06311
G1 X118.508 Y106.177 E0.06206
G1 X118.475 Y106.020 E0.00480
G1 X118.475 Y103.981 E0.06135
G1 X119.187 Y101.876 E0.06684
G1 X120.506 Y100.198 E0.06420
G1 X120.792 Y100.428 F7200.000
G1 F2100
G1 X122.502 Y99.323 E0.06127
G1 X124.427 Y98.835 E0.05972
G1 X124.492 Y98.834 E0.00195
G1 X126.508 Y99.011 E0.06086
G1 X128.317 Y99.804 E0.05943
G1 X129.822 Y101.177 E0.06127
G1 X130.800 Y102.962 E0.06124
G1 X131.145 Y105.031 E0.06308
G1 X130.800 Y107.038 E0.06125
G1 X129.855 Y108.784 E0.05972
G1 X129.812 Y108.833 E0.00195
G1 X128.317 Y110.196 E0.06086
G1 X126.507 Y110.989 E0.05943
G1 X124.479 Y111.167 E0.06125
G1 X122.446 Y110.652 E0.06308
G1 X120.747 Y109.530 E0.06126
G1 X119.533 Y107.971 E0.05943
G1 X118.867 Y106.061 E0.06086
G1 X118.852 Y105.998 E0.00195
G1 X118.852 Y104.013 E0.05971
G1 X119.533 Y102.029 E0.06309
G1 X120.755 Y100.475 E0.05944
G1 F5760
G1 X122.502 Y99.323 E-0.72515
G1 F5760
G1 X122.600 Y99.298 E-0.03485
G1 E-0.04000 F2100.00000
G1 X121.934 Y101.206 F7200.000
G1 E0.80000 F2100.00000
G1 F840
G1 X123.879 Y100.269 E0.06495
G1 X126.039 Y100.269 E0.06496
G1 X127.984 Y101.206 E0.06495
G1 X129.331 Y102.895 E0.06495
G1 X129.811 Y105.000 E0.06496
G1 X129.331 Y107.105 E0.06496
G1 X127.984 Y108.794 E0.06495
G1 X126.039 Y109.731 E0.06496
G1 X123.879 Y109.731 E0.06495
G1 X121.934 Y108.794 E0.06496
G1 X120.587 Y107.105 E0.06496
G1 X120.107 Y105.000 E0.06496
G1 X120.587 Y102.895 E0.06496
G1 X121.896 Y101.253 E0.06315
G1 X122.175 Y101.509 F7200.000
G1 F840
G1 X123.965 Y100.647 E0.05978
G1 X125.953 Y100.647 E0.05978
G1 X127.743 Y101.509 E0.05978
G1 X128.982 Y103.063 E0.05978
G1 X129.424 Y105.000 E0.05978
G1 X128.982 Y106.937 E0.05978
G1 X127.743 Y108.491 E0.05978
G1 X125.953 Y109.353 E0.05978
G1 X123.965 Y109.353 E0.05978
G1 X122.175 Y108.491 E0.05978
G1 X120.936 Y106.937 E0.05978
G1 X120.494 Y105.000 E0.05978
G1 X120.936 Y103.063 E0.05978
G1 X122.138 Y101.556 E0.05797
G1 X122.115 Y101.113 F7200.000
G1 X121.299 Y101.024 F7200.000
G1 F840
G1 X122.788 Y100.051 E0.05351
G1 X124.516 Y99.614 E0.05361
G1 X126.286 Y99.761 E0.05342
G1 X127.915 Y100.475 E0.05352
G1 X129.224 Y101.680 E0.05352
G1 X130.071 Y103.245 E0.05352
G1 X130.364 Y105.000 E0.05352
G1 X130.071 Y106.755 E0.05352
G1 X129.224 Y108.320 E0.05352
G1 X127.915 Y109.525 E0.05352
G1 X126.286 Y110.239 E0.05352
G1 X124.513 Y110.386 E0.05352
G1 X122.788 Y109.950 E0.05352
G1 X121.299 Y108.976 E0.05352
G1 X120.206 Y107.572 E0.05352
G1 X119.629 Y105.893 E0.05342
G1 X119.628 Y104.110 E0.05361
G1 X120.206 Y102.428 E0.05351
G1 X121.262 Y101.071 E0.05171
G1 X121.040 Y100.742 F7200.000
G1 F840
G1 X122.634 Y99.700 E0.05730
G1 X124.484 Y99.233 E0.05740
G1 X126.380 Y99.390 E0.05721
G1 X128.124 Y100.155 E0.05730
G1 X129.526 Y101.445 E0.05730
G1 X130.433 Y103.121 E0.05730
G1 X130.746 Y105.000 E0.05730
G1 X130.433 Y106.879 E0.05730
G1 X129.526 Y108.555 E0.05730
G1 X128.124 Y109.845 E0.05730
G1 X126.380 Y110.610 E0.05730
G1 X124.481 Y110.767 E0.05730
G1 X122.634 Y110.300 E0.05730
G1 X121.040 Y109.258 E0.05730
G1 X119.869 Y107.754 E0.05730
G1 X119.252 Y105.956 E0.05721
