; generated by Slic3r 1.36.2-prusa3d-stable-win64 on 2017-10-22 at 11:34:54

; 

; external perimeters extrusion width = 0.45mm
; perimeters extrusion width = 0.45mm
; infill extrusion width = 0.45mm
; solid infill extrusion width = 0.45mm
; top infill extrusion width = 0.45mm
; first layer extrusion width = 0.42mm

M107
M115 U3.0.12 ; tell printer latest fw version
M83  ; extruder relative mode
M104 S215 ; set extruder temp
M140 S55 ; set bed temp
M190 S55 ; wait for bed temp
M109 S215 ; wait for extruder temp
G28 W ; home all without mesh bed level
G80 ; mesh bed leveling
G1 Y-3.0 F1000.0 ; go outside pritn area
G1 X60.0 E9.0  F1000.0 ; intro line
G1 X100.0 E12.5  F1000.0 ; intro line
; Filament gcode

G21 ; set units to millimeters
G90 ; use absolute coordinates
M83 ; use relative distances for extrusion
G1 E-0.80000 F2100.00000
G1 Z0.200 F7200.000
G1 X116.209 Y95.722 F7200.000
G1 E0.80000 F2100.00000
M204 S1000
G1 F2100
G1 X117.191 Y94.938 E0.03780
G1 X119.056 Y93.725 E0.06692
G1 X119.942 Y93.274 E0.02991
G1 X120.743 Y92.997 E0.02548
G1 X122.993 Y92.428 E0.06982
G1 X124.471 Y92.266 E0.04472
G1 X127.442 Y92.505 E0.08968
G1 X128.264 Y92.683 E0.02528
G1 X129.057 Y92.961 E0.02528
G1 X131.135 Y93.874 E0.06827
G1 X131.941 Y94.326 E0.02779
G1 X132.677 Y94.884 E0.02779
G1 X134.371 Y96.442 E0.06924
G1 X134.948 Y97.071 E0.02567
G1 X135.445 Y97.773 E0.02586
G1 X136.922 Y100.589 E0.09566
G1 X137.279 Y101.854 E0.03953
G1 X137.649 Y104.070 E0.06759
G1 X137.712 Y104.992 E0.02779
G1 X137.650 Y105.901 E0.02740
G1 X137.284 Y108.127 E0.06786
G1 X136.929 Y109.392 E0.03953
G1 X135.455 Y112.209 E0.09563
G1 X134.960 Y112.912 E0.02586
G1 X134.380 Y113.546 E0.02586
G1 X132.684 Y115.110 E0.06938
G1 X131.948 Y115.669 E0.02779
G1 X131.137 Y116.125 E0.02798
G1 X129.063 Y117.037 E0.06818
G1 X128.269 Y117.316 E0.02528
G1 X127.448 Y117.494 E0.02528
G1 X124.463 Y117.734 E0.09006
G1 X122.955 Y117.563 E0.04568
G1 X120.699 Y116.990 E0.07001
G1 X119.800 Y116.664 E0.02875
G1 X119.000 Y116.242 E0.02721
G1 X117.026 Y114.950 E0.07097
G1 X115.844 Y113.898 E0.04759
G1 X114.075 Y111.621 E0.08673
G1 X113.657 Y110.907 E0.02490
G1 X113.329 Y110.147 E0.02490
G1 X112.597 Y108.011 E0.06789
G1 X112.384 Y107.126 E0.02740
G1 X112.292 Y106.206 E0.02779
G1 X112.287 Y104.012 E0.06600
G1 X112.346 Y103.122 E0.02683
G1 X112.521 Y102.248 E0.02683
G1 X113.577 Y99.256 E0.09545
G1 X114.263 Y98.113 E0.04011
G1 X116.171 Y95.768 E0.09092
G1 X116.462 Y96.005 F7200.000
G1 F2100
G1 X117.397 Y95.254 E0.03607
G1 X119.240 Y94.054 E0.06617
G1 X120.085 Y93.624 E0.02850
G1 X120.851 Y93.359 E0.02438
G1 X123.074 Y92.797 E0.06899
G1 X124.473 Y92.643 E0.04233
G1 X127.380 Y92.877 E0.08773
G1 X128.913 Y93.309 E0.04792
G1 X130.967 Y94.212 E0.06748
G1 X131.734 Y94.642 E0.02644
G1 X132.434 Y95.173 E0.02644
G1 X134.108 Y96.713 E0.06842
G1 X134.660 Y97.315 E0.02457
G1 X135.131 Y97.982 E0.02457
G1 X136.573 Y100.730 E0.09334
G1 X136.909 Y101.923 E0.03729
G1 X137.274 Y104.115 E0.06683
G1 X137.335 Y104.991 E0.02644
G1 X137.276 Y105.856 E0.02606
G1 X136.914 Y108.057 E0.06709
G1 X136.580 Y109.251 E0.03729
G1 X135.138 Y112.005 E0.09351
G1 X134.669 Y112.673 E0.02457
G1 X134.117 Y113.275 E0.02457
G1 X132.441 Y114.821 E0.06858
G1 X131.742 Y115.353 E0.02644
G1 X130.970 Y115.787 E0.02663
G1 X128.913 Y116.691 E0.06758
G1 X128.154 Y116.957 E0.02419
G1 X127.374 Y117.124 E0.02401
G1 X124.461 Y117.357 E0.08791
G1 X123.032 Y117.194 E0.04326
G1 X120.809 Y116.630 E0.06899
G1 X119.953 Y116.319 E0.02738
G1 X119.193 Y115.917 E0.02588
G1 X117.242 Y114.641 E0.07011
G1 X116.118 Y113.639 E0.04531
G1 X114.391 Y111.415 E0.08467
G1 X113.681 Y110.010 E0.04736
G1 X112.957 Y107.900 E0.06712
G1 X112.755 Y107.057 E0.02606
G1 X112.669 Y106.182 E0.02644
G1 X112.664 Y104.012 E0.06528
G1 X112.720 Y103.166 E0.02550
G1 X112.888 Y102.335 E0.02550
G1 X113.921 Y99.410 E0.09332
G1 X114.570 Y98.332 E0.03785
G1 X116.424 Y96.051 E0.08840
G1 F5760
G1 X117.397 Y95.254 E-0.43566
G1 F5760
G1 X118.182 Y94.743 E-0.32433
G1 E-0.04000 F2100.00000
G1 X117.579 Y96.725 F7200.000
G1 E0.80000 F2100.00000
G1 F2100
G1 X120.924 Y94.666 E0.11815
G1 X123.454 Y94.025 E0.07853
G1 X124.793 Y93.937 E0.04035
G1 X127.813 Y94.284 E0.09143
G1 X130.602 Y95.451 E0.09095
G1 X133.363 Y97.763 E0.10832
G1 X135.390 Y101.241 E0.12110
G1 X136.046 Y105.164 E0.11963
G1 X135.331 Y108.919 E0.11500
G1 X133.358 Y112.242 E0.11625
G1 X130.586 Y114.558 E0.10863
G1 X127.676 Y115.751 E0.09461
G1 X124.539 Y116.085 E0.09491
G1 X120.652 Y115.215 E0.11979
G1 X120.494 Y115.152 E0.00511
G1 X117.098 Y112.828 E0.12380
G1 X115.272 Y110.398 E0.09141
G1 X114.195 Y107.556 E0.09145
G1 X113.950 Y106.236 E0.04038
G1 X113.950 Y103.622 E0.07863
G1 X115.132 Y99.864 E0.11849
G1 X117.542 Y96.772 E0.11791
G1 X117.838 Y97.005 F7200.000
G1 F2100
G1 X121.044 Y95.024 E0.11334
G1 X123.530 Y94.395 E0.07715
G1 X124.768 Y94.314 E0.03730
G1 X127.692 Y94.642 E0.08852
G1 X130.430 Y95.788 E0.08926
G1 X133.095 Y98.030 E0.10477
G1 X135.047 Y101.400 E0.11715
G1 X135.669 Y105.191 E0.11557
G1 X134.968 Y108.815 E0.11104
G1 X133.091 Y111.974 E0.11052
G1 X130.416 Y114.220 E0.10506
G1 X127.558 Y115.392 E0.09291
G1 X124.531 Y115.707 E0.09156
G1 X120.752 Y114.851 E0.11654
G1 X120.656 Y114.811 E0.00312
G1 X117.381 Y112.577 E0.11928
G1 X115.590 Y110.193 E0.08966
G1 X114.553 Y107.439 E0.08854
G1 X114.327 Y106.218 E0.03733
G1 X114.327 Y103.651 E0.07723
G1 X115.481 Y100.011 E0.11487
G1 X117.801 Y97.052 E0.11309
G1 X118.081 Y97.287 F7200.000
G1 F2100
G1 X121.165 Y95.383 E0.10902
G1 X123.606 Y94.764 E0.07575
G1 X124.742 Y94.691 E0.03424
G1 X127.623 Y95.014 E0.08720
G1 X130.257 Y96.124 E0.08597
G1 X132.827 Y98.297 E0.10123
G1 X134.680 Y101.496 E0.11123
G1 X135.292 Y105.154 E0.11156
G1 X134.626 Y108.652 E0.10712
G1 X132.823 Y111.707 E0.10669
G1 X130.245 Y113.883 E0.10148
G1 X127.492 Y115.020 E0.08958
G1 X124.523 Y115.329 E0.08979
G1 X120.825 Y114.474 E0.11417
G1 X117.663 Y112.324 E0.11502
G1 X115.933 Y110.035 E0.08630
G1 X114.912 Y107.321 E0.08722
G1 X114.705 Y106.201 E0.03427
G1 X114.705 Y103.680 E0.07582
G1 X115.830 Y100.158 E0.11124
G1 X118.044 Y97.335 E0.10792
G1 X118.309 Y97.590 F7200.000
G1 F2100
G1 X121.286 Y95.741 E0.10540
G1 X123.682 Y95.134 E0.07435
G1 X124.717 Y95.067 E0.03122
G1 X127.502 Y95.372 E0.08425
G1 X130.083 Y96.460 E0.08426
G1 X132.557 Y98.562 E0.09766
G1 X134.337 Y101.654 E0.10731
G1 X134.916 Y105.117 E0.10561
G1 X134.284 Y108.490 E0.10322
G1 X132.554 Y111.440 E0.10286
G1 X130.073 Y113.546 E0.09788
G1 X127.374 Y114.660 E0.08786
G1 X124.516 Y114.951 E0.08639
G1 X120.993 Y114.132 E0.10881
G1 X117.945 Y112.072 E0.11066
G1 X116.251 Y109.830 E0.08453
G1 X115.271 Y107.205 E0.08427
G1 X115.082 Y106.184 E0.03125
G1 X115.082 Y103.709 E0.07442
G1 X116.148 Y100.363 E0.10566
G1 X118.272 Y97.637 E0.10393
G1 X118.568 Y97.870 F7200.000
G1 F2100
G1 X121.406 Y96.099 E0.10061
G1 X123.757 Y95.504 E0.07296
G1 X124.694 Y95.444 E0.02822
G1 X127.381 Y95.731 E0.08130
G1 X129.910 Y96.796 E0.08254
G1 X132.287 Y98.828 E0.09406
G1 X133.992 Y101.812 E0.10339
G1 X134.538 Y105.146 E0.10162
G1 X133.942 Y108.329 E0.09742
G1 X132.285 Y111.175 E0.09905
G1 X129.901 Y113.209 E0.09428
G1 X127.308 Y114.288 E0.08448
G1 X124.510 Y114.572 E0.08460
G1 X121.113 Y113.773 E0.10497
G1 X118.226 Y111.819 E0.10485
G1 X116.594 Y109.672 E0.08113
G1 X115.630 Y107.088 E0.08294
G1 X115.459 Y106.166 E0.02821
G1 X115.459 Y103.739 E0.07301
G1 X116.497 Y100.510 E0.10201
G1 X118.531 Y97.917 E0.09916
G1 X118.813 Y98.151 F7200.000
G1 F2100
G1 X121.527 Y96.458 E0.09623
G1 X123.833 Y95.874 E0.07155
G1 X124.670 Y95.820 E0.02521
G1 X127.313 Y96.103 E0.07997
G1 X129.735 Y97.131 E0.07915
G1 X132.017 Y99.092 E0.09049
G1 X133.626 Y101.907 E0.09753
G1 X134.161 Y105.110 E0.09769
G1 X133.599 Y108.169 E0.09354
G1 X132.015 Y110.910 E0.09523
G1 X129.728 Y112.872 E0.09065
G1 X127.189 Y113.929 E0.08273
G1 X124.504 Y114.194 E0.08116
G1 X121.294 Y113.441 E0.09916
G1 X118.507 Y111.566 E0.10104
G1 X116.912 Y109.466 E0.07934
G1 X115.989 Y106.973 E0.07996
G1 X115.836 Y106.149 E0.02521
G1 X115.836 Y103.768 E0.07161
G1 X116.815 Y100.716 E0.09643
G1 X118.776 Y98.198 E0.09599
G1 X119.041 Y98.452 F7200.000
G1 F2100
G1 X121.649 Y96.816 E0.09260
G1 X123.909 Y96.244 E0.07012
G1 X124.647 Y96.197 E0.02224
G1 X127.192 Y96.461 E0.07697
G1 X129.560 Y97.467 E0.07740
G1 X131.745 Y99.356 E0.08688
G1 X133.282 Y102.064 E0.09366
G1 X133.785 Y105.076 E0.09184
G1 X133.256 Y108.010 E0.08968
G1 X131.744 Y110.646 E0.09140
G1 X129.554 Y112.537 E0.08702
G1 X127.124 Y113.557 E0.07929
G1 X124.498 Y113.816 E0.07935
G1 X121.415 Y113.082 E0.09533
G1 X118.789 Y111.314 E0.09524
G1 X117.229 Y109.261 E0.07755
G1 X116.349 Y106.858 E0.07697
G1 X116.213 Y106.131 E0.02224
G1 X116.213 Y103.798 E0.07018
G1 X117.163 Y100.863 E0.09279
G1 X119.004 Y98.500 E0.09012
G1 X119.301 Y98.732 F7200.000
G1 F2100
G1 X121.770 Y97.174 E0.08782
G1 X123.984 Y96.614 E0.06871
G1 X124.623 Y96.574 E0.01926
G1 X127.124 Y96.833 E0.07564
G1 X129.384 Y97.801 E0.07396
G1 X131.473 Y99.619 E0.08328
G1 X132.937 Y102.219 E0.08977
G1 X133.407 Y105.104 E0.08790
G1 X132.891 Y107.910 E0.08582
G1 X131.472 Y110.382 E0.08573
G1 X129.380 Y112.201 E0.08338
G1 X127.004 Y113.198 E0.07751
G1 X124.494 Y113.437 E0.07586
G1 X121.596 Y112.750 E0.08957
G1 X119.069 Y111.059 E0.09146
G1 X117.573 Y109.104 E0.07405
G1 X116.708 Y106.743 E0.07564
G1 X116.590 Y106.114 E0.01926
G1 X116.590 Y103.828 E0.06874
G1 X117.511 Y101.013 E0.08912
G1 X119.264 Y98.780 E0.08539
G1 X119.547 Y99.012 F7200.000
G1 F2100
G1 X121.892 Y97.532 E0.08340
G1 X124.059 Y96.983 E0.06727
G1 X124.601 Y96.951 E0.01631
G1 X127.003 Y97.191 E0.07261
G1 X129.208 Y98.136 E0.07218
G1 X131.200 Y99.881 E0.07966
G1 X132.570 Y102.314 E0.08400
G1 X133.030 Y105.069 E0.08402
G1 X132.547 Y107.752 E0.08198
G1 X131.200 Y110.120 E0.08194
G1 X129.205 Y111.865 E0.07974
G1 X126.939 Y112.825 E0.07401
G1 X124.489 Y113.059 E0.07403
G1 X121.717 Y112.392 E0.08576
G1 X119.350 Y110.806 E0.08572
G1 X117.891 Y108.898 E0.07225
G1 X117.068 Y106.629 E0.07260
G1 X116.967 Y106.096 E0.01632
G1 X116.967 Y103.858 E0.06731
G1 X117.829 Y101.218 E0.08354
G1 X119.510 Y99.059 E0.08230
G1 X119.806 Y99.292 F7200.000
G1 F2100
G1 X122.013 Y97.891 E0.07863
G1 X124.135 Y97.353 E0.06584
G1 X124.579 Y97.327 E0.01340
G1 X126.881 Y97.549 E0.06956
G1 X129.032 Y98.471 E0.07038
G1 X130.926 Y100.142 E0.07599
G1 X132.225 Y102.469 E0.08014
G1 X132.653 Y105.098 E0.08013
G1 X132.203 Y107.594 E0.07630
G1 X130.926 Y109.858 E0.07817
G1 X129.030 Y111.530 E0.07606
G1 X126.819 Y112.466 E0.07220
G1 X124.486 Y112.681 E0.07049
G1 X121.898 Y112.059 E0.08005
G1 X119.630 Y110.552 E0.08192
G1 X118.208 Y108.692 E0.07041
G1 X117.428 Y106.516 E0.06956
G1 X117.344 Y106.078 E0.01340
G1 X117.344 Y103.889 E0.06585
G1 X118.176 Y101.368 E0.07984
G1 X119.769 Y99.339 E0.07759
G1 X120.052 Y99.572 F7200.000
G1 F2100
G1 X122.135 Y98.249 E0.07421
G1 X124.209 Y97.723 E0.06437
G1 X124.557 Y97.704 E0.01048
G1 X126.815 Y97.922 E0.06824
G1 X128.854 Y98.805 E0.06682
G1 X130.652 Y100.403 E0.07237
G1 X131.858 Y102.563 E0.07443
G1 X132.276 Y105.065 E0.07630
G1 X131.858 Y107.439 E0.07251
G1 X130.652 Y109.598 E0.07439
G1 X128.853 Y111.196 E0.07238
G1 X126.755 Y112.094 E0.06863
G1 X124.483 Y112.302 E0.06864
G1 X122.020 Y111.701 E0.07626
G1 X119.910 Y110.297 E0.07624
G1 X118.553 Y108.537 E0.06683
G1 X117.788 Y106.402 E0.06823
G1 X117.721 Y106.060 E0.01048
G1 X117.721 Y103.919 E0.06438
G1 X118.523 Y101.519 E0.07614
G1 X120.015 Y99.619 E0.07266
G1 X120.283 Y99.871 F7200.000
G1 F2100
G1 X122.257 Y98.607 E0.07051
G1 X124.284 Y98.094 E0.06287
G1 X124.536 Y98.081 E0.00760
G1 X126.693 Y98.280 E0.06517
G1 X128.676 Y99.138 E0.06498
G1 X130.376 Y100.662 E0.06868
G1 X131.513 Y102.717 E0.07064
G1 X131.899 Y105.033 E0.07062
G1 X131.512 Y107.285 E0.06873
G1 X130.376 Y109.339 E0.07060
G1 X128.674 Y110.862 E0.06871
G1 X126.691 Y111.721 E0.06502
G1 X124.479 Y111.924 E0.06679
G1 X122.200 Y111.368 E0.07058
G1 X120.189 Y110.041 E0.07247
G1 X118.870 Y108.331 E0.06497
G1 X118.148 Y106.289 E0.06516
G1 X118.098 Y106.041 E0.00761
G1 X118.098 Y103.950 E0.06289
G1 X118.841 Y101.724 E0.07056
G1 X120.247 Y99.919 E0.06884
G1 X120.515 Y100.170 F7200.000
G1 F2100
G1 X122.380 Y98.965 E0.06680
G1 X124.357 Y98.464 E0.06133
G1 X124.515 Y98.457 E0.00477
G1 X126.572 Y98.638 E0.06210
G1 X128.497 Y99.472 E0.06312
G1 X130.100 Y100.920 E0.06496
G1 X131.167 Y102.870 E0.06687
G1 X131.522 Y105.002 E0.06502
G1 X131.166 Y107.132 E0.06497
G1 X130.099 Y109.081 E0.06682
G1 X128.496 Y110.529 E0.06499
G1 X126.569 Y111.363 E0.06316
G1 X124.479 Y111.546 E0.06312
G1 X122.322 Y111.010 E0.06683
G1 X120.468 Y109.786 E0.06682
G1 X119.188 Y108.125 E0.06311
G1 X118.507 Y106.176 E0.06210
G1 X118.475 Y106.020 E0.00477
G1 X118.475 Y103.981 E0.06135
G1 X119.187 Y101.876 E0.06685
G1 X120.478 Y100.218 E0.06320
G1 X120.774 Y100.451 F7200.000
G1 F2100
G1 X122.502 Y99.323 E0.06207
G1 X124.427 Y98.835 E0.05972
G1 X124.491 Y98.834 E0.00192
G1 X126.507 Y99.011 E0.06089
G1 X128.317 Y99.804 E0.05943
G1 X129.822 Y101.176 E0.06125
G1 X130.820 Y103.021 E0.06308
G1 X131.145 Y105.030 E0.06124
G1 X130.800 Y107.037 E0.06125
G1 X129.822 Y108.823 E0.06126
G1 X128.317 Y110.195 E0.06125
G1 X126.448 Y111.004 E0.06127
G1 X124.479 Y111.167 E0.05941
G1 X122.446 Y110.652 E0.06309
G1 X120.747 Y109.530 E0.06126
G1 X119.533 Y107.971 E0.05943
G1 X118.852 Y105.998 E0.06280
G1 X118.852 Y104.013 E0.05971
G1 X119.533 Y102.029 E0.06309
G1 X120.737 Y100.498 E0.05858
G1 X121.040 Y100.742 F7200.000
G1 F840
G1 X122.634 Y99.700 E0.05730
G1 X124.483 Y99.233 E0.05736
G1 X126.380 Y99.390 E0.05724
G1 X128.124 Y100.155 E0.05730
G1 X129.526 Y101.445 E0.05730
G1 X130.433 Y103.121 E0.05730
G1 X130.746 Y105.000 E0.05730
G1 X130.433 Y106.879 E0.05730
G1 X129.526 Y108.555 E0.05730
G1 X128.124 Y109.845 E0.05730
G1 X126.380 Y110.610 E0.05730
G1 X124.481 Y110.767 E0.05730
G1 X122.634 Y110.300 E0.05730
G1 X121.040 Y109.258 E0.05730
G1 X119.869 Y107.754 E0.05730
G1 X119.252 Y105.954 E0.05724
G1 X119.251 Y104.047 E0.05736
G1 X119.869 Y102.246 E0.05730
G1 X121.003 Y100.790 E0.05550
G1 X121.421 Y100.862 F7200.000
G1 X121.299 Y101.024 F7200.000
G1 F840
G1 X122.788 Y100.050 E0.05352
G1 X124.515 Y99.614 E0.05358
G1 X126.286 Y99.761 E0.05346
G1 X127.915 Y100.475 E0.05352
G1 X129.224 Y101.680 E0.05352
G1 X130.071 Y103.245 E0.05352
G1 X130.364 Y105.000 E0.05352
G1 X130.071 Y106.755 E0.05352
G1 X129.224 Y108.320 E0.05352
G1 X127.915 Y109.525 E0.05352
G1 X126.286 Y110.239 E0.05352
G1 X124.513 Y110.386 E0.05352
G1 X122.788 Y109.950 E0.05352
G1 X121.299 Y108.976 E0.05352
G1 X120.206 Y107.572 E0.05352
G1 X119.629 Y105.891 E0.05346
G1 X119.628 Y104.110 E0.05358
G1 X120.206 Y102.428 E0.05352
G1 X121.262 Y101.071 E0.05171
G1 F5760
G1 X122.788 Y100.050 E-0.63589
G1 F5760
G1 X123.135 Y99.963 E-0.12411
G1 E-0.04000 F2100.00000
G1 X121.145 Y102.229 F7200.000
G1 E0.80000 F2100.00000
G1 F840
G1 X122.602 Y100.917 E0.05897
G1 X124.466 Y100.311 E0.05897
G1 X126.416 Y100.516 E0.05897
G1 X128.114 Y101.496 E0.05897
G1 X129.266 Y103.082 E0.05897
G1 X129.674 Y105.000 E0.05897
G1 X129.266 Y106.918 E0.05897
G1 X128.114 Y108.504 E0.05897
G1 X126.416 Y109.484 E0.05897
G1 X124.466 Y109.689 E0.05897
G1 X122.602 Y109.083 E0.05897
G1 X121.145 Y107.771 E0.05897
G1 X120.347 Y105.980 E0.05897
G1 X120.347 Y104.020 E0.05897
G1 X121.120 Y102.284 E0.05717
G1 X120.982 Y101.863 F7200.000
G1 X120.833 Y102.002 F7200.000
G1 F840
G1 X122.409 Y100.583 E0.06379
G1 X124.426 Y99.928 E0.06379
G1 X126.535 Y100.149 E0.06379
G1 X128.372 Y101.210 E0.06379
G1 X129.618 Y102.926 E0.06379
G1 X130.059 Y105.000 E0.06379
G1 X129.618 Y107.074 E0.06379
G1 X128.372 Y108.790 E0.06379
G1 X126.535 Y109.851 E0.06379
G1 X124.426 Y110.072 E0.06379
G1 X122.409 Y109.417 E0.06379
G1 X120.833 Y107.998 E0.06379
G1 X119.970 Y106.060 E0.06379
G1 X119.970 Y103.940 E0.06379
G1 X120.809 Y102.057 E0.06199
M106 S255
G1 F5760
G1 X122.409 Y100.583 E-0.75357
G1 F5760
G1 X122.427 Y100.577 E-0.00643
G1 E-0.04000 F2100.00000
G1 Z0.350 F7200.000
M104 S210 ; set temperature
G1 X116.209 Y95.722 F7200.000
G1 E0.80000 F2100.00000
G1 F900
G1 X117.191 Y94.938 E0.02949
G1 X119.056 Y93.725 E0.05221
