; generated by Slic3r 1.36.2-prusa3d-stable-win64 on 2017-10-21 at 11:30:52

; 

; external perimeters extrusion width = 0.45mm
; perimeters extrusion width = 0.45mm
; infill extrusion width = 0.45mm
; solid infill extrusion width = 0.45mm
; top infill extrusion width = 0.45mm
; first layer extrusion width = 0.42mm

M107
M115 U3.0.12 ; tell printer latest fw version
M83  ; extruder relative mode
M104 S215 ; set extruder temp
M140 S55 ; set bed temp
M190 S55 ; wait for bed temp
M109 S215 ; wait for extruder temp
G28 W ; home all without mesh bed level
G80 ; mesh bed leveling
G1 Y-3.0 F1000.0 ; go outside pritn area
G1 X60.0 E9.0  F1000.0 ; intro line
G1 X100.0 E12.5  F1000.0 ; intro line
; Filament gcode

G21 ; set units to millimeters
G90 ; use absolute coordinates
M83 ; use relative distances for extrusion
G1 E-0.80000 F2100.00000
G1 Z0.200 F7200.000
G1 X50.007 Y37.035 F7200.000
G1 E0.80000 F2100.00000
M204 S1000
G1 F2100
G1 X52.746 Y33.995 E0.12308
G1 X55.515 Y32.001 E0.10264
G1 X58.820 Y30.531 E0.10882
G1 X62.362 Y29.777 E0.10893
G1 X65.763 Y29.762 E0.10230
G1 X66.251 Y29.814 E0.01475
G1 X69.774 Y30.611 E0.10864
G1 X72.889 Y32.013 E0.10275
G1 X75.804 Y34.130 E0.10836
G1 X78.384 Y37.049 E0.11721
G1 X80.072 Y40.002 E0.10230
G1 X81.188 Y43.439 E0.10870
G1 X96.552 Y166.778 E3.73870
G1 X96.569 Y172.072 E0.15924
G1 X96.512 Y172.571 E0.01510
G1 X96.220 Y173.295 E0.02350
G1 X95.707 Y173.889 E0.02361
G1 X95.028 Y174.282 E0.02361
G1 X94.261 Y174.433 E0.02350
G1 X34.192 Y174.434 E1.80689
G1 X33.678 Y174.378 E0.01555
G1 X33.062 Y174.149 E0.01976
G1 X32.530 Y173.757 E0.01987
G1 X32.126 Y173.234 E0.01987
G1 X31.882 Y172.620 E0.01987
G1 X31.815 Y172.081 E0.01635
G1 X31.827 Y166.814 E0.15844
G1 X47.199 Y43.423 E3.74025
G1 X48.312 Y40.001 E0.10825
G1 X49.977 Y37.087 E0.10095
G1 F5760
G1 X51.441 Y35.452 E-0.76000
G1 E-0.04000 F2100.00000
G1 X56.227 Y141.093 F7200.000
G1 E0.80000 F2100.00000
G1 F1680
G1 X72.156 Y141.093 E0.47912
G1 X72.156 Y158.021 E0.50920
G1 X56.227 Y158.021 E0.47912
G1 X56.227 Y141.153 E0.50740
G1 X56.604 Y141.470 F7200.000
G1 F1680
G1 X71.779 Y141.470 E0.45644
G1 X71.779 Y157.644 E0.48652
G1 X56.604 Y157.644 E0.45644
G1 X56.604 Y141.530 E0.48471
G1 X56.982 Y141.847 F7200.000
G1 F1050
G1 X71.402 Y141.847 E0.43375
G1 X71.402 Y157.267 E0.46383
G1 X56.982 Y157.267 E0.43375
G1 X56.982 Y141.907 E0.46203
G1 X56.882 Y141.460 F7200.000
G1 F5760
G1 X59.176 Y141.898 E-0.76000
G1 E-0.04000 F2100.00000
G1 X56.227 Y121.093 F7200.000
G1 E0.80000 F2100.00000
G1 F1680
G1 X72.156 Y121.093 E0.47912
G1 X72.156 Y138.021 E0.50920
G1 X56.227 Y138.021 E0.47912
G1 X56.227 Y121.153 E0.50740
G1 X56.604 Y121.470 F7200.000
G1 F1680
G1 X71.779 Y121.470 E0.45644
G1 X71.779 Y137.644 E0.48652
G1 X56.604 Y137.644 E0.45644
G1 X56.604 Y121.530 E0.48471
G1 X56.982 Y121.847 F7200.000
G1 F1050
G1 X71.402 Y121.847 E0.43375
G1 X71.402 Y137.267 E0.46383
G1 X56.982 Y137.267 E0.43375
G1 X56.982 Y121.907 E0.46203
G1 X56.882 Y121.460 F7200.000
G1 F5760
G1 X59.176 Y121.898 E-0.76000
G1 E-0.04000 F2100.00000
G1 X56.227 Y101.093 F7200.000
G1 E0.80000 F2100.00000
G1 F1680
G1 X72.156 Y101.093 E0.47912
G1 X72.156 Y118.021 E0.50920
G1 X56.227 Y118.021 E0.47912
G1 X56.227 Y101.153 E0.50740
G1 X56.604 Y101.470 F7200.000
G1 F1680
G1 X71.779 Y101.470 E0.45644
G1 X71.779 Y117.644 E0.48652
G1 X56.604 Y117.644 E0.45644
G1 X56.604 Y101.530 E0.48471
G1 X56.982 Y101.847 F7200.000
G1 F1050
G1 X71.402 Y101.847 E0.43375
G1 X71.402 Y117.267 E0.46383
G1 X56.982 Y117.267 E0.43375
G1 X56.982 Y101.907 E0.46203
G1 X56.882 Y101.460 F7200.000
G1 F5760
G1 X59.176 Y101.898 E-0.76000
G1 E-0.04000 F2100.00000
G1 X56.227 Y81.093 F7200.000
G1 E0.80000 F2100.00000
G1 F1680
G1 X72.156 Y81.093 E0.47912
G1 X72.156 Y98.021 E0.50920
G1 X56.227 Y98.021 E0.47912
G1 X56.227 Y81.153 E0.50740
G1 X56.604 Y81.470 F7200.000
G1 F1680
G1 X71.779 Y81.470 E0.45644
G1 X71.779 Y97.644 E0.48652
G1 X56.604 Y97.644 E0.45644
G1 X56.604 Y81.530 E0.48471
G1 X56.982 Y81.847 F7200.000
G1 F1050
G1 X71.402 Y81.847 E0.43375
G1 X71.402 Y97.267 E0.46383
G1 X56.982 Y97.267 E0.43375
G1 X56.982 Y81.907 E0.46203
G1 X56.882 Y81.460 F7200.000
G1 F5760
G1 X59.176 Y81.898 E-0.76000
G1 E-0.04000 F2100.00000
G1 X56.227 Y61.093 F7200.000
G1 E0.80000 F2100.00000
G1 F1680
G1 X72.156 Y61.093 E0.47912
G1 X72.156 Y78.021 E0.50920
G1 X56.227 Y78.021 E0.47912
G1 X56.227 Y61.153 E0.50740
G1 X56.604 Y61.470 F7200.000
G1 F1680
G1 X71.779 Y61.470 E0.45644
G1 X71.779 Y77.644 E0.48652
G1 X56.604 Y77.644 E0.45644
G1 X56.604 Y61.530 E0.48471
G1 X56.982 Y61.847 F7200.000
G1 F1050
G1 X71.402 Y61.847 E0.43375
G1 X71.402 Y77.267 E0.46383
G1 X56.982 Y77.267 E0.43375
G1 X56.982 Y61.907 E0.46203
G1 X56.882 Y61.460 F7200.000
G1 F5760
G1 X59.176 Y61.898 E-0.76000
G1 E-0.04000 F2100.00000
G1 X60.073 Y54.443 F7200.000
G1 E0.80000 F2100.00000
G1 F1680
G1 X59.979 Y54.404 E0.00305
G1 X58.200 Y53.048 E0.06729
G1 X56.844 Y51.269 E0.06729
G1 X56.008 Y49.250 E0.06575
G1 X55.719 Y47.057 E0.06653
G1 X56.008 Y44.864 E0.06653
G1 X56.854 Y42.821 E0.06653
G1 X58.201 Y41.066 E0.06653
G1 X59.955 Y39.720 E0.06653
G1 X61.999 Y38.873 E0.06653
G1 X64.166 Y38.588 E0.06575
G1 X66.383 Y38.873 E0.06724
G1 X68.428 Y39.720 E0.06658
G1 X70.182 Y41.066 E0.06653
G1 X71.529 Y42.821 E0.06653
G1 X72.375 Y44.864 E0.06653
G1 X72.664 Y47.057 E0.06653
G1 X72.375 Y49.250 E0.06653
G1 X71.529 Y51.293 E0.06653
G1 X70.182 Y53.048 E0.06653
G1 X68.428 Y54.394 E0.06653
G1 X66.384 Y55.241 E0.06653
G1 X64.192 Y55.530 E0.06653
G1 X61.999 Y55.241 E0.06653
G1 X60.129 Y54.466 E0.06089
G1 X60.169 Y54.075 F7200.000
G1 F1680
G1 X58.469 Y52.779 E0.06428
G1 X57.174 Y51.080 E0.06428
G1 X56.375 Y49.151 E0.06278
G1 X56.099 Y47.057 E0.06354
G1 X56.375 Y44.963 E0.06354
G1 X57.184 Y43.011 E0.06354
G1 X58.469 Y41.335 E0.06354
G1 X60.145 Y40.049 E0.06354
G1 X62.097 Y39.241 E0.06354
G1 X64.166 Y38.968 E0.06278
G1 X66.285 Y39.240 E0.06425
G1 X68.238 Y40.049 E0.06357
G1 X69.914 Y41.335 E0.06354
G1 X71.200 Y43.011 E0.06354
G1 X72.008 Y44.963 E0.06354
G1 X72.284 Y47.057 E0.06354
G1 X72.008 Y49.151 E0.06354
G1 X71.200 Y51.103 E0.06354
G1 X69.914 Y52.779 E0.06354
G1 X68.238 Y54.065 E0.06354
G1 X66.286 Y54.873 E0.06354
G1 X64.192 Y55.149 E0.06354
G1 X62.097 Y54.873 E0.06354
G1 X60.224 Y54.098 E0.06097
G1 X60.369 Y53.749 F7200.000
G1 F1050
G1 X58.738 Y52.510 E0.06160
G1 X57.503 Y50.890 E0.06128
G1 X56.742 Y49.053 E0.05981
G1 X56.480 Y47.057 E0.06056
G1 X56.742 Y45.061 E0.06056
G1 X57.513 Y43.201 E0.06056
G1 X58.738 Y41.604 E0.06056
G1 X60.336 Y40.378 E0.06056
G1 X62.196 Y39.608 E0.06056
G1 X64.167 Y39.348 E0.05981
G1 X66.187 Y39.608 E0.06127
G1 X68.047 Y40.378 E0.06057
G1 X69.645 Y41.604 E0.06056
G1 X70.870 Y43.201 E0.06056
G1 X71.641 Y45.061 E0.06056
G1 X71.903 Y47.057 E0.06056
G1 X71.641 Y49.053 E0.06056
G1 X70.870 Y50.913 E0.06056
G1 X69.645 Y52.510 E0.06056
G1 X68.047 Y53.736 E0.06056
G1 X66.187 Y54.506 E0.06056
G1 X64.192 Y54.769 E0.06056
G1 X62.196 Y54.506 E0.06056
G1 X60.424 Y53.772 E0.05768
G1 X60.023 Y53.951 F7200.000
G1 F5760
G1 X58.738 Y52.510 E-0.72937
G1 F5760
G1 X58.685 Y52.440 E-0.03063
G1 E-0.04000 F2100.00000
G1 X55.156 Y57.859 F7200.000
G1 E0.80000 F2100.00000
G1 F1680
G1 X52.840 Y55.303 E0.10376
G1 X51.374 Y52.764 E0.08819
G1 X50.468 Y49.974 E0.08823
G1 X50.161 Y47.057 E0.08823
G1 X50.468 Y44.140 E0.08823
G1 X51.374 Y41.350 E0.08823
G1 X52.841 Y38.810 E0.08823
G1 X54.803 Y36.630 E0.08823
G1 X57.176 Y34.906 E0.08823
G1 X59.856 Y33.713 E0.08823
G1 X62.724 Y33.104 E0.08819
G1 X65.695 Y33.111 E0.08938
G1 X68.527 Y33.713 E0.08709
G1 X71.207 Y34.906 E0.08823
G1 X73.580 Y36.630 E0.08823
G1 X75.542 Y38.810 E0.08823
G1 X77.009 Y41.350 E0.08823
G1 X77.915 Y44.140 E0.08823
G1 X78.222 Y47.057 E0.08823
G1 X77.915 Y49.974 E0.08823
G1 X77.009 Y52.764 E0.08823
G1 X75.543 Y55.303 E0.08819
G1 X73.227 Y57.859 E0.10376
G1 X73.227 Y168.021 E3.31365
G1 X93.227 Y168.021 E0.60160
G1 X93.227 Y171.093 E0.09240
G1 X35.156 Y171.093 E1.74679
G1 X35.156 Y168.021 E0.09240
G1 X55.156 Y168.021 E0.60160
G1 X55.156 Y57.919 E3.31185
G1 X54.779 Y58.005 F7200.000
G1 F1680
G1 X52.533 Y55.526 E0.10060
G1 X51.028 Y52.918 E0.09059
G1 X50.097 Y50.053 E0.09061
G1 X49.782 Y47.057 E0.09061
G1 X50.097 Y44.061 E0.09061
G1 X51.028 Y41.196 E0.09061
G1 X52.534 Y38.587 E0.09061
G1 X54.550 Y36.349 E0.09061
G1 X56.987 Y34.578 E0.09061
G1 X59.739 Y33.353 E0.09061
G1 X62.685 Y32.726 E0.09059
G1 X65.735 Y32.734 E0.09177
G1 X68.644 Y33.353 E0.08946
G1 X71.396 Y34.578 E0.09061
G1 X73.834 Y36.349 E0.09061
G1 X75.849 Y38.587 E0.09061
G1 X77.355 Y41.196 E0.09061
G1 X78.286 Y44.061 E0.09061
G1 X78.601 Y47.057 E0.09061
G1 X78.286 Y50.053 E0.09061
G1 X77.355 Y52.918 E0.09061
G1 X75.850 Y55.526 E0.09059
G1 X73.604 Y58.005 E0.10060
G1 X73.604 Y167.644 E3.29794
G1 X93.604 Y167.644 E0.60160
G1 X93.604 Y171.470 E0.11508
G1 X34.779 Y171.470 E1.76947
G1 X34.779 Y167.644 E0.11508
G1 X54.779 Y167.644 E0.60160
G1 X54.779 Y58.065 E3.29613
G1 X54.402 Y58.150 F7200.000
G1 F1050
G1 X52.227 Y55.749 E0.09743
G1 X50.681 Y53.072 E0.09299
G1 X49.726 Y50.132 E0.09300
G1 X49.403 Y47.057 E0.09300
G1 X49.726 Y43.982 E0.09300
G1 X50.681 Y41.042 E0.09300
G1 X52.227 Y38.364 E0.09300
G1 X54.296 Y36.067 E0.09300
G1 X56.797 Y34.250 E0.09300
G1 X59.622 Y32.992 E0.09300
G1 X62.645 Y32.349 E0.09299
G1 X65.775 Y32.357 E0.09415
G1 X68.762 Y32.992 E0.09183
G1 X71.586 Y34.250 E0.09300
G1 X74.087 Y36.067 E0.09300
G1 X76.156 Y38.364 E0.09300
G1 X77.702 Y41.042 E0.09300
G1 X78.657 Y43.982 E0.09300
G1 X78.980 Y47.057 E0.09300
G1 X78.657 Y50.132 E0.09300
G1 X77.702 Y53.072 E0.09300
G1 X76.156 Y55.749 E0.09299
G1 X73.982 Y58.150 E0.09743
G1 X73.982 Y167.267 E3.28222
G1 X93.982 Y167.267 E0.60160
G1 X93.982 Y171.847 E0.13777
G1 X34.402 Y171.847 E1.79216
G1 X34.402 Y167.267 E0.13777
G1 X54.402 Y167.267 E0.60160
G1 X54.402 Y58.210 E3.28042
G1 X54.633 Y57.824 F7200.000
G1 F5760
G1 X52.948 Y56.566 E-0.76000
G1 E-0.04000 F2100.00000
G1 X52.404 Y54.322 F7200.000
G1 E0.80000 F2100.00000
G1 F1680
G1 X58.892 Y60.810 E0.27652
G1 X58.358 Y60.810 E0.01610
G1 X55.438 Y57.891 E0.12443
G1 X55.438 Y58.425 E0.01610
G1 X57.824 Y60.810 E0.10166
G1 X57.289 Y60.810 E0.01610
G1 X55.438 Y58.959 E0.07889
G1 X55.438 Y59.493 E0.01610
G1 X56.755 Y60.810 E0.05612
G1 X56.221 Y60.810 E0.01610
G1 X55.438 Y60.028 E0.03335
G1 X55.438 Y60.562 E0.01610
G1 X55.945 Y61.068 E0.02157
G1 X55.945 Y61.602 E0.01610
G1 X55.438 Y61.096 E0.02157
G1 X55.438 Y61.630 E0.01610
G1 X55.945 Y62.136 E0.02157
G1 X55.945 Y62.671 E0.01610
G1 X55.438 Y62.165 E0.02157
G1 X55.438 Y62.699 E0.01610
G1 X55.945 Y63.205 E0.02157
G1 X55.945 Y63.739 E0.01610
G1 X55.438 Y63.233 E0.02157
G1 X55.438 Y63.767 E0.01610
G1 X55.945 Y64.273 E0.02157
G1 X55.945 Y64.808 E0.01610
G1 X55.438 Y64.302 E0.02157
G1 X55.438 Y64.836 E0.01610
G1 X55.945 Y65.342 E0.02157
G1 X55.945 Y65.876 E0.01610
G1 X55.438 Y65.370 E0.02157
G1 X55.438 Y65.904 E0.01610
G1 X55.945 Y66.410 E0.02157
G1 X55.945 Y66.945 E0.01610
G1 X55.438 Y66.439 E0.02157
G1 X55.438 Y66.973 E0.01610
G1 X55.945 Y67.479 E0.02157
G1 X55.945 Y68.013 E0.01610
G1 X55.438 Y67.507 E0.02157
G1 X55.438 Y68.041 E0.01610
G1 X55.945 Y68.547 E0.02157
G1 X55.945 Y69.082 E0.01610
G1 X55.438 Y68.576 E0.02157
G1 X55.438 Y69.110 E0.01610
G1 X55.945 Y69.616 E0.02157
G1 X55.945 Y70.150 E0.01610
G1 X55.438 Y69.644 E0.02157
G1 X55.438 Y70.178 E0.01610
G1 X55.945 Y70.685 E0.02157
G1 X55.945 Y71.219 E0.01610
G1 X55.438 Y70.713 E0.02157
G1 X55.438 Y71.247 E0.01610
G1 X55.945 Y71.753 E0.02157
G1 X55.945 Y72.287 E0.01610
G1 X55.438 Y71.781 E0.02157
G1 X55.438 Y72.315 E0.01610
G1 X55.945 Y72.822 E0.02157
G1 X55.945 Y73.356 E0.01610
G1 X55.438 Y72.850 E0.02157
G1 X55.438 Y73.384 E0.01610
G1 X55.945 Y73.890 E0.02157
G1 X55.945 Y74.424 E0.01610
G1 X55.438 Y73.918 E0.02157
G1 X55.438 Y74.452 E0.01610
G1 X55.945 Y74.959 E0.02157
G1 X55.945 Y75.493 E0.01610
G1 X55.438 Y74.987 E0.02157
G1 X55.438 Y75.521 E0.01610
G1 X55.945 Y76.027 E0.02157
G1 X55.945 Y76.561 E0.01610
G1 X55.438 Y76.055 E0.02157
G1 X55.438 Y76.589 E0.01610
G1 X55.945 Y77.096 E0.02157
G1 X55.945 Y77.630 E0.01610
G1 X55.438 Y77.124 E0.02157
G1 X55.438 Y77.658 E0.01610
G1 X58.591 Y80.810 E0.13435
G1 X59.125 Y80.810 E0.01610
G1 X56.619 Y78.304 E0.10681
G1 X57.153 Y78.304 E0.01610
G1 X59.659 Y80.810 E0.10681
G1 X60.193 Y80.810 E0.01610
G1 X57.687 Y78.304 E0.10681
G1 X58.221 Y78.304 E0.01610
G1 X60.728 Y80.810 E0.10681
G1 X61.262 Y80.810 E0.01610
G1 X58.756 Y78.304 E0.10681
G1 X59.290 Y78.304 E0.01610
G1 X61.796 Y80.810 E0.10681
G1 X62.330 Y80.810 E0.01610
G1 X59.824 Y78.304 E0.10681
G1 X60.358 Y78.304 E0.01610
G1 X62.865 Y80.810 E0.10681
G1 X63.399 Y80.810 E0.01610
G1 X60.893 Y78.304 E0.10681
G1 X61.427 Y78.304 E0.01610
G1 X63.933 Y80.810 E0.10681
G1 X64.467 Y80.810 E0.01610
G1 X61.961 Y78.304 E0.10681
G1 X62.496 Y78.304 E0.01610
G1 X65.002 Y80.810 E0.10681
G1 X65.536 Y80.810 E0.01610
G1 X63.030 Y78.304 E0.10681
G1 X63.564 Y78.304 E0.01610
G1 X66.070 Y80.810 E0.10681
G1 X66.604 Y80.810 E0.01610
G1 X64.098 Y78.304 E0.10681
G1 X64.633 Y78.304 E0.01610
G1 X67.139 Y80.810 E0.10681
G1 X67.673 Y80.810 E0.01610
G1 X65.167 Y78.304 E0.10681
G1 X65.701 Y78.304 E0.01610
G1 X68.207 Y80.810 E0.10681
G1 X68.741 Y80.810 E0.01610
G1 X66.235 Y78.304 E0.10681
G1 X66.770 Y78.304 E0.01610
G1 X69.276 Y80.810 E0.10681
G1 X69.810 Y80.810 E0.01610
G1 X67.304 Y78.304 E0.10681
G1 X67.838 Y78.304 E0.01610
G1 X70.344 Y80.810 E0.10681
G1 X70.878 Y80.810 E0.01610
G1 X68.372 Y78.304 E0.10681
G1 X68.907 Y78.304 E0.01610
G1 X71.413 Y80.810 E0.10681
G1 X71.947 Y80.810 E0.01610
G1 X69.441 Y78.304 E0.10681
G1 X69.975 Y78.304 E0.01610
G1 X72.945 Y81.273 E0.12656
G1 X72.945 Y80.739 E0.01610
G1 X70.509 Y78.304 E0.10379
G1 X71.044 Y78.304 E0.01610
G1 X72.945 Y80.205 E0.08102
G1 X72.945 Y79.671 E0.01610
G1 X71.578 Y78.304 E0.05825
G1 X72.112 Y78.304 E0.01610
G1 X72.945 Y79.136 E0.03548
G1 X72.945 Y78.602 E0.01610
G1 X72.438 Y78.096 E0.02157
G1 X72.438 Y77.562 E0.01610
G1 X72.945 Y78.068 E0.02157
G1 X72.945 Y77.534 E0.01610
G1 X72.438 Y77.028 E0.02157
G1 X72.438 Y76.493 E0.01610
G1 X72.945 Y76.999 E0.02157
G1 X72.945 Y76.465 E0.01610
G1 X72.438 Y75.959 E0.02157
G1 X72.438 Y75.425 E0.01610
G1 X72.945 Y75.931 E0.02157
G1 X72.945 Y75.397 E0.01610
G1 X72.438 Y74.891 E0.02157
G1 X72.438 Y74.356 E0.01610
G1 X72.945 Y74.862 E0.02157
G1 X72.945 Y74.328 E0.01610
G1 X72.438 Y73.822 E0.02157
G1 X72.438 Y73.288 E0.01610
G1 X72.945 Y73.794 E0.02157
G1 X72.945 Y73.260 E0.01610
G1 X72.438 Y72.754 E0.02157
G1 X72.438 Y72.219 E0.01610
G1 X72.945 Y72.725 E0.02157
G1 X72.945 Y72.191 E0.01610
G1 X72.438 Y71.685 E0.02157
G1 X72.438 Y71.151 E0.01610
G1 X72.945 Y71.657 E0.02157
G1 X72.945 Y71.123 E0.01610
G1 X72.438 Y70.617 E0.02157
G1 X72.438 Y70.082 E0.01610
G1 X72.945 Y70.588 E0.02157
G1 X72.945 Y70.054 E0.01610
G1 X72.438 Y69.548 E0.02157
G1 X72.438 Y69.014 E0.01610
G1 X72.945 Y69.520 E0.02157
G1 X72.945 Y68.986 E0.01610
G1 X72.438 Y68.479 E0.02157
G1 X72.438 Y67.945 E0.01610
G1 X72.945 Y68.451 E0.02157
G1 X72.945 Y67.917 E0.01610
G1 X72.438 Y67.411 E0.02157
G1 X72.438 Y66.877 E0.01610
G1 X72.945 Y67.383 E0.02157
G1 X72.945 Y66.849 E0.01610
G1 X72.438 Y66.342 E0.02157
G1 X72.438 Y65.808 E0.01610
G1 X72.945 Y66.314 E0.02157
G1 X72.945 Y65.780 E0.01610
G1 X72.438 Y65.274 E0.02157
G1 X72.438 Y64.740 E0.01610
G1 X72.945 Y65.246 E0.02157
G1 X72.945 Y64.712 E0.01610
G1 X72.438 Y64.205 E0.02157
G1 X72.438 Y63.671 E0.01610
G1 X72.945 Y64.177 E0.02157
G1 X72.945 Y63.643 E0.01610
G1 X72.438 Y63.137 E0.02157
G1 X72.438 Y62.603 E0.01610
G1 X72.945 Y63.109 E0.02157
G1 X72.945 Y62.575 E0.01610
G1 X72.438 Y62.068 E0.02157
G1 X72.438 Y61.534 E0.01610
G1 X72.945 Y62.040 E0.02157
G1 X72.945 Y61.506 E0.01610
G1 X66.809 Y55.371 E0.26149
G1 X67.187 Y55.214 E0.01232
G1 X72.945 Y60.972 E0.24539
G1 X72.945 Y60.438 E0.01610
G1 X67.565 Y55.058 E0.22929
G1 X67.943 Y54.901 E0.01232
G1 X72.945 Y59.903 E0.21319
G1 X72.945 Y59.369 E0.01610
G1 X68.320 Y54.745 E0.19708
G1 X68.570 Y54.641 E0.00815
G1 X68.673 Y54.563 E0.00389
G1 X72.945 Y58.835 E0.18207
G1 X72.945 Y58.301 E0.01610
G1 X68.975 Y54.331 E0.16919
G1 X69.277 Y54.099 E0.01148
G1 X72.945 Y57.766 E0.15630
