; generated by Slic3r 1.36.2-prusa3d-stable-win64 on 2017-11-19 at 15:44:58

; 

; external perimeters extrusion width = 0.45mm
; perimeters extrusion width = 0.45mm
; infill extrusion width = 0.45mm
; solid infill extrusion width = 0.45mm
; top infill extrusion width = 0.45mm
; first layer extrusion width = 0.42mm

M107
M115 U3.0.12 ; tell printer latest fw version
M83  ; extruder relative mode
M104 S240 ; set extruder temp
M140 S87 ; set bed temp
M190 S87 ; wait for bed temp
M109 S240 ; wait for extruder temp
G28 W ; home all without mesh bed level
G80 ; mesh bed leveling
G1 Y-3.0 F1000.0 ; go outside pritn area
G1 X60.0 E9.0  F1000.0 ; intro line
G1 X100.0 E12.5  F1000.0 ; intro line
; Filament gcode

G21 ; set units to millimeters
G90 ; use absolute coordinates
M83 ; use relative distances for extrusion
G1 E-1.00000 F2100.00000
G1 Z0.200 F2400.000
G1 X109.878 Y94.010 F2400.000
G1 E1.00000 F2100.00000
M204 S1000
G1 F1200
G1 X112.490 Y91.108 E0.11743
G1 X115.652 Y88.811 E0.11755
G1 X119.206 Y87.226 E0.11707
G1 X123.028 Y86.410 E0.11756
G1 X126.670 Y86.393 E0.10956
G1 X127.208 Y86.447 E0.01625
G1 X130.736 Y87.208 E0.10858
G1 X134.090 Y88.680 E0.11016
G1 X134.589 Y88.967 E0.01732
G1 X137.318 Y90.950 E0.10147
G1 X137.713 Y91.311 E0.01609
G1 X140.135 Y94.027 E0.10947
G1 X142.094 Y97.433 E0.11817
G1 X143.291 Y101.140 E0.11719
G1 X143.681 Y105.265 E0.12463
G1 X143.283 Y108.901 E0.11004
G1 X142.070 Y112.621 E0.11768
G1 X140.122 Y115.990 E0.11707
G1 X137.498 Y118.902 E0.11792
G1 X134.348 Y121.189 E0.11706
G1 X130.778 Y122.779 E0.11756
G1 X126.956 Y123.592 E0.11756
G1 X123.068 Y123.594 E0.11694
G1 X119.224 Y122.780 E0.11817
G1 X115.672 Y121.200 E0.11694
G1 X112.504 Y118.904 E0.11768
G1 X110.044 Y116.197 E0.11005
G1 X108.053 Y112.860 E0.11687
G1 X107.819 Y112.334 E0.01732
G1 X106.706 Y108.848 E0.11008
G1 X106.319 Y104.735 E0.12426
G1 X106.718 Y101.095 E0.11017
G1 X107.930 Y97.379 E0.11756
G1 X109.848 Y94.062 E0.11526
G1 X110.172 Y94.249 F2400.000
G1 F1200
G1 X112.743 Y91.389 E0.11567
G1 X115.840 Y89.138 E0.11518
G1 X119.328 Y87.583 E0.11484
G1 X123.073 Y86.785 E0.11518
G1 X126.670 Y86.770 E0.10821
G1 X130.630 Y87.570 E0.12152
G1 X133.937 Y89.024 E0.10866
G1 X134.365 Y89.271 E0.01487
G1 X137.431 Y91.562 E0.11511
G1 X139.827 Y94.245 E0.10821
G1 X141.745 Y97.576 E0.11564
G1 X142.920 Y101.209 E0.11484
G1 X143.306 Y105.231 E0.12153
G1 X142.914 Y108.822 E0.10866
G1 X141.728 Y112.463 E0.11519
G1 X139.817 Y115.769 E0.11485
G1 X137.246 Y118.621 E0.11552
G1 X134.160 Y120.862 E0.11473
G1 X130.662 Y122.420 E0.11519
G1 X126.916 Y123.217 E0.11518
G1 X123.102 Y123.218 E0.11473
G1 X119.341 Y122.421 E0.11564
G1 X115.853 Y120.869 E0.11484
G1 X112.753 Y118.621 E0.11518
G1 X110.328 Y115.948 E0.10855
G1 X108.379 Y112.672 E0.11466
G1 X108.177 Y112.218 E0.01495
G1 X107.077 Y108.780 E0.10858
G1 X106.694 Y104.769 E0.12119
G1 X107.086 Y101.178 E0.10866
G1 X108.272 Y97.537 E0.11519
G1 X110.142 Y94.301 E0.11242
G1 F1920
G1 X110.751 Y93.619 E-0.95000
G1 E-0.05000 F2100.00000
G1 X112.954 Y96.248 F2400.000
G1 E1.00000 F2100.00000
G1 F960
G1 X115.036 Y93.934 E0.09364
G1 X117.555 Y92.105 E0.09364
G1 X120.399 Y90.838 E0.09364
G1 X123.444 Y90.191 E0.09364
G1 X126.556 Y90.191 E0.09364
G1 X129.601 Y90.838 E0.09364
G1 X132.445 Y92.105 E0.09364
G1 X134.964 Y93.934 E0.09364
G1 X137.046 Y96.248 E0.09364
G1 X138.603 Y98.944 E0.09364
G1 X139.565 Y101.904 E0.09364
G1 X139.890 Y105.000 E0.09364
G1 X139.565 Y108.096 E0.09364
G1 X138.603 Y111.056 E0.09364
G1 X137.046 Y113.752 E0.09364
G1 X134.964 Y116.066 E0.09364
G1 X132.445 Y117.895 E0.09364
G1 X129.601 Y119.162 E0.09364
G1 X126.556 Y119.809 E0.09364
G1 X123.444 Y119.809 E0.09364
G1 X120.399 Y119.162 E0.09364
G1 X117.555 Y117.895 E0.09364
G1 X115.036 Y116.066 E0.09364
G1 X112.954 Y113.752 E0.09364
G1 X111.397 Y111.056 E0.09364
G1 X110.435 Y108.096 E0.09364
G1 X110.110 Y105.000 E0.09364
G1 X110.435 Y101.904 E0.09364
G1 X111.397 Y98.944 E0.09364
G1 X112.924 Y96.300 E0.09183
G1 X113.250 Y96.488 F2400.000
G1 F600
G1 X115.290 Y94.216 E0.09185
G1 X117.744 Y92.433 E0.09125
G1 X120.516 Y91.199 E0.09125
G1 X123.483 Y90.568 E0.09125
G1 X126.517 Y90.568 E0.09125
G1 X129.484 Y91.199 E0.09125
G1 X132.256 Y92.433 E0.09125
G1 X134.710 Y94.216 E0.09125
G1 X136.740 Y96.471 E0.09125
G1 X138.257 Y99.098 E0.09125
G1 X139.194 Y101.983 E0.09125
G1 X139.511 Y105.000 E0.09125
G1 X139.194 Y108.017 E0.09125
G1 X138.257 Y110.902 E0.09125
G1 X136.740 Y113.529 E0.09125
G1 X134.710 Y115.784 E0.09125
G1 X132.256 Y117.567 E0.09125
G1 X129.484 Y118.801 E0.09125
G1 X126.517 Y119.432 E0.09125
G1 X123.483 Y119.432 E0.09125
G1 X120.516 Y118.801 E0.09125
G1 X117.744 Y117.567 E0.09125
G1 X115.290 Y115.784 E0.09125
G1 X113.260 Y113.529 E0.09125
G1 X111.743 Y110.902 E0.09125
G1 X110.806 Y108.017 E0.09125
G1 X110.489 Y105.000 E0.09125
G1 X110.806 Y101.983 E0.09125
G1 X111.743 Y99.098 E0.09125
G1 X113.220 Y96.540 E0.08884
G1 X113.087 Y96.123 F2400.000
G1 X112.498 Y96.123 F2400.000
G1 F960
G1 X112.582 Y95.978 E0.00505
G1 X114.729 Y93.593 E0.09652
G1 X117.325 Y91.707 E0.09652
G1 X120.257 Y90.402 E0.09653
G1 X123.395 Y89.734 E0.09651
G1 X126.624 Y89.739 E0.09714
G1 X129.743 Y90.402 E0.09591
G1 X132.675 Y91.707 E0.09653
G1 X135.271 Y93.593 E0.09652
G1 X137.418 Y95.978 E0.09652
G1 X139.023 Y98.757 E0.09653
G1 X140.014 Y101.809 E0.09653
G1 X140.350 Y105.000 E0.09652
G1 X140.014 Y108.191 E0.09652
G1 X139.023 Y111.243 E0.09653
G1 X137.418 Y114.022 E0.09653
G1 X135.271 Y116.407 E0.09652
G1 X132.675 Y118.293 E0.09652
G1 X129.743 Y119.598 E0.09653
G1 X126.604 Y120.266 E0.09653
G1 X123.396 Y120.266 E0.09652
G1 X120.257 Y119.598 E0.09653
G1 X117.325 Y118.293 E0.09653
G1 X114.729 Y116.407 E0.09652
G1 X112.582 Y114.022 E0.09652
G1 X110.977 Y111.243 E0.09653
G1 X109.986 Y108.191 E0.09653
G1 X109.650 Y105.000 E0.09652
G1 X109.986 Y101.809 E0.09652
G1 X110.977 Y98.757 E0.09653
G1 X112.468 Y96.175 E0.08967
G1 X112.275 Y95.755 F2400.000
G1 F600
G1 X114.475 Y93.311 E0.09891
G1 X117.136 Y91.378 E0.09891
G1 X120.140 Y90.041 E0.09891
G1 X123.356 Y89.357 E0.09891
G1 X126.664 Y89.362 E0.09952
G1 X129.860 Y90.041 E0.09829
G1 X132.864 Y91.378 E0.09891
G1 X135.525 Y93.311 E0.09891
G1 X137.725 Y95.755 E0.09891
G1 X139.369 Y98.603 E0.09891
G1 X140.385 Y101.730 E0.09891
G1 X140.729 Y105.000 E0.09891
G1 X140.385 Y108.270 E0.09891
G1 X139.369 Y111.397 E0.09891
G1 X137.725 Y114.245 E0.09891
G1 X135.525 Y116.689 E0.09891
G1 X132.864 Y118.622 E0.09891
G1 X129.860 Y119.959 E0.09891
G1 X126.644 Y120.643 E0.09891
G1 X123.356 Y120.643 E0.09891
G1 X120.140 Y119.959 E0.09891
G1 X117.136 Y118.622 E0.09891
G1 X114.475 Y116.689 E0.09891
G1 X112.275 Y114.245 E0.09891
G1 X110.631 Y111.397 E0.09891
G1 X109.615 Y108.270 E0.09891
G1 X109.271 Y105.000 E0.09891
G1 X109.615 Y101.730 E0.09891
G1 X110.631 Y98.603 E0.09891
G1 X112.245 Y95.807 E0.09710
G1 X112.673 Y95.797 F2400.000
G1 X112.766 Y96.116 F2400.000
G1 F960
G1 X114.883 Y93.764 E0.00572
G1 X117.440 Y91.906 E0.00572
G1 X120.328 Y90.620 E0.00572
G1 X123.415 Y89.964 E0.00571
G1 X126.600 Y89.967 E0.00576
G1 X129.672 Y90.620 E0.00568
G1 X132.563 Y91.908 E0.00572
G1 X135.117 Y93.764 E0.00571
G1 X137.232 Y96.113 E0.00572
G1 X138.813 Y98.850 E0.00572
G1 X139.789 Y101.856 E0.00572
G1 X140.120 Y105.000 E0.00572
G1 X139.789 Y108.144 E0.00572
G1 X138.813 Y111.150 E0.00572
G1 X137.232 Y113.887 E0.00572
G1 X135.117 Y116.236 E0.00572
G1 X132.560 Y118.094 E0.00572
G1 X129.672 Y119.380 E0.00572
G1 X126.585 Y120.036 E0.00571
G1 X123.415 Y120.036 E0.00573
G1 X120.328 Y119.380 E0.00571
G1 X117.437 Y118.092 E0.00572
G1 X114.883 Y116.236 E0.00571
G1 X112.768 Y113.887 E0.00572
G1 X111.187 Y111.150 E0.00572
G1 X110.211 Y108.144 E0.00572
G1 X109.880 Y105.000 E0.00572
G1 X110.211 Y101.856 E0.00572
G1 X111.187 Y98.850 E0.00572
G1 X112.736 Y96.168 E0.00560
G1 F1920
G1 X113.345 Y95.486 E-0.95000
G1 E-0.05000 F2100.00000
G1 Z0.450 F2400.000
M104 S245 ; set temperature
M140 S90 ; set bed temperature
G1 X109.878 Y94.010 F2400.000
G1 E1.00000 F2100.00000
G1 F3000
G1 X112.490 Y91.108 E0.14088
G1 X115.652 Y88.811 E0.14103
G1 X119.206 Y87.226 E0.14044
G1 X123.028 Y86.410 E0.14103
G1 X126.670 Y86.393 E0.13143
G1 X127.208 Y86.447 E0.01950
G1 X130.736 Y87.208 E0.13026
G1 X134.090 Y88.680 E0.13216
G1 X134.589 Y88.967 E0.02078
G1 X137.318 Y90.950 E0.12173
G1 X137.713 Y91.311 E0.01930
G1 X140.135 Y94.027 E0.13133
G1 X142.094 Y97.433 E0.14177
G1 X143.291 Y101.140 E0.14059
G1 X143.681 Y105.265 E0.14951
G1 X143.283 Y108.901 E0.13202
G1 X142.070 Y112.621 E0.14118
G1 X140.122 Y115.990 E0.14044
G1 X137.498 Y118.902 E0.14147
G1 X134.348 Y121.189 E0.14044
G1 X130.778 Y122.779 E0.14103
G1 X126.956 Y123.592 E0.14103
G1 X123.068 Y123.594 E0.14030
G1 X119.224 Y122.780 E0.14177
G1 X115.672 Y121.200 E0.14029
G1 X112.504 Y118.904 E0.14118
G1 X110.044 Y116.197 E0.13202
G1 X108.053 Y112.860 E0.14021
G1 X107.819 Y112.334 E0.02078
G1 X106.706 Y108.848 E0.13206
G1 X106.319 Y104.735 E0.14907
G1 X106.718 Y101.095 E0.13216
G1 X107.930 Y97.379 E0.14103
G1 X109.848 Y94.062 E0.13828
G1 F1920
G1 X110.457 Y93.380 E-0.95000
G1 E-0.05000 F2100.00000
G1 X112.926 Y96.227 F2400.000
G1 E1.00000 F2100.00000
M204 S800
G1 F2400
G1 X115.013 Y93.909 E0.12232
G1 X117.538 Y92.075 E0.12232
G1 X120.388 Y90.806 E0.12232
G1 X123.440 Y90.157 E0.12232
G1 X126.560 Y90.157 E0.12232
G1 X129.612 Y90.806 E0.12232
G1 X132.462 Y92.075 E0.12232
G1 X134.987 Y93.909 E0.12232
G1 X137.074 Y96.227 E0.12232
G1 X138.634 Y98.930 E0.12232
G1 X139.599 Y101.897 E0.12232
G1 X139.925 Y105.000 E0.12232
G1 X139.599 Y108.103 E0.12232
G1 X138.634 Y111.070 E0.12232
G1 X137.074 Y113.773 E0.12232
G1 X134.987 Y116.091 E0.12232
G1 X132.462 Y117.925 E0.12232
G1 X129.612 Y119.194 E0.12232
G1 X126.560 Y119.843 E0.12232
G1 X123.440 Y119.843 E0.12232
G1 X120.388 Y119.194 E0.12232
G1 X117.538 Y117.925 E0.12232
G1 X115.013 Y116.091 E0.12232
G1 X112.926 Y113.773 E0.12232
G1 X111.366 Y111.070 E0.12232
G1 X110.401 Y108.103 E0.12232
G1 X110.075 Y105.000 E0.12232
G1 X110.401 Y101.897 E0.12232
G1 X111.366 Y98.930 E0.12232
G1 X112.896 Y96.279 E0.11997
M204 S1000
G1 X113.239 Y96.478 F2400.000
M204 S800
G1 F1500
G1 X115.280 Y94.205 E0.11976
G1 X117.737 Y92.420 E0.11906
G1 X120.511 Y91.185 E0.11906
G1 X123.482 Y90.553 E0.11906
G1 X126.518 Y90.553 E0.11906
G1 X129.489 Y91.185 E0.11906
G1 X132.263 Y92.420 E0.11906
G1 X134.720 Y94.205 E0.11906
G1 X136.752 Y96.462 E0.11906
G1 X138.270 Y99.092 E0.11906
G1 X139.209 Y101.980 E0.11906
G1 X139.526 Y105.000 E0.11906
G1 X139.209 Y108.020 E0.11906
G1 X138.270 Y110.908 E0.11906
G1 X136.752 Y113.538 E0.11906
G1 X134.720 Y115.795 E0.11906
G1 X132.263 Y117.580 E0.11906
G1 X129.489 Y118.815 E0.11906
G1 X126.518 Y119.447 E0.11906
G1 X123.482 Y119.447 E0.11906
G1 X120.511 Y118.815 E0.11906
G1 X117.737 Y117.580 E0.11906
G1 X115.280 Y115.795 E0.11906
G1 X113.248 Y113.538 E0.11906
G1 X111.730 Y110.908 E0.11906
G1 X110.791 Y108.020 E0.11906
G1 X110.474 Y105.000 E0.11906
G1 X110.791 Y101.980 E0.11906
G1 X111.730 Y99.092 E0.11906
G1 X113.209 Y96.530 E0.11599
M204 S1000
G1 X113.076 Y96.112 F2400.000
G1 X112.529 Y96.137 F2400.000
M204 S800
G1 F2400
G1 X112.610 Y95.998 E0.00630
G1 X114.752 Y93.619 E0.12552
G1 X117.342 Y91.737 E0.12552
G1 X120.267 Y90.434 E0.12552
G1 X123.399 Y89.769 E0.12552
G1 X126.601 Y89.769 E0.12552
G1 X129.733 Y90.434 E0.12552
G1 X132.658 Y91.737 E0.12552
G1 X135.248 Y93.619 E0.12552
G1 X137.390 Y95.998 E0.12552
G1 X138.991 Y98.771 E0.12552
G1 X139.981 Y101.816 E0.12552
G1 X140.315 Y105.000 E0.12552
G1 X139.981 Y108.184 E0.12552
G1 X138.991 Y111.229 E0.12552
G1 X137.390 Y114.002 E0.12552
G1 X135.248 Y116.381 E0.12552
G1 X132.658 Y118.263 E0.12552
G1 X129.733 Y119.566 E0.12552
G1 X126.601 Y120.231 E0.12552
G1 X123.399 Y120.231 E0.12552
G1 X120.267 Y119.566 E0.12552
G1 X117.342 Y118.263 E0.12552
G1 X114.752 Y116.381 E0.12552
G1 X112.610 Y114.002 E0.12552
G1 X111.009 Y111.229 E0.12552
G1 X110.019 Y108.184 E0.12552
G1 X109.685 Y105.000 E0.12552
G1 X110.019 Y101.816 E0.12552
G1 X111.009 Y98.771 E0.12552
G1 X112.499 Y96.189 E0.11687
M204 S1000
G1 X112.287 Y95.764 F2400.000
M204 S800
G1 F1500
G1 X114.485 Y93.322 E0.12879
G1 X117.143 Y91.392 E0.12879
G1 X120.144 Y90.055 E0.12879
G1 X123.357 Y89.372 E0.12879
G1 X126.643 Y89.372 E0.12879
G1 X129.856 Y90.055 E0.12879
G1 X132.857 Y91.392 E0.12879
G1 X135.515 Y93.322 E0.12879
G1 X137.713 Y95.764 E0.12879
G1 X139.355 Y98.609 E0.12879
G1 X140.370 Y101.733 E0.12879
G1 X140.714 Y105.000 E0.12879
G1 X140.370 Y108.267 E0.12879
G1 X139.355 Y111.391 E0.12879
G1 X137.713 Y114.236 E0.12879
G1 X135.515 Y116.678 E0.12879
G1 X132.857 Y118.608 E0.12879
G1 X129.856 Y119.945 E0.12879
G1 X126.643 Y120.628 E0.12879
G1 X123.357 Y120.628 E0.12879
G1 X120.144 Y119.945 E0.12879
G1 X117.143 Y118.608 E0.12879
G1 X114.485 Y116.678 E0.12879
G1 X112.287 Y114.236 E0.12879
G1 X110.645 Y111.391 E0.12879
G1 X109.630 Y108.267 E0.12879
G1 X109.286 Y105.000 E0.12879
G1 X109.630 Y101.733 E0.12879
G1 X110.645 Y98.609 E0.12879
G1 X112.257 Y95.816 E0.12644
M204 S1000
G1 X112.685 Y95.805 F2400.000
G1 F1920
G1 X112.867 Y95.134 E-0.95000
G1 E-0.05000 F2100.00000
G1 Z0.700 F2400.000
G1 X109.878 Y94.010 F2400.000
G1 E1.00000 F2100.00000
G1 F3000
G1 X112.490 Y91.108 E0.14088
G1 X115.652 Y88.811 E0.14103
G1 X119.206 Y87.226 E0.14044
G1 X123.028 Y86.410 E0.14103
G1 X126.670 Y86.393 E0.13143
G1 X127.208 Y86.447 E0.01950
G1 X130.736 Y87.208 E0.13026
G1 X134.090 Y88.680 E0.13216
G1 X134.589 Y88.967 E0.02078
G1 X137.318 Y90.950 E0.12173
G1 X137.713 Y91.311 E0.01930
G1 X140.135 Y94.027 E0.13133
G1 X142.094 Y97.433 E0.14177
G1 X143.291 Y101.140 E0.14059
G1 X143.681 Y105.265 E0.14951
G1 X143.283 Y108.901 E0.13202
G1 X142.070 Y112.621 E0.14118
G1 X140.122 Y115.990 E0.14044
G1 X137.498 Y118.902 E0.14147
G1 X134.348 Y121.189 E0.14044
G1 X130.778 Y122.779 E0.14103
G1 X126.956 Y123.592 E0.14103
G1 X123.068 Y123.594 E0.14030
G1 X119.224 Y122.780 E0.14177
G1 X115.672 Y121.200 E0.14029
G1 X112.504 Y118.904 E0.14118
G1 X110.044 Y116.197 E0.13202
G1 X108.053 Y112.860 E0.14021
G1 X107.819 Y112.334 E0.02078
G1 X106.706 Y108.848 E0.13206
G1 X106.319 Y104.735 E0.14907
G1 X106.718 Y101.095 E0.13216
G1 X107.930 Y97.379 E0.14103
G1 X109.848 Y94.062 E0.13828
G1 F1920
G1 X110.457 Y93.380 E-0.95000
G1 E-0.05000 F2100.00000
G1 X112.926 Y96.227 F2400.000
G1 E1.00000 F2100.00000
M204 S800
G1 F2400
G1 X115.013 Y93.909 E0.12232
G1 X117.538 Y92.075 E0.12232
G1 X120.388 Y90.806 E0.12232
G1 X123.440 Y90.157 E0.12232
G1 X126.560 Y90.157 E0.12232
G1 X129.612 Y90.806 E0.12232
G1 X132.462 Y92.075 E0.12232
G1 X134.987 Y93.909 E0.12232
G1 X137.074 Y96.227 E0.12232
G1 X138.634 Y98.930 E0.12232
G1 X139.599 Y101.897 E0.12232
G1 X139.925 Y105.000 E0.12232
G1 X139.599 Y108.103 E0.12232
G1 X138.634 Y111.070 E0.12232
G1 X137.074 Y113.773 E0.12232
G1 X134.987 Y116.091 E0.12232
G1 X132.462 Y117.925 E0.12232
G1 X129.612 Y119.194 E0.12232
G1 X126.560 Y119.843 E0.12232
G1 X123.440 Y119.843 E0.12232
G1 X120.388 Y119.194 E0.12232
G1 X117.538 Y117.925 E0.12232
G1 X115.013 Y116.091 E0.12232
G1 X112.926 Y113.773 E0.12232
G1 X111.366 Y111.070 E0.12232
G1 X110.401 Y108.103 E0.12232
G1 X110.075 Y105.000 E0.12232
G1 X110.401 Y101.897 E0.12232
G1 X111.366 Y98.930 E0.12232
G1 X112.896 Y96.279 E0.11997
M204 S1000
G1 X113.239 Y96.478 F2400.000
M204 S800
G1 F1500
G1 X115.280 Y94.205 E0.11976
G1 X117.737 Y92.420 E0.11906
G1 X120.511 Y91.185 E0.11906
G1 X123.482 Y90.553 E0.11906
G1 X126.518 Y90.553 E0.11906
G1 X129.489 Y91.185 E0.11906
G1 X132.263 Y92.420 E0.11906
G1 X134.720 Y94.205 E0.11906
G1 X136.752 Y96.462 E0.11906
G1 X138.270 Y99.092 E0.11906
G1 X139.209 Y101.980 E0.11906
G1 X139.526 Y105.000 E0.11906
G1 X139.209 Y108.020 E0.11906
G1 X138.270 Y110.908 E0.11906
G1 X136.752 Y113.538 E0.11906
G1 X134.720 Y115.795 E0.11906
G1 X132.263 Y117.580 E0.11906
G1 X129.489 Y118.815 E0.11906
G1 X126.518 Y119.447 E0.11906
G1 X123.482 Y119.447 E0.11906
G1 X120.511 Y118.815 E0.11906
G1 X117.737 Y117.580 E0.11906
G1 X115.280 Y115.795 E0.11906
G1 X113.248 Y113.538 E0.11906
G1 X111.730 Y110.908 E0.11906
G1 X110.791 Y108.020 E0.11906
G1 X110.474 Y105.000 E0.11906
G1 X110.791 Y101.980 E0.11906
