; generated by Slic3r 1.36.2-prusa3d-stable-win64 on 2017-11-05 at 21:49:22

; 

; external perimeters extrusion width = 0.45mm
; perimeters extrusion width = 0.45mm
; infill extrusion width = 0.45mm
; solid infill extrusion width = 0.45mm
; top infill extrusion width = 0.45mm
; first layer extrusion width = 0.42mm

M107
M115 U3.0.12 ; tell printer latest fw version
M83  ; extruder relative mode
M104 S215 ; set extruder temp
M140 S55 ; set bed temp
M190 S55 ; wait for bed temp
M109 S215 ; wait for extruder temp
G28 W ; home all without mesh bed level
G80 ; mesh bed leveling
G1 Y-3.0 F1000.0 ; go outside pritn area
G1 X60.0 E9.0  F1000.0 ; intro line
G1 X100.0 E12.5  F1000.0 ; intro line
; Filament gcode

G21 ; set units to millimeters
G90 ; use absolute coordinates
M83 ; use relative distances for extrusion
G1 E-0.80000 F2100.00000
G1 Z0.200 F7200.000
G1 X88.896 Y86.746 F7200.000
G1 E0.80000 F2100.00000
M204 S1000
G1 F2100
G1 X89.417 Y86.384 E0.01908
G1 X89.937 Y86.191 E0.01669
G1 X90.491 Y86.123 E0.01680
G1 X159.504 Y86.123 E2.07589
G1 X160.395 Y86.298 E0.02733
G1 X161.159 Y86.797 E0.02744
G1 X161.676 Y87.544 E0.02733
G1 X161.876 Y88.430 E0.02733
G1 X161.875 Y121.588 E0.99736
G1 X161.770 Y122.205 E0.01885
G1 X161.505 Y122.777 E0.01896
G1 X161.101 Y123.257 E0.01885
G1 X160.583 Y123.616 E0.01896
G1 X160.063 Y123.809 E0.01669
G1 X159.509 Y123.877 E0.01680
G1 X90.466 Y123.877 E2.07680
G1 X89.831 Y123.781 E0.01930
G1 X89.245 Y123.519 E0.01930
G1 X88.751 Y123.110 E0.01930
G1 X88.384 Y122.583 E0.01930
G1 X88.192 Y122.067 E0.01658
G1 X88.123 Y121.520 E0.01658
G1 X88.124 Y88.431 E0.99530
G1 X88.225 Y87.809 E0.01896
G1 X88.489 Y87.232 E0.01908
G1 X88.857 Y86.792 E0.01727
G1 F5760
G1 X89.417 Y86.384 E-0.23977
G1 F5760
G1 X89.937 Y86.191 E-0.19217
G1 F5760
G1 X90.491 Y86.123 E-0.19348
G1 F5760
G1 X90.880 Y86.123 E-0.13458
G1 E-0.04000 F2100.00000
G1 X148.012 Y105.000 F7200.000
G1 E0.80000 F2100.00000
G1 F840
G1 X149.443 Y102.520 E0.08613
G1 X152.307 Y102.520 E0.08613
G1 X153.738 Y105.000 E0.08613
G1 X152.307 Y107.480 E0.08613
G1 X149.443 Y107.480 E0.08613
G1 X148.042 Y105.052 E0.08432
G1 X148.447 Y105.000 F7200.000
G1 F840
G1 X149.661 Y102.897 E0.07303
G1 X152.089 Y102.897 E0.07303
G1 X153.303 Y105.000 E0.07303
G1 X152.089 Y107.103 E0.07303
G1 X149.661 Y107.103 E0.07303
G1 X148.477 Y105.052 E0.07122
G1 X148.883 Y105.000 F7200.000
G1 F840
G1 X149.879 Y103.275 E0.05993
G1 X151.871 Y103.275 E0.05993
G1 X152.867 Y105.000 E0.05993
G1 X151.871 Y106.725 E0.05993
G1 X149.879 Y106.725 E0.05993
G1 X148.913 Y105.052 E0.05813
G1 X148.536 Y104.800 F7200.000
G1 F5760
G1 X149.879 Y103.275 E-0.70071
G1 F5760
G1 X150.050 Y103.275 E-0.05929
G1 E-0.04000 F2100.00000
G1 X101.988 Y105.000 F7200.000
G1 E0.80000 F2100.00000
G1 F840
G1 X100.557 Y107.480 E0.08613
G1 X97.693 Y107.480 E0.08613
G1 X96.262 Y105.000 E0.08613
G1 X97.693 Y102.520 E0.08613
G1 X100.557 Y102.520 E0.08613
G1 X101.958 Y104.948 E0.08432
G1 X101.553 Y105.000 F7200.000
G1 F840
G1 X100.339 Y107.103 E0.07303
G1 X97.911 Y107.103 E0.07303
G1 X96.697 Y105.000 E0.07303
G1 X97.911 Y102.897 E0.07303
G1 X100.339 Y102.897 E0.07303
G1 X101.523 Y104.948 E0.07123
G1 X101.117 Y105.000 F7200.000
G1 F840
G1 X100.121 Y106.725 E0.05993
G1 X98.129 Y106.725 E0.05993
G1 X97.133 Y105.000 E0.05993
G1 X98.129 Y103.275 E0.05993
G1 X100.121 Y103.275 E0.05993
G1 X101.087 Y104.948 E0.05813
G1 X101.464 Y105.200 F7200.000
G1 F5760
G1 X100.121 Y106.725 E-0.70071
G1 F5760
G1 X99.950 Y106.725 E-0.05929
G1 E-0.04000 F2100.00000
G1 X91.464 Y89.464 F7200.000
G1 E0.80000 F2100.00000
G1 F1680
G1 X158.536 Y89.464 E2.01751
G1 X158.536 Y120.536 E0.93463
G1 X91.464 Y120.536 E2.01751
G1 X91.464 Y89.524 E0.93283
G1 X91.087 Y89.087 F7200.000
G1 F1680
G1 X158.913 Y89.087 E2.04019
G1 X158.913 Y120.913 E0.95732
G1 X91.087 Y120.913 E2.04019
G1 X91.087 Y89.147 E0.95551
G1 X90.710 Y88.710 F7200.000
G1 F1050
G1 X159.290 Y88.710 E2.06288
G1 X159.290 Y121.290 E0.98000
G1 X90.710 Y121.290 E2.06288
G1 X90.710 Y88.770 E0.97820
G1 X91.106 Y88.769 F7200.000
G1 F5760
G1 X92.904 Y88.768 E-0.76000
G1 E-0.04000 F2100.00000
G1 X102.285 Y104.948 F7200.000
G1 E0.80000 F2100.00000
G1 F1680
G1 X100.720 Y102.238 E0.09435
G1 X97.530 Y102.238 E0.09616
G1 X95.935 Y105.000 E0.09616
G1 X97.530 Y107.762 E0.09616
G1 X100.720 Y107.762 E0.09616
G1 X102.315 Y105.000 E0.09616
G1 X102.721 Y104.948 F7200.000
G1 F1680
G1 X100.938 Y101.860 E0.10751
G1 X97.312 Y101.860 E0.10931
G1 X95.499 Y105.000 E0.10931
G1 X97.312 Y108.140 E0.10931
G1 X100.938 Y108.140 E0.10931
G1 X102.751 Y105.000 E0.10931
G1 X103.158 Y104.948 F7200.000
G1 F1680
G1 X101.156 Y101.482 E0.12066
G1 X97.094 Y101.482 E0.12247
G1 X95.062 Y105.000 E0.12247
G1 X97.094 Y108.518 E0.12247
G1 X101.156 Y108.518 E0.12247
G1 X103.188 Y105.000 E0.12247
G1 X103.594 Y104.948 F7200.000
G1 F1680
G1 X101.374 Y101.104 E0.13381
G1 X96.876 Y101.104 E0.13562
G1 X94.626 Y105.000 E0.13562
G1 X96.876 Y108.896 E0.13562
G1 X101.374 Y108.896 E0.13562
G1 X103.624 Y105.000 E0.13562
G1 X104.030 Y104.948 F7200.000
G1 F1680
G1 X101.593 Y100.726 E0.14697
G1 X96.657 Y100.726 E0.14877
G1 X94.190 Y105.000 E0.14878
G1 X96.657 Y109.274 E0.14878
G1 X101.593 Y109.274 E0.14877
G1 X104.060 Y105.000 E0.14878
G1 X104.467 Y105.052 F7200.000
G1 F1680
G1 X101.811 Y109.652 E0.16012
G1 X96.439 Y109.652 E0.16193
G1 X93.916 Y105.281 E0.15214
G1 X93.636 Y105.356 E0.00872
G1 X93.636 Y118.364 E0.39213
G1 X156.364 Y118.364 E1.89098
G1 X156.364 Y105.356 E0.39213
G1 X156.084 Y105.281 E0.00872
G1 X153.561 Y109.652 E0.15214
G1 X148.189 Y109.652 E0.16193
G1 X145.503 Y105.000 E0.16193
G1 X148.189 Y100.348 E0.16193
G1 X153.561 Y100.348 E0.16193
G1 X156.084 Y104.719 E0.15214
G1 X156.364 Y104.644 E0.00872
G1 X156.364 Y91.636 E0.39213
G1 X93.636 Y91.636 E1.89098
G1 X93.636 Y104.644 E0.39213
G1 X93.916 Y104.719 E0.00872
G1 X96.439 Y100.348 E0.15214
G1 X101.811 Y100.348 E0.16193
G1 X104.497 Y105.000 E0.16193
G1 X104.903 Y105.052 F7200.000
G1 F1680
G1 X102.029 Y110.030 E0.17327
G1 X96.221 Y110.030 E0.17508
G1 X94.294 Y106.691 E0.11621
G1 X94.014 Y106.766 E0.00872
G1 X94.014 Y117.986 E0.33822
G1 X155.986 Y117.986 E1.86820
G1 X155.986 Y106.766 E0.33822
G1 X155.706 Y106.691 E0.00872
G1 X153.779 Y110.030 E0.11621
G1 X147.971 Y110.030 E0.17508
G1 X145.067 Y105.000 E0.17508
G1 X147.971 Y99.970 E0.17508
G1 X153.779 Y99.970 E0.17508
G1 X155.706 Y103.309 E0.11621
G1 X155.986 Y103.234 E0.00872
G1 X155.986 Y92.014 E0.33822
G1 X94.014 Y92.014 E1.86820
G1 X94.014 Y103.234 E0.33822
G1 X94.294 Y103.309 E0.00872
G1 X96.221 Y99.970 E0.11621
G1 X102.029 Y99.970 E0.17508
G1 X104.933 Y105.000 E0.17508
G1 X105.339 Y105.052 F7200.000
G1 F1680
G1 X102.247 Y110.408 E0.18643
G1 X96.003 Y110.408 E0.18823
G1 X94.672 Y108.102 E0.08027
G1 X94.392 Y108.176 E0.00872
G1 X94.392 Y117.608 E0.28432
G1 X155.608 Y117.608 E1.84541
G1 X155.608 Y108.176 E0.28432
G1 X155.328 Y108.102 E0.00872
G1 X153.997 Y110.408 E0.08027
G1 X147.753 Y110.408 E0.18823
G1 X144.631 Y105.000 E0.18824
G1 X147.753 Y99.592 E0.18824
G1 X153.997 Y99.592 E0.18823
G1 X155.328 Y101.898 E0.08027
G1 X155.608 Y101.824 E0.00872
G1 X155.608 Y92.392 E0.28432
G1 X94.392 Y92.392 E1.84541
G1 X94.392 Y101.824 E0.28432
G1 X94.672 Y101.898 E0.00872
G1 X96.003 Y99.592 E0.08027
G1 X102.247 Y99.592 E0.18823
G1 X105.369 Y105.000 E0.18824
G1 X105.776 Y105.052 F7200.000
G1 F1680
G1 X102.465 Y110.785 E0.19958
G1 X95.785 Y110.785 E0.20139
G1 X95.049 Y109.512 E0.04433
G1 X94.770 Y109.587 E0.00872
G1 X94.770 Y117.230 E0.23042
G1 X155.230 Y117.230 E1.82263
G1 X155.230 Y109.587 E0.23042
G1 X154.951 Y109.512 E0.00872
G1 X154.215 Y110.785 E0.04434
G1 X147.535 Y110.785 E0.20139
G1 X144.194 Y105.000 E0.20139
G1 X147.535 Y99.215 E0.20139
G1 X154.215 Y99.215 E0.20139
G1 X154.951 Y100.488 E0.04434
G1 X155.230 Y100.413 E0.00872
G1 X155.230 Y92.770 E0.23042
G1 X94.770 Y92.770 E1.82263
G1 X94.770 Y100.413 E0.23042
G1 X95.049 Y100.488 E0.00872
G1 X95.785 Y99.215 E0.04434
G1 X102.465 Y99.215 E0.20139
G1 X105.806 Y105.000 E0.20139
G1 X106.212 Y105.052 F7200.000
G1 F1680
G1 X102.683 Y111.163 E0.21274
G1 X95.567 Y111.163 E0.21454
G1 X95.427 Y110.922 E0.00840
G1 X95.148 Y110.997 E0.00872
G1 X95.148 Y116.852 E0.17651
G1 X154.852 Y116.852 E1.79985
G1 X154.852 Y110.997 E0.17651
G1 X154.573 Y110.922 E0.00872
G1 X154.433 Y111.163 E0.00840
G1 X147.317 Y111.163 E0.21454
G1 X143.758 Y105.000 E0.21454
G1 X147.317 Y98.837 E0.21454
G1 X154.433 Y98.837 E0.21454
G1 X154.573 Y99.078 E0.00840
G1 X154.852 Y99.003 E0.00872
G1 X154.852 Y93.148 E0.17651
G1 X95.148 Y93.148 E1.79985
G1 X95.148 Y99.003 E0.17651
G1 X95.427 Y99.078 E0.00872
G1 X95.567 Y98.837 E0.00840
G1 X102.683 Y98.837 E0.21454
G1 X106.242 Y105.000 E0.21454
G1 X106.648 Y105.052 F7200.000
G1 F1680
G1 X102.902 Y111.541 E0.22589
G1 X95.526 Y111.541 E0.22235
G1 X95.526 Y116.474 E0.14871
G1 X154.474 Y116.474 E1.77706
G1 X154.474 Y111.541 E0.14871
G1 X147.098 Y111.541 E0.22235
G1 X143.322 Y105.000 E0.22770
G1 X147.098 Y98.459 E0.22770
G1 X154.474 Y98.459 E0.22235
G1 X154.474 Y93.526 E0.14871
G1 X95.526 Y93.526 E1.77706
G1 X95.526 Y98.459 E0.14871
G1 X102.902 Y98.459 E0.22235
G1 X106.678 Y105.000 E0.22770
G1 X107.085 Y105.052 F7200.000
G1 F1680
G1 X103.120 Y111.919 E0.23904
G1 X95.904 Y111.919 E0.21754
G1 X95.904 Y116.096 E0.12593
G1 X154.096 Y116.096 E1.75428
G1 X154.096 Y111.919 E0.12593
G1 X146.880 Y111.919 E0.21754
G1 X142.885 Y105.000 E0.24085
G1 X146.880 Y98.081 E0.24085
G1 X154.096 Y98.081 E0.21754
G1 X154.096 Y93.904 E0.12593
G1 X95.904 Y93.904 E1.75428
G1 X95.904 Y98.081 E0.12593
G1 X103.120 Y98.081 E0.21754
G1 X107.115 Y105.000 E0.24085
G1 X107.521 Y105.052 F7200.000
G1 F1680
G1 X103.338 Y112.297 E0.25220
G1 X96.281 Y112.297 E0.21272
G1 X96.281 Y115.719 E0.10315
G1 X153.719 Y115.719 E1.73150
G1 X153.719 Y112.297 E0.10315
G1 X146.662 Y112.297 E0.21272
G1 X142.449 Y105.000 E0.25401
G1 X146.662 Y97.703 E0.25401
G1 X153.719 Y97.703 E0.21272
G1 X153.719 Y94.281 E0.10315
G1 X96.281 Y94.281 E1.73150
G1 X96.281 Y97.703 E0.10315
G1 X103.338 Y97.703 E0.21272
G1 X107.551 Y105.000 E0.25401
G1 X107.957 Y105.052 F7200.000
G1 F1680
G1 X103.556 Y112.675 E0.26535
G1 X96.659 Y112.675 E0.20791
G1 X96.659 Y115.341 E0.08036
G1 X153.341 Y115.341 E1.70872
G1 X153.341 Y112.675 E0.08036
G1 X146.444 Y112.675 E0.20791
G1 X142.013 Y105.000 E0.26716
G1 X146.444 Y97.325 E0.26716
G1 X153.341 Y97.325 E0.20791
G1 X153.341 Y94.659 E0.08036
G1 X96.659 Y94.659 E1.70872
G1 X96.659 Y97.325 E0.08036
G1 X103.556 Y97.325 E0.20791
G1 X107.987 Y105.000 E0.26716
G1 X108.394 Y105.052 F7200.000
G1 F1680
G1 X103.774 Y113.053 E0.27850
G1 X97.037 Y113.053 E0.20309
G1 X97.037 Y114.963 E0.05758
G1 X152.963 Y114.963 E1.68593
G1 X152.963 Y113.053 E0.05758
G1 X146.226 Y113.053 E0.20309
G1 X141.576 Y105.000 E0.28031
G1 X146.226 Y96.947 E0.28031
G1 X152.963 Y96.947 E0.20309
G1 X152.963 Y95.037 E0.05758
G1 X97.037 Y95.037 E1.68593
G1 X97.037 Y96.947 E0.05758
G1 X103.774 Y96.947 E0.20309
G1 X108.424 Y105.000 E0.28031
G1 X108.830 Y105.052 F7200.000
G1 F1680
G1 X103.992 Y113.431 E0.29166
G1 X97.415 Y113.431 E0.19828
G1 X97.415 Y114.585 E0.03480
G1 X152.585 Y114.585 E1.66315
G1 X152.585 Y113.431 E0.03480
G1 X146.008 Y113.431 E0.19828
G1 X141.140 Y105.000 E0.29347
G1 X146.008 Y96.569 E0.29347
G1 X152.585 Y96.569 E0.19828
G1 X152.585 Y95.415 E0.03480
G1 X97.415 Y95.415 E1.66315
G1 X97.415 Y96.569 E0.03480
G1 X103.992 Y96.569 E0.19828
G1 X108.860 Y105.000 E0.29347
G1 X109.266 Y105.052 F7200.000
G1 F1680
G1 X104.211 Y113.808 E0.30481
G1 X97.793 Y113.808 E0.19346
G1 X97.793 Y114.207 E0.01202
G1 X152.207 Y114.207 E1.64037
G1 X152.207 Y113.808 E0.01202
G1 X145.789 Y113.808 E0.19346
G1 X140.704 Y105.000 E0.30662
G1 X145.789 Y96.192 E0.30662
G1 X152.207 Y96.192 E0.19346
G1 X152.207 Y95.793 E0.01202
G1 X97.793 Y95.793 E1.64037
G1 X97.793 Y96.192 E0.01202
G1 X104.211 Y96.192 E0.19346
G1 X109.296 Y105.000 E0.30662
G1 X109.703 Y105.052 F7200.000
G1 F1680
G1 X104.635 Y113.829 E0.30553
G1 X145.365 Y113.829 E1.22785
G1 X140.267 Y105.000 E0.30734
G1 X145.365 Y96.171 E0.30734
G1 X104.635 Y96.171 E1.22785
G1 X109.733 Y105.000 E0.30734
G1 X110.139 Y105.052 F7200.000
G1 F1680
G1 X105.289 Y113.451 E0.29238
G1 X144.711 Y113.451 E1.18839
G1 X139.831 Y105.000 E0.29419
G1 X144.711 Y96.549 E0.29419
G1 X105.289 Y96.549 E1.18839
G1 X110.169 Y105.000 E0.29419
G1 X110.575 Y105.052 F7200.000
G1 F1680
G1 X105.944 Y113.073 E0.27923
G1 X144.056 Y113.073 E1.14893
G1 X139.395 Y105.000 E0.28103
G1 X144.056 Y96.927 E0.28103
G1 X105.944 Y96.927 E1.14893
G1 X110.605 Y105.000 E0.28103
G1 X111.012 Y105.052 F7200.000
G1 F1680
G1 X106.598 Y112.696 E0.26607
G1 X143.402 Y112.696 E1.10947
G1 X138.958 Y105.000 E0.26788
G1 X143.402 Y97.304 E0.26788
G1 X106.598 Y97.304 E1.10947
G1 X111.042 Y105.000 E0.26788
G1 X111.448 Y105.052 F7200.000
G1 F1680
G1 X107.253 Y112.318 E0.25292
G1 X142.747 Y112.318 E1.07001
G1 X138.522 Y105.000 E0.25473
G1 X142.747 Y97.682 E0.25473
G1 X107.253 Y97.682 E1.07001
G1 X111.478 Y105.000 E0.25473
G1 X111.884 Y105.052 F7200.000
G1 F1680
G1 X107.907 Y111.940 E0.23976
G1 X142.093 Y111.940 E1.03054
G1 X138.086 Y105.000 E0.24157
G1 X142.093 Y98.060 E0.24157
G1 X107.907 Y98.060 E1.03055
G1 X111.914 Y105.000 E0.24157
G1 X112.321 Y105.052 F7200.000
G1 F1680
G1 X108.562 Y111.562 E0.22661
G1 X141.438 Y111.562 E0.99108
G1 X137.649 Y105.000 E0.22842
G1 X141.438 Y98.438 E0.22842
G1 X108.562 Y98.438 E0.99108
G1 X112.351 Y105.000 E0.22842
G1 X112.757 Y105.052 F7200.000
G1 F1680
G1 X109.216 Y111.184 E0.21346
G1 X140.784 Y111.184 E0.95162
G1 X137.213 Y105.000 E0.21527
G1 X140.784 Y98.816 E0.21527
G1 X109.216 Y98.816 E0.95162
G1 X112.787 Y105.000 E0.21527
G1 X113.193 Y105.052 F7200.000
G1 F1680
G1 X109.871 Y110.806 E0.20030
G1 X140.129 Y110.806 E0.91216
G1 X136.777 Y105.000 E0.20211
G1 X140.129 Y99.194 E0.20211
G1 X109.871 Y99.194 E0.91216
G1 X113.223 Y105.000 E0.20211
G1 X113.630 Y105.052 F7200.000
G1 F1680
G1 X110.525 Y110.428 E0.18715
G1 X139.475 Y110.428 E0.87270
G1 X136.340 Y105.000 E0.18896
G1 X139.475 Y99.572 E0.18896
G1 X110.525 Y99.572 E0.87270
G1 X113.660 Y105.000 E0.18896
G1 X114.066 Y105.052 F7200.000
G1 F1680
G1 X111.180 Y110.050 E0.17400
G1 X138.820 Y110.050 E0.83324
G1 X135.904 Y105.000 E0.17580
G1 X138.820 Y99.950 E0.17580
G1 X111.180 Y99.950 E0.83324
G1 X114.096 Y105.000 E0.17580
G1 X114.502 Y105.052 F7200.000
G1 F1680
G1 X111.834 Y109.673 E0.16084
G1 X138.166 Y109.673 E0.79378
G1 X135.468 Y105.000 E0.16265
G1 X138.166 Y100.327 E0.16265
G1 X111.834 Y100.327 E0.79378
G1 X114.532 Y105.000 E0.16265
G1 X114.939 Y105.052 F7200.000
G1 F1680
G1 X112.489 Y109.295 E0.14769
G1 X137.511 Y109.295 E0.75431
G1 X135.031 Y105.000 E0.14950
G1 X137.511 Y100.705 E0.14950
G1 X112.489 Y100.705 E0.75431
G1 X114.969 Y105.000 E0.14950
G1 X115.375 Y105.052 F7200.000
G1 F1680
G1 X113.144 Y108.917 E0.13453
G1 X136.857 Y108.917 E0.71485
G1 X134.595 Y105.000 E0.13634
G1 X136.857 Y101.083 E0.13634
G1 X113.144 Y101.083 E0.71485
G1 X115.405 Y105.000 E0.13634
G1 X115.811 Y105.052 F7200.000
G1 F1680
G1 X113.798 Y108.539 E0.12138
G1 X136.202 Y108.539 E0.67539
G1 X134.159 Y105.000 E0.12319
G1 X136.202 Y101.461 E0.12319
G1 X113.798 Y101.461 E0.67539
G1 X115.841 Y105.000 E0.12319
G1 X116.248 Y105.052 F7200.000
G1 F1680
G1 X114.453 Y108.161 E0.10823
G1 X135.548 Y108.161 E0.63593
G1 X133.722 Y105.000 E0.11004
G1 X135.548 Y101.839 E0.11004
G1 X114.453 Y101.839 E0.63593
G1 X116.278 Y105.000 E0.11004
G1 X116.684 Y105.052 F7200.000
G1 F1680
G1 X115.107 Y107.783 E0.09507
G1 X134.893 Y107.783 E0.59647
G1 X133.286 Y105.000 E0.09688
G1 X134.893 Y102.217 E0.09688
G1 X115.107 Y102.217 E0.59647
G1 X116.714 Y105.000 E0.09688
G1 X117.120 Y105.052 F7200.000
G1 F1680
G1 X115.762 Y107.405 E0.08192
G1 X134.238 Y107.405 E0.55701
G1 X132.850 Y105.000 E0.08373
G1 X134.238 Y102.595 E0.08373
G1 X115.762 Y102.595 E0.55701
G1 X117.150 Y105.000 E0.08373
G1 X117.557 Y105.052 F7200.000
G1 F1680
G1 X116.416 Y107.027 E0.06877
G1 X133.584 Y107.027 E0.51754
G1 X132.413 Y105.000 E0.07057
G1 X133.584 Y102.973 E0.07057
G1 X116.416 Y102.973 E0.51754
G1 X117.587 Y105.000 E0.07057
G1 X117.993 Y105.052 F7200.000
G1 F1680
G1 X117.071 Y106.650 E0.05561
