; generated by Slic3r 1.36.2-prusa3d-stable-win64 on 2017-12-17 at 12:03:47

; 

; external perimeters extrusion width = 0.45mm
; perimeters extrusion width = 0.45mm
; infill extrusion width = 0.45mm
; solid infill extrusion width = 0.45mm
; top infill extrusion width = 0.40mm
; first layer extrusion width = 0.42mm

M107
M115 U3.0.12 ; tell printer latest fw version
M83  ; extruder relative mode
M104 S215 ; set extruder temp
M140 S55 ; set bed temp
M190 S55 ; wait for bed temp
M109 S215 ; wait for extruder temp
G28 W ; home all without mesh bed level
G80 ; mesh bed leveling
G1 Y-3.0 F1000.0 ; go outside pritn area
G1 X60.0 E9.0  F1000.0 ; intro line
G1 X100.0 E12.5  F1000.0 ; intro line
; Filament gcode

G21 ; set units to millimeters
G90 ; use absolute coordinates
M83 ; use relative distances for extrusion
G1 E-1.50000 F2100.00000
G1 Z0.200 F3600.000
G1 X69.580 Y57.712 F3600.000
G1 E1.50000 F2100.00000
M204 S1000
G1 F1350
G1 X70.336 Y57.585 E0.02304
G1 X179.657 Y57.585 E3.28836
G1 X180.398 Y57.705 E0.02259
G1 X181.065 Y58.050 E0.02259
G1 X184.897 Y61.449 E0.15408
G1 X185.897 Y62.719 E0.04863
G1 X186.472 Y63.818 E0.03730
G1 X186.849 Y65.030 E0.03817
G1 X189.476 Y93.407 E0.85722
G1 X189.473 Y141.767 E1.45467
G1 X189.237 Y143.728 E0.05942
G1 X188.730 Y145.351 E0.05115
G1 X187.942 Y146.851 E0.05097
G1 X186.634 Y148.504 E0.06338
G1 X185.232 Y149.673 E0.05491
G1 X180.707 Y152.167 E0.15542
G1 X180.222 Y152.345 E0.01555
G1 X179.710 Y152.414 E0.01555
G1 X70.297 Y152.415 E3.29110
G1 X69.789 Y152.349 E0.01544
G1 X69.302 Y152.173 E0.01555
G1 X64.909 Y149.774 E0.15056
G1 X63.412 Y148.551 E0.05815
G1 X62.261 Y147.170 E0.05409
G1 X61.197 Y145.157 E0.06849
G1 X60.706 Y143.495 E0.05211
G1 X60.521 Y141.667 E0.05528
G1 X60.526 Y93.375 E1.45262
G1 X63.130 Y65.112 E0.85375
G1 X63.552 Y63.762 E0.04255
G1 X64.351 Y62.350 E0.04879
G1 X65.184 Y61.367 E0.03875
G1 X68.904 Y58.073 E0.14947
G1 X69.527 Y57.740 E0.02124
G1 F2880
G1 X70.336 Y57.585 E-0.57022
G1 F2880
G1 X71.570 Y57.585 E-0.85478
G1 E-0.07500 F2100.00000
G1 X132.037 Y136.276 F3600.000
G1 E1.50000 F2100.00000
G1 F600
G1 X136.160 Y136.274 E0.12403
G1 X137.287 Y136.375 E0.03403
G1 X138.284 Y136.677 E0.03132
G1 X139.204 Y137.169 E0.03139
G1 X140.008 Y137.829 E0.03129
G1 X140.670 Y138.635 E0.03138
G1 X141.162 Y139.553 E0.03134
G1 X141.464 Y140.551 E0.03135
G1 X141.566 Y141.588 E0.03135
G1 X141.464 Y142.625 E0.03135
G1 X141.162 Y143.623 E0.03135
G1 X140.670 Y144.541 E0.03134
G1 X140.008 Y145.347 E0.03138
G1 X139.204 Y146.007 E0.03129
G1 X138.284 Y146.499 E0.03139
G1 X137.288 Y146.801 E0.03129
G1 X136.039 Y146.924 E0.03776
G1 X136.041 Y139.902 E0.21122
G1 X132.037 Y139.902 E0.12044
G1 X132.037 Y136.336 E0.10726
G1 X131.927 Y135.892 F3600.000
G1 F2880
G1 X134.094 Y136.305 E-1.42500
G1 E-0.07500 F2100.00000
G1 X117.912 Y134.725 F3600.000
G1 E1.50000 F2100.00000
G1 F1200
G1 X132.086 Y134.725 E0.42636
G1 X132.086 Y129.833 E0.14717
G1 X132.814 Y129.833 E0.02189
G1 X132.814 Y134.725 E0.14717
G1 X136.222 Y134.725 E0.10253
G1 X137.588 Y134.859 E0.04128
G1 X138.875 Y135.249 E0.04045
G1 X140.061 Y135.884 E0.04048
G1 X141.102 Y136.737 E0.04048
G1 X141.954 Y137.776 E0.04041
G1 X142.588 Y138.962 E0.04046
G1 X142.980 Y140.249 E0.04048
G1 X143.111 Y141.588 E0.04046
G1 X142.980 Y142.927 E0.04046
G1 X142.588 Y144.214 E0.04048
G1 X141.954 Y145.400 E0.04045
G1 X141.102 Y146.439 E0.04041
G1 X140.061 Y147.292 E0.04048
G1 X138.875 Y147.927 E0.04048
G1 X137.588 Y148.317 E0.04045
G1 X135.662 Y148.506 E0.05822
G1 X135.662 Y149.451 E0.02843
G1 X134.340 Y149.451 E0.03976
G1 X134.340 Y140.279 E0.27589
G1 X135.664 Y140.279 E0.03982
G1 X135.662 Y147.340 E0.21239
G1 X137.362 Y147.173 E0.05139
G1 X138.429 Y146.849 E0.03353
G1 X139.415 Y146.323 E0.03363
G1 X140.276 Y145.615 E0.03353
G1 X140.985 Y144.752 E0.03360
G1 X141.512 Y143.768 E0.03358
G1 X141.836 Y142.699 E0.03359
G1 X141.945 Y141.588 E0.03358
G1 X141.836 Y140.477 E0.03358
G1 X141.512 Y139.408 E0.03359
G1 X140.985 Y138.424 E0.03358
G1 X140.276 Y137.561 E0.03360
G1 X139.415 Y136.853 E0.03353
G1 X138.429 Y136.327 E0.03363
G1 X137.360 Y136.003 E0.03361
G1 X136.177 Y135.897 E0.03571
G1 X131.660 Y135.899 E0.13587
G1 X131.660 Y140.049 E0.12482
G1 X118.340 Y140.049 E0.40066
G1 X118.340 Y135.899 E0.12482
G1 X113.720 Y135.897 E0.13896
G1 X112.638 Y136.003 E0.03271
G1 X111.569 Y136.327 E0.03359
G1 X110.585 Y136.853 E0.03357
G1 X109.722 Y137.561 E0.03358
G1 X109.014 Y138.424 E0.03358
G1 X108.488 Y139.408 E0.03357
G1 X108.165 Y140.477 E0.03357
G1 X108.053 Y141.588 E0.03360
G1 X108.165 Y142.699 E0.03360
G1 X108.488 Y143.768 E0.03357
G1 X109.014 Y144.752 E0.03357
G1 X109.722 Y145.615 E0.03358
G1 X110.585 Y146.323 E0.03358
G1 X111.569 Y146.849 E0.03357
G1 X112.638 Y147.173 E0.03359
G1 X114.336 Y147.340 E0.05132
G1 X114.336 Y140.279 E0.21238
G1 X115.660 Y140.279 E0.03982
G1 X115.660 Y149.451 E0.27589
G1 X114.336 Y149.451 E0.03982
G1 X114.336 Y148.505 E0.02844
G1 X112.410 Y148.317 E0.05822
G1 X111.123 Y147.927 E0.04045
G1 X109.937 Y147.292 E0.04047
G1 X108.898 Y146.439 E0.04044
G1 X108.043 Y145.400 E0.04046
G1 X107.410 Y144.214 E0.04043
G1 X107.020 Y142.927 E0.04046
G1 X106.889 Y141.588 E0.04047
G1 X107.020 Y140.249 E0.04047
G1 X107.410 Y138.962 E0.04046
G1 X108.043 Y137.776 E0.04043
G1 X108.898 Y136.737 E0.04046
G1 X109.937 Y135.884 E0.04044
G1 X111.123 Y135.249 E0.04047
G1 X112.410 Y134.859 E0.04045
G1 X113.778 Y134.725 E0.04134
G1 X117.186 Y134.725 E0.10253
G1 X117.186 Y129.833 E0.14717
G1 X117.912 Y129.833 E0.02183
G1 X117.912 Y134.665 E0.14536
G1 F2880
G1 X119.969 Y134.674 E-1.42500
G1 E-0.07500 F2100.00000
G1 X117.911 Y136.276 F3600.000
G1 E1.50000 F2100.00000
G1 F600
G1 X117.963 Y136.276 E0.00156
G1 X117.963 Y139.902 E0.10907
G1 X113.959 Y139.902 E0.12044
G1 X113.959 Y146.924 E0.21121
G1 X112.712 Y146.801 E0.03769
G1 X111.714 Y146.499 E0.03135
G1 X110.796 Y146.007 E0.03133
G1 X109.990 Y145.347 E0.03134
G1 X109.330 Y144.541 E0.03134
G1 X108.838 Y143.623 E0.03133
G1 X108.536 Y142.625 E0.03135
G1 X108.432 Y141.588 E0.03136
G1 X108.536 Y140.551 E0.03136
G1 X108.838 Y139.553 E0.03135
G1 X109.330 Y138.635 E0.03133
G1 X109.990 Y137.829 E0.03134
G1 X110.796 Y137.169 E0.03134
G1 X111.714 Y136.677 E0.03133
G1 X112.712 Y136.375 E0.03135
G1 X113.739 Y136.274 E0.03104
G1 X117.851 Y136.276 E0.12370
G1 X117.937 Y136.231 F3600.000
G1 F2880
G1 X117.963 Y136.276 E-0.07750
G1 F2880
G1 X117.963 Y138.221 E-1.34750
G1 E-0.07500 F2100.00000
G1 X118.289 Y134.348 F3600.000
G1 E1.50000 F2100.00000
G1 F900
G1 X131.709 Y134.348 E0.40367
G1 X131.709 Y129.455 E0.14717
G1 X133.191 Y129.455 E0.04458
G1 X133.191 Y134.348 E0.14717
G1 X136.241 Y134.348 E0.09174
G1 X137.662 Y134.487 E0.04295
G1 X139.020 Y134.899 E0.04269
G1 X140.272 Y135.569 E0.04271
G1 X141.370 Y136.469 E0.04270
G1 X142.270 Y137.565 E0.04265
G1 X142.938 Y138.817 E0.04268
G1 X143.352 Y140.175 E0.04271
G1 X143.490 Y141.588 E0.04270
G1 X143.352 Y143.001 E0.04270
G1 X142.938 Y144.359 E0.04271
G1 X142.270 Y145.611 E0.04268
G1 X141.370 Y146.707 E0.04265
G1 X140.272 Y147.607 E0.04270
G1 X139.020 Y148.277 E0.04271
G1 X137.662 Y148.689 E0.04269
G1 X136.039 Y148.848 E0.04905
G1 X136.039 Y149.828 E0.02949
G1 X133.963 Y149.828 E0.06245
G1 X133.963 Y140.426 E0.28281
G1 X116.037 Y140.426 E0.53921
G1 X116.037 Y149.828 E0.28281
G1 X113.959 Y149.828 E0.06251
G1 X113.959 Y148.848 E0.02949
G1 X112.336 Y148.689 E0.04905
G1 X110.978 Y148.277 E0.04269
G1 X109.726 Y147.607 E0.04271
G1 X108.630 Y146.707 E0.04266
G1 X107.728 Y145.611 E0.04269
G1 X107.060 Y144.359 E0.04268
G1 X106.648 Y143.001 E0.04270
G1 X106.510 Y141.588 E0.04270
G1 X106.648 Y140.175 E0.04270
G1 X107.060 Y138.817 E0.04270
G1 X107.728 Y137.565 E0.04268
G1 X108.630 Y136.469 E0.04269
G1 X109.726 Y135.569 E0.04266
G1 X110.978 Y134.899 E0.04271
G1 X112.336 Y134.487 E0.04269
G1 X113.759 Y134.348 E0.04301
G1 X116.809 Y134.348 E0.09174
G1 X116.809 Y129.455 E0.14717
G1 X118.289 Y129.455 E0.04452
G1 X118.289 Y134.288 E0.14536
G1 X118.328 Y134.746 F3600.000
G1 X117.549 Y134.914 F3600.000
G1 F1200
G1 X117.549 Y130.021 E0.11819
G1 F2880
G1 X117.549 Y132.078 E-1.42500
G1 E-0.07500 F2100.00000
G1 X118.810 Y139.936 F3600.000
G1 E1.50000 F2100.00000
G1 F1200
G1 X118.623 Y139.748 E0.00798
G1 X118.623 Y139.215 E0.01607
G1 X119.174 Y139.766 E0.02349
G1 X119.708 Y139.766 E0.01607
G1 X118.623 Y138.681 E0.04622
G1 X118.623 Y138.147 E0.01607
G1 X120.242 Y139.766 E0.06895
G1 X120.776 Y139.766 E0.01607
G1 X118.623 Y137.613 E0.09169
G1 X118.623 Y137.079 E0.01607
G1 X121.310 Y139.766 E0.11442
G1 X121.844 Y139.766 E0.01607
G1 X118.623 Y136.545 E0.13715
G1 X118.623 Y136.012 E0.01607
G1 X122.547 Y139.936 E0.16711
G1 F2880
G1 X121.092 Y138.481 E-1.42500
G1 E-0.07500 F2100.00000
G1 X118.152 Y140.164 F3600.000
G1 E1.50000 F2100.00000
G1 F1200
G1 X115.848 Y140.164 E0.01699
G1 X115.547 Y140.943 F3600.000
G1 F1200
G1 X115.166 Y140.562 E0.01623
G1 X114.632 Y140.562 E0.01607
G1 X115.377 Y141.307 E0.03173
G1 X115.377 Y141.841 E0.01607
G1 X114.619 Y141.083 E0.03229
G1 X114.619 Y141.616 E0.01607
G1 X115.377 Y142.375 E0.03229
G1 X115.377 Y142.908 E0.01607
G1 X114.619 Y142.150 E0.03229
G1 X114.619 Y142.684 E0.01607
G1 X115.377 Y143.442 E0.03229
G1 X115.377 Y143.976 E0.01607
G1 X114.619 Y143.218 E0.03229
G1 X114.619 Y143.752 E0.01607
G1 X115.377 Y144.510 E0.03229
G1 X115.377 Y145.044 E0.01607
G1 X114.619 Y144.285 E0.03229
G1 X114.619 Y144.819 E0.01607
G1 X115.377 Y145.577 E0.03229
G1 X115.377 Y146.111 E0.01607
G1 X114.619 Y145.353 E0.03229
G1 X114.619 Y145.887 E0.01607
G1 X115.377 Y146.645 E0.03229
G1 X115.377 Y147.179 E0.01607
G1 X114.619 Y146.421 E0.03229
G1 X114.619 Y146.954 E0.01607
G1 X115.377 Y147.713 E0.03229
G1 X115.377 Y148.247 E0.01607
G1 X114.619 Y147.488 E0.03229
G1 X114.619 Y147.652 E0.00492
G1 X114.208 Y147.611 E0.01243
G1 X115.377 Y148.780 E0.04979
G1 X115.377 Y149.168 E0.01168
G1 X115.231 Y149.168 E0.00440
G1 X113.616 Y147.553 E0.06878
G1 X113.024 Y147.495 E0.01791
G1 X113.687 Y148.158 E0.02824
G1 X113.095 Y148.100 E0.01790
G1 X112.388 Y147.392 E0.03015
G1 X111.622 Y147.160 E0.02409
G1 X112.504 Y148.042 E0.03756
G1 X111.749 Y147.821 E0.02368
G1 X107.516 Y143.588 E0.18029
G1 X107.673 Y144.106 E0.01629
G1 X107.871 Y144.477 E0.01268
G1 X111.237 Y147.844 E0.14336
G1 F2880
G1 X109.783 Y146.389 E-1.42500
G1 E-0.07500 F2100.00000
G1 X114.449 Y148.920 F3600.000
G1 E1.50000 F2100.00000
G1 F1200
G1 X114.867 Y149.338 E0.01779
G1 F2880
G1 X114.449 Y148.920 E-0.40927
G1 E-1.09073 F2100.00000
G1 X108.510 Y144.048 F3600.000
G1 E1.50000 F2100.00000
G1 F1200
G1 X107.295 Y142.833 E0.05175
G1 X107.237 Y142.242 E0.01790
G1 X107.945 Y142.949 E0.03015
G1 X107.886 Y142.755 E0.00612
G1 X107.841 Y142.312 E0.01340
G1 X107.179 Y141.650 E0.02821
G1 X107.173 Y141.588 E0.00187
G1 X107.216 Y141.153 E0.01317
G1 X107.782 Y141.719 E0.02412
G1 X107.769 Y141.588 E0.00396
G1 X107.807 Y141.210 E0.01144
G1 X107.263 Y140.666 E0.02315
G1 X107.298 Y140.304 E0.01096
G1 X107.330 Y140.200 E0.00329
G1 X107.855 Y140.725 E0.02237
G1 X107.886 Y140.421 E0.00920
G1 X107.932 Y140.268 E0.00482
G1 X107.454 Y139.790 E0.02035
G1 X107.579 Y139.380 E0.01289
G1 X108.056 Y139.858 E0.02034
G1 X108.180 Y139.448 E0.01289
G1 X107.718 Y138.986 E0.01970
G1 X107.904 Y138.638 E0.01188
G1 X108.344 Y139.078 E0.01875
G1 X108.530 Y138.730 E0.01188
G1 X108.090 Y138.290 E0.01876
G1 X108.275 Y137.942 E0.01188
G1 X108.716 Y138.383 E0.01877
G1 X108.778 Y138.267 E0.00396
G1 X108.938 Y138.071 E0.00761
G1 X108.515 Y137.648 E0.01803
G1 X108.756 Y137.355 E0.01142
G1 X109.179 Y137.778 E0.01800
G1 X109.419 Y137.484 E0.01142
G1 X108.997 Y137.062 E0.01798
G1 X109.099 Y136.938 E0.00482
G1 X109.268 Y136.799 E0.00660
G1 X109.690 Y137.221 E0.01797
G1 X109.983 Y136.981 E0.01142
G1 X109.561 Y136.559 E0.01798
G1 X109.854 Y136.318 E0.01142
G1 X110.277 Y136.741 E0.01799
G1 X110.428 Y136.617 E0.00586
G1 X110.597 Y136.527 E0.00578
G1 X110.157 Y136.087 E0.01872
G1 X110.505 Y135.901 E0.01187
G1 X110.945 Y136.341 E0.01872
G1 X111.292 Y136.154 E0.01188
G1 X110.852 Y135.715 E0.01873
G1 X111.200 Y135.528 E0.01187
G1 X111.672 Y136.000 E0.02010
G1 X112.082 Y135.876 E0.01289
G1 X111.604 Y135.399 E0.02035
G1 X112.014 Y135.274 E0.01289
G1 X112.492 Y135.752 E0.02035
G1 X112.583 Y135.725 E0.00287
G1 X112.961 Y135.688 E0.01143
G1 X112.423 Y135.150 E0.02288
G1 X112.465 Y135.137 E0.00132
G1 X112.902 Y135.095 E0.01321
G1 X113.447 Y135.640 E0.02321
G1 X113.707 Y135.614 E0.00787
G1 X113.955 Y135.614 E0.00748
G1 X113.388 Y135.047 E0.02414
G1 X113.882 Y135.008 E0.01493
G1 X114.489 Y135.615 E0.02583
G1 X115.023 Y135.615 E0.01608
G1 X114.416 Y135.008 E0.02584
G1 X114.950 Y135.008 E0.01607
G1 X115.557 Y135.615 E0.02586
G1 X116.091 Y135.615 E0.01608
G1 X115.484 Y135.008 E0.02587
G1 X116.018 Y135.008 E0.01607
G1 X116.625 Y135.616 E0.02588
G1 X117.159 Y135.616 E0.01608
G1 X116.551 Y135.008 E0.02589
G1 X117.085 Y135.008 E0.01607
G1 X117.693 Y135.616 E0.02590
G1 X118.228 Y135.616 E0.01608
G1 X117.808 Y135.196 E0.01788
G1 X118.006 Y135.196 E0.00598
G1 X118.006 Y135.008 E0.00568
G1 X118.153 Y135.008 E0.00442
G1 X122.911 Y139.766 E0.20263
G1 X123.445 Y139.766 E0.01607
G1 X118.687 Y135.008 E0.20263
G1 X119.221 Y135.008 E0.01607
G1 X123.979 Y139.766 E0.20263
G1 X124.513 Y139.766 E0.01607
G1 X119.754 Y135.008 E0.20263
G1 X120.288 Y135.008 E0.01607
G1 X125.046 Y139.766 E0.20263
G1 X125.580 Y139.766 E0.01607
G1 X120.822 Y135.008 E0.20263
G1 X121.356 Y135.008 E0.01607
G1 X126.114 Y139.766 E0.20263
G1 X126.648 Y139.766 E0.01607
G1 X121.890 Y135.008 E0.20263
G1 X122.423 Y135.008 E0.01607
G1 X127.182 Y139.766 E0.20263
G1 X127.715 Y139.766 E0.01607
G1 X122.957 Y135.008 E0.20263
G1 X123.491 Y135.008 E0.01607
G1 X128.249 Y139.766 E0.20263
G1 X128.783 Y139.766 E0.01607
G1 X124.025 Y135.008 E0.20263
G1 X124.559 Y135.008 E0.01607
G1 X129.317 Y139.766 E0.20263
G1 X129.851 Y139.766 E0.01607
G1 X125.092 Y135.008 E0.20263
G1 X125.626 Y135.008 E0.01607
G1 X130.385 Y139.766 E0.20263
G1 X130.918 Y139.766 E0.01607
G1 X126.160 Y135.008 E0.20263
G1 X126.694 Y135.008 E0.01607
G1 X131.377 Y139.691 E0.19943
G1 X131.377 Y139.157 E0.01607
G1 X127.228 Y135.008 E0.17670
G1 X127.762 Y135.008 E0.01607
G1 X131.377 Y138.623 E0.15397
G1 X131.377 Y138.090 E0.01607
G1 X128.295 Y135.008 E0.13124
G1 X128.829 Y135.008 E0.01607
G1 X131.377 Y137.556 E0.10850
G1 X131.377 Y137.022 E0.01607
G1 X129.363 Y135.008 E0.08577
G1 X129.897 Y135.008 E0.01607
G1 X131.377 Y136.488 E0.06304
G1 X131.377 Y135.954 E0.01607
G1 X130.431 Y135.008 E0.04031
G1 X130.964 Y135.008 E0.01607
G1 X131.573 Y135.616 E0.02592
G1 X132.107 Y135.616 E0.01607
G1 X131.498 Y135.008 E0.02591
G1 X131.992 Y135.008 E0.01486
G1 X131.992 Y135.196 E0.00568
G1 X132.221 Y135.196 E0.00689
G1 X132.640 Y135.616 E0.01787
G1 X133.174 Y135.616 E0.01607
G1 X132.754 Y135.196 E0.01786
G1 X132.908 Y135.196 E0.00463
G1 X132.908 Y135.008 E0.00568
G1 X133.100 Y135.008 E0.00577
G1 X133.707 Y135.615 E0.02587
G1 X134.241 Y135.615 E0.01607
G1 X133.634 Y135.008 E0.02586
G1 X134.167 Y135.008 E0.01607
G1 X134.774 Y135.615 E0.02585
G1 X135.308 Y135.615 E0.01607
G1 X134.701 Y135.008 E0.02584
G1 X135.235 Y135.008 E0.01607
G1 X135.841 Y135.614 E0.02583
G1 X136.393 Y135.632 E0.01663
G1 X135.769 Y135.008 E0.02660
G1 X136.313 Y135.018 E0.01638
G1 X136.979 Y135.685 E0.02839
G1 X137.414 Y135.724 E0.01313
G1 X137.612 Y135.784 E0.00625
G1 X136.904 Y135.076 E0.03015
G1 X137.496 Y135.134 E0.01790
G1 X138.713 Y136.350 E0.05181
G1 F2880
G1 X137.496 Y135.134 E-1.19192
G1 F2880
G1 X137.161 Y135.101 E-0.23309
G1 E-0.07500 F2100.00000
G1 X142.504 Y139.074 F3600.000
G1 E1.50000 F2100.00000
G1 F1200
G1 X139.144 Y135.714 E0.14310
G1 X138.766 Y135.511 E0.01290
G1 X138.252 Y135.355 E0.01619
G1 X142.483 Y139.587 E0.18019
G1 X142.705 Y140.343 E0.02374
G1 X141.824 Y139.461 E0.03755
G1 X142.055 Y140.227 E0.02409
G1 X142.763 Y140.935 E0.03015
G1 X142.821 Y141.526 E0.01790
G1 X142.158 Y140.863 E0.02824
G1 X142.216 Y141.455 E0.01791
G1 X142.784 Y142.024 E0.02421
G1 X142.737 Y142.510 E0.01471
G1 X142.192 Y141.965 E0.02321
G1 X142.144 Y142.451 E0.01470
G1 X142.670 Y142.976 E0.02238
G1 X142.545 Y143.386 E0.01288
G1 X142.068 Y142.908 E0.02032
