; generated by Slic3r 1.36.2-prusa3d-stable-win64 on 2017-12-19 at 18:23:47

; 

; external perimeters extrusion width = 0.45mm
; perimeters extrusion width = 0.45mm
; infill extrusion width = 0.45mm
; solid infill extrusion width = 0.45mm
; top infill extrusion width = 0.40mm
; first layer extrusion width = 0.46mm

M107
M115 U3.0.12 ; tell printer latest fw version
M83  ; extruder relative mode
M104 S200 ; set extruder temp
M140 S55 ; set bed temp
M190 S55 ; wait for bed temp
M109 S200 ; wait for extruder temp
G28 W ; home all without mesh bed level
G80 ; mesh bed leveling
G1 Y-3.0 F1000.0 ; go outside pritn area
G1 X60.0 E9.0  F1000.0 ; intro line
G1 X100.0 E12.5  F1000.0 ; intro line
; Filament gcode

G21 ; set units to millimeters
G90 ; use absolute coordinates
M83 ; use relative distances for extrusion
G1 E-2.00000 F2100.00000
G1 Z0.200 F3600.000
G1 X69.390 Y33.275 F3600.000
G1 E2.00000 F2100.00000
M204 S1000
G1 F1080
G1 X70.191 Y33.113 E0.02728
G1 X179.657 Y33.109 E3.65682
G1 X180.525 Y33.246 E0.02934
G1 X181.308 Y33.642 E0.02934
G1 X185.254 Y37.141 E0.17616
G1 X186.156 Y38.247 E0.04768
G1 X186.803 Y39.426 E0.04490
G1 X187.375 Y41.341 E0.06677
G1 X189.936 Y69.469 E0.94354
G1 X189.937 Y117.615 E1.60834
G1 X189.736 Y119.598 E0.06661
G1 X189.103 Y121.620 E0.07075
G1 X188.206 Y123.280 E0.06304
G1 X187.030 Y124.730 E0.06236
G1 X143.614 Y172.784 E2.16346
G1 X142.044 Y174.102 E0.06847
G1 X137.517 Y176.592 E0.17259
G1 X137.017 Y176.785 E0.01790
G1 X136.490 Y176.881 E0.01790
G1 X113.720 Y176.891 E0.76065
G1 X113.122 Y176.821 E0.02011
G1 X112.549 Y176.624 E0.02025
G1 X108.113 Y174.208 E0.16875
G1 X106.413 Y172.813 E0.07347
G1 X62.959 Y124.718 E2.16527
G1 X61.773 Y123.251 E0.06302
G1 X60.796 Y121.380 E0.07051
G1 X60.257 Y119.563 E0.06332
G1 X60.063 Y117.608 E0.06564
G1 X60.064 Y69.448 E1.60883
G1 X62.624 Y41.351 E0.94248
G1 X63.160 Y39.501 E0.06434
G1 X63.859 Y38.226 E0.04858
G1 X64.906 Y36.982 E0.05433
G1 X68.673 Y33.656 E0.16786
G1 X69.337 Y33.303 E0.02513
G1 X69.520 Y33.672 F3600.000
G1 F1080
G1 X70.217 Y33.529 E0.02378
G1 X179.657 Y33.526 E3.65592
G1 X180.408 Y33.647 E0.02543
G1 X181.088 Y33.998 E0.02555
G1 X184.957 Y37.435 E0.17286
G1 X185.813 Y38.484 E0.04525
G1 X186.429 Y39.611 E0.04291
G1 X186.961 Y41.392 E0.06209
G1 X189.519 Y69.477 E0.94209
G1 X189.520 Y117.604 E1.60772
G1 X189.328 Y119.512 E0.06408
G1 X188.723 Y121.448 E0.06775
G1 X187.859 Y123.049 E0.06078
G1 X186.722 Y124.449 E0.06026
G1 X143.307 Y172.501 E2.16334
G1 X141.802 Y173.762 E0.06559
G1 X137.341 Y176.213 E0.17005
G1 X136.456 Y176.465 E0.03073
G1 X113.726 Y176.474 E0.75932
G1 X113.212 Y176.414 E0.01729
G1 X112.723 Y176.245 E0.01729
G1 X108.336 Y173.856 E0.16686
G1 X106.718 Y172.528 E0.06994
G1 X63.273 Y124.443 E2.16485
G1 X62.125 Y123.028 E0.06086
G1 X61.189 Y121.241 E0.06740
G1 X60.667 Y119.486 E0.06116
G1 X60.480 Y117.601 E0.06329
G1 X60.481 Y69.462 E1.60812
G1 X63.039 Y41.393 E0.94155
G1 X63.539 Y39.677 E0.05972
G1 X64.199 Y38.467 E0.04605
G1 X65.174 Y37.302 E0.05073
G1 X68.897 Y34.009 E0.16604
G1 X69.467 Y33.700 E0.02165
G1 F2880
G1 X70.217 Y33.529 E-0.53299
G1 F2880
G1 X72.191 Y33.529 E-1.36701
G1 E-0.10000 F2100.00000
G1 X132.017 Y112.237 F3600.000
G1 E2.00000 F2100.00000
G1 F480
G1 X136.161 Y112.235 E0.13844
G1 X137.291 Y112.336 E0.03789
G1 X138.291 Y112.639 E0.03492
G1 X139.215 Y113.133 E0.03499
G1 X140.022 Y113.796 E0.03488
G1 X140.687 Y114.604 E0.03498
G1 X141.181 Y115.527 E0.03494
G1 X141.484 Y116.528 E0.03495
G1 X141.586 Y117.569 E0.03494
G1 X141.484 Y118.610 E0.03494
G1 X141.181 Y119.611 E0.03495
G1 X140.687 Y120.534 E0.03494
G1 X140.022 Y121.342 E0.03498
G1 X139.215 Y122.005 E0.03488
G1 X138.291 Y122.499 E0.03499
G1 X137.292 Y122.802 E0.03489
G1 X136.019 Y122.927 E0.04274
G1 X136.021 Y115.903 E0.23464
G1 X132.017 Y115.903 E0.13375
G1 X132.017 Y112.297 E0.12046
G1 X131.908 Y111.852 F3600.000
G1 F2880
G1 X134.760 Y112.256 E-1.90000
G1 E-0.10000 F2100.00000
G1 X117.852 Y110.766 F3600.000
G1 E2.00000 F2100.00000
G1 F960
G1 X132.146 Y110.766 E0.47751
G1 X132.146 Y105.874 E0.16344
G1 X132.754 Y105.874 E0.02031
G1 X132.754 Y110.766 E0.16344
G1 X136.219 Y110.766 E0.11577
G1 X137.576 Y110.899 E0.04555
G1 X138.852 Y111.286 E0.04453
G1 X140.028 Y111.916 E0.04456
G1 X141.059 Y112.761 E0.04456
G1 X141.904 Y113.790 E0.04448
G1 X142.532 Y114.966 E0.04453
G1 X142.921 Y116.242 E0.04456
G1 X143.051 Y117.569 E0.04454
G1 X142.921 Y118.896 E0.04454
G1 X142.532 Y120.172 E0.04456
G1 X141.904 Y121.348 E0.04453
G1 X141.059 Y122.377 E0.04448
G1 X140.028 Y123.222 E0.04456
G1 X138.852 Y123.852 E0.04456
G1 X137.576 Y124.239 E0.04453
G1 X135.602 Y124.432 E0.06627
G1 X135.602 Y125.372 E0.03139
G1 X134.400 Y125.372 E0.04015
G1 X134.400 Y116.320 E0.30238
G1 X135.604 Y116.320 E0.04021
G1 X135.602 Y123.387 E0.23608
G1 X137.374 Y123.213 E0.05948
G1 X138.452 Y122.886 E0.03763
G1 X139.448 Y122.354 E0.03774
G1 X140.319 Y121.639 E0.03763
G1 X141.035 Y120.767 E0.03771
G1 X141.568 Y119.772 E0.03769
G1 X141.895 Y118.692 E0.03770
G1 X142.005 Y117.569 E0.03768
G1 X141.895 Y116.446 E0.03768
G1 X141.568 Y115.366 E0.03770
G1 X141.035 Y114.371 E0.03769
G1 X140.319 Y113.499 E0.03771
G1 X139.448 Y112.784 E0.03763
G1 X138.452 Y112.252 E0.03774
G1 X137.371 Y111.924 E0.03773
G1 X136.180 Y111.818 E0.03996
G1 X131.600 Y111.820 E0.15299
G1 X131.600 Y115.970 E0.13862
G1 X118.400 Y115.970 E0.44095
G1 X118.400 Y111.820 E0.13862
G1 X113.717 Y111.818 E0.15643
G1 X112.626 Y111.925 E0.03662
G1 X111.546 Y112.252 E0.03770
G1 X110.552 Y112.784 E0.03767
G1 X109.679 Y113.499 E0.03769
G1 X108.964 Y114.372 E0.03769
G1 X108.432 Y115.366 E0.03767
G1 X108.105 Y116.446 E0.03768
G1 X107.993 Y117.569 E0.03771
G1 X108.105 Y118.692 E0.03771
G1 X108.432 Y119.772 E0.03768
G1 X108.964 Y120.766 E0.03767
G1 X109.679 Y121.639 E0.03769
G1 X110.552 Y122.354 E0.03769
G1 X111.546 Y122.886 E0.03767
G1 X112.626 Y123.213 E0.03770
G1 X114.396 Y123.387 E0.05940
G1 X114.396 Y116.320 E0.23608
G1 X115.600 Y116.320 E0.04022
G1 X115.600 Y125.372 E0.30239
G1 X114.396 Y125.372 E0.04022
G1 X114.396 Y124.432 E0.03140
G1 X112.422 Y124.239 E0.06627
G1 X111.146 Y123.852 E0.04452
G1 X109.971 Y123.223 E0.04455
G1 X108.940 Y122.377 E0.04452
G1 X108.093 Y121.347 E0.04454
G1 X107.466 Y120.172 E0.04451
G1 X107.079 Y118.896 E0.04454
G1 X106.949 Y117.569 E0.04455
G1 X107.079 Y116.242 E0.04455
G1 X107.466 Y114.966 E0.04454
G1 X108.093 Y113.791 E0.04451
G1 X108.940 Y112.761 E0.04454
G1 X109.971 Y111.915 E0.04452
G1 X111.146 Y111.286 E0.04455
G1 X112.422 Y110.899 E0.04452
G1 X113.781 Y110.766 E0.04561
G1 X117.246 Y110.766 E0.11577
G1 X117.246 Y105.874 E0.16344
G1 X117.852 Y105.874 E0.02024
G1 X117.852 Y110.706 E0.16143
G1 F2880
G1 X120.595 Y110.718 E-1.90000
G1 E-0.10000 F2100.00000
G1 X117.851 Y112.237 F3600.000
G1 E2.00000 F2100.00000
G1 F480
G1 X117.983 Y112.237 E0.00440
G1 X117.983 Y115.903 E0.12246
G1 X113.979 Y115.903 E0.13376
G1 X113.979 Y122.927 E0.23464
G1 X112.708 Y122.802 E0.04266
G1 X111.707 Y122.499 E0.03495
G1 X110.785 Y122.005 E0.03493
G1 X109.976 Y121.342 E0.03494
G1 X109.313 Y120.533 E0.03494
G1 X108.819 Y119.611 E0.03493
G1 X108.516 Y118.610 E0.03494
G1 X108.412 Y117.569 E0.03496
G1 X108.516 Y116.528 E0.03496
G1 X108.819 Y115.527 E0.03495
G1 X109.313 Y114.605 E0.03493
G1 X109.976 Y113.796 E0.03494
G1 X110.785 Y113.133 E0.03494
G1 X111.707 Y112.639 E0.03493
G1 X112.708 Y112.336 E0.03495
G1 X113.738 Y112.235 E0.03457
G1 X117.791 Y112.237 E0.13541
G1 X117.916 Y112.122 F3600.000
G1 F2880
G1 X117.983 Y112.237 E-0.13289
G1 F2880
G1 X117.983 Y114.788 E-1.76711
G1 E-0.10000 F2100.00000
G1 X118.269 Y110.349 F3600.000
G1 E2.00000 F2100.00000
G1 F720
G1 X131.729 Y110.349 E0.44964
G1 X131.729 Y105.456 E0.16344
G1 X133.171 Y105.456 E0.04817
G1 X133.171 Y110.349 E0.16344
G1 X136.240 Y110.349 E0.10252
G1 X137.658 Y110.488 E0.04760
G1 X139.012 Y110.898 E0.04728
G1 X140.261 Y111.567 E0.04730
G1 X141.356 Y112.464 E0.04730
G1 X142.253 Y113.557 E0.04724
G1 X142.920 Y114.806 E0.04727
G1 X143.332 Y116.160 E0.04731
G1 X143.470 Y117.569 E0.04729
G1 X143.332 Y118.978 E0.04729
G1 X142.920 Y120.332 E0.04731
G1 X142.253 Y121.581 E0.04727
G1 X141.356 Y122.674 E0.04724
G1 X140.261 Y123.571 E0.04729
G1 X139.012 Y124.240 E0.04730
G1 X137.658 Y124.650 E0.04728
G1 X136.019 Y124.811 E0.05501
G1 X136.019 Y125.789 E0.03268
G1 X133.983 Y125.789 E0.06801
G1 X133.983 Y116.387 E0.31408
G1 X116.017 Y116.387 E0.60017
G1 X116.017 Y125.789 E0.31408
G1 X113.979 Y125.789 E0.06808
G1 X113.979 Y124.810 E0.03269
G1 X112.340 Y124.650 E0.05501
G1 X110.986 Y124.240 E0.04728
G1 X109.737 Y123.571 E0.04730
G1 X108.644 Y122.674 E0.04725
G1 X107.745 Y121.581 E0.04728
G1 X107.079 Y120.333 E0.04726
G1 X106.668 Y118.978 E0.04729
G1 X106.530 Y117.569 E0.04729
G1 X106.668 Y116.160 E0.04729
G1 X107.079 Y114.805 E0.04729
G1 X107.745 Y113.557 E0.04726
G1 X108.644 Y112.464 E0.04728
G1 X109.737 Y111.567 E0.04725
G1 X110.986 Y110.898 E0.04730
G1 X112.340 Y110.488 E0.04728
G1 X113.760 Y110.349 E0.04767
G1 X116.829 Y110.349 E0.10252
G1 X116.829 Y105.456 E0.16344
G1 X118.269 Y105.456 E0.04810
G1 X118.269 Y110.289 E0.16143
G1 X118.307 Y110.747 F3600.000
G1 X117.549 Y110.975 F3600.000
G1 F960
G1 X117.549 Y106.082 E0.05310
G1 F2880
G1 X117.549 Y108.825 E-1.90000
G1 E-0.10000 F2100.00000
G1 X119.428 Y115.845 F3600.000
G1 E2.00000 F2100.00000
G1 F960
G1 X118.713 Y115.130 E0.03391
G1 X118.713 Y114.538 E0.01985
G1 X119.832 Y115.657 E0.05308
G1 X120.424 Y115.657 E0.01985
G1 X118.713 Y113.946 E0.08115
G1 X118.713 Y113.354 E0.01985
G1 X121.016 Y115.657 E0.10922
G1 X121.608 Y115.657 E0.01985
G1 X118.713 Y112.762 E0.13730
G1 X118.713 Y112.170 E0.01985
G1 X122.388 Y115.845 E0.17427
G1 F2880
G1 X120.448 Y113.905 E-1.90000
G1 E-0.10000 F2100.00000
G1 X118.192 Y116.145 F3600.000
G1 E2.00000 F2100.00000
G1 F960
G1 X115.808 Y116.145 E0.00173
G1 F2880
G1 X118.192 Y116.145 E-1.65076
G1 E-0.34924 F2100.00000
G1 X115.475 Y117.220 F3600.000
G1 E2.00000 F2100.00000
G1 F960
G1 X114.888 Y116.633 E0.02783
G1 X114.709 Y116.633 E0.00601
G1 X114.709 Y117.046 E0.01384
G1 X115.287 Y117.624 E0.02742
G1 X115.287 Y118.216 E0.01985
G1 X114.709 Y117.638 E0.02742
G1 X114.709 Y118.230 E0.01985
G1 X115.287 Y118.808 E0.02742
G1 X115.287 Y119.400 E0.01985
G1 X114.709 Y118.822 E0.02742
G1 X114.709 Y119.414 E0.01985
G1 X115.287 Y119.992 E0.02742
G1 X115.287 Y120.584 E0.01985
G1 X114.709 Y120.006 E0.02742
G1 X114.709 Y120.597 E0.01985
G1 X115.287 Y121.176 E0.02742
G1 X115.287 Y121.768 E0.01985
G1 X114.709 Y121.189 E0.02742
G1 X114.709 Y121.781 E0.01985
G1 X115.287 Y122.360 E0.02742
G1 X115.287 Y122.952 E0.01985
G1 X114.709 Y122.373 E0.02742
G1 X114.709 Y122.965 E0.01985
G1 X115.287 Y123.544 E0.02742
G1 X115.287 Y124.136 E0.01985
G1 X114.709 Y123.557 E0.02742
G1 X114.709 Y123.732 E0.00585
G1 X114.246 Y123.686 E0.01560
G1 X115.287 Y124.728 E0.04938
G1 X115.287 Y125.059 E0.01112
G1 X115.027 Y125.059 E0.00873
G1 X114.521 Y124.554 E0.02397
G1 X114.261 Y124.293 F3600.000
G1 F960
G1 X113.589 Y123.622 E0.03184
G1 X112.933 Y123.557 E0.02212
G1 X113.396 Y124.020 E0.02195
G1 X112.740 Y123.956 E0.02210
G1 X112.191 Y123.408 E0.02599
G1 X111.426 Y123.176 E0.02682
G1 X111.301 Y123.109 E0.00476
G1 X111.966 Y123.774 E0.03153
G1 X111.267 Y123.562 E0.02450
G1 X111.041 Y123.441 E0.00859
G1 X107.876 Y120.276 E0.15007
G1 X107.756 Y120.052 E0.00853
G1 X107.544 Y119.352 E0.02452
G1 X108.209 Y120.017 E0.03153
G1 X108.142 Y119.892 E0.00476
G1 X107.910 Y119.127 E0.02682
G1 X107.362 Y118.578 E0.02599
G1 X107.298 Y117.922 E0.02210
G1 X107.760 Y118.385 E0.02192
G1 X107.694 Y117.727 E0.02218
G1 X107.288 Y117.320 E0.01927
G1 X107.340 Y116.781 E0.01817
G1 X107.719 Y117.160 E0.01797
G1 X107.773 Y116.622 E0.01813
G1 X107.403 Y116.251 E0.01758
G1 X107.540 Y115.797 E0.01592
G1 X107.874 Y116.131 E0.01582
G1 X108.012 Y115.676 E0.01592
G1 X107.678 Y115.343 E0.01581
G1 X107.756 Y115.086 E0.00900
G1 X107.846 Y114.918 E0.00637
G1 X108.153 Y115.225 E0.01456
G1 X108.359 Y114.840 E0.01467
G1 X108.052 Y114.532 E0.01458
G1 X108.258 Y114.147 E0.01467
G1 X108.566 Y114.454 E0.01459
G1 X108.703 Y114.197 E0.00977
G1 X108.792 Y114.089 E0.00471
G1 X108.496 Y113.793 E0.01402
G1 X108.764 Y113.468 E0.01410
G1 X109.059 Y113.763 E0.01399
G1 X109.325 Y113.438 E0.01411
G1 X109.031 Y113.144 E0.01396
G1 X109.163 Y112.983 E0.00696
G1 X109.327 Y112.848 E0.00715
G1 X109.621 Y113.142 E0.01395
G1 X109.947 Y112.876 E0.01411
G1 X109.652 Y112.581 E0.01396
G1 X109.978 Y112.314 E0.01410
G1 X110.272 Y112.609 E0.01398
G1 X110.377 Y112.523 E0.00455
G1 X110.638 Y112.383 E0.00993
G1 X110.332 Y112.077 E0.01454
G1 X110.717 Y111.870 E0.01466
G1 X111.024 Y112.177 E0.01455
G1 X111.410 Y111.971 E0.01467
G1 X111.103 Y111.664 E0.01455
G1 X111.267 Y111.576 E0.00623
G1 X111.528 Y111.497 E0.00916
G1 X111.861 Y111.830 E0.01581
G1 X112.316 Y111.693 E0.01592
G1 X111.982 Y111.359 E0.01582
G1 X112.436 Y111.221 E0.01592
G1 X112.808 Y111.593 E0.01764
G1 X113.347 Y111.540 E0.01816
G1 X112.967 Y111.160 E0.01803
G1 X113.506 Y111.107 E0.01817
G1 X113.904 Y111.505 E0.01888
G1 X114.497 Y111.506 E0.01986
G1 X114.070 Y111.079 E0.02023
G1 X114.662 Y111.079 E0.01985
G1 X115.089 Y111.506 E0.02025
G1 X115.681 Y111.506 E0.01986
G1 X115.254 Y111.079 E0.02026
G1 X115.846 Y111.079 E0.01985
G1 X116.273 Y111.506 E0.02027
G1 X116.866 Y111.507 E0.01986
G1 X116.438 Y111.079 E0.02029
G1 X117.030 Y111.079 E0.01985
G1 X117.458 Y111.507 E0.02030
G1 X118.050 Y111.507 E0.01986
G1 X117.830 Y111.287 E0.01043
G1 X117.956 Y111.287 E0.00422
G1 X117.956 Y111.079 E0.00699
G1 X118.214 Y111.079 E0.00864
G1 X122.792 Y115.657 E0.21711
G1 X123.384 Y115.657 E0.01985
G1 X118.806 Y111.079 E0.21711
G1 X119.398 Y111.079 E0.01985
G1 X123.976 Y115.657 E0.21711
G1 X124.568 Y115.657 E0.01985
G1 X119.990 Y111.079 E0.21711
G1 X120.582 Y111.079 E0.01985
G1 X125.160 Y115.657 E0.21711
G1 X125.752 Y115.657 E0.01985
G1 X121.174 Y111.079 E0.21711
G1 X121.766 Y111.079 E0.01985
G1 X126.344 Y115.657 E0.21711
G1 X126.936 Y115.657 E0.01985
G1 X122.358 Y111.079 E0.21711
G1 X122.950 Y111.079 E0.01985
G1 X127.528 Y115.657 E0.21711
G1 X128.120 Y115.657 E0.01985
G1 X123.542 Y111.079 E0.21711
G1 X124.134 Y111.079 E0.01985
G1 X128.712 Y115.657 E0.21711
G1 X129.304 Y115.657 E0.01985
G1 X124.726 Y111.079 E0.21711
G1 X125.318 Y111.079 E0.01985
G1 X129.896 Y115.657 E0.21711
G1 X130.488 Y115.657 E0.01985
G1 X125.910 Y111.079 E0.21711
G1 X126.502 Y111.079 E0.01985
G1 X131.080 Y115.657 E0.21711
G1 X131.287 Y115.657 E0.00695
G1 X131.287 Y115.273 E0.01290
G1 X127.093 Y111.079 E0.19887
G1 X127.685 Y111.079 E0.01985
G1 X131.287 Y114.681 E0.17079
G1 X131.287 Y114.089 E0.01985
G1 X128.277 Y111.079 E0.14272
G1 X128.869 Y111.079 E0.01985
G1 X131.287 Y113.497 E0.11465
G1 X131.287 Y112.905 E0.01985
G1 X129.461 Y111.079 E0.08658
G1 X130.053 Y111.079 E0.01985
G1 X131.287 Y112.313 E0.05851
G1 X131.287 Y111.721 E0.01985
G1 X130.645 Y111.079 E0.03043
G1 X131.237 Y111.079 E0.01985
G1 X131.666 Y111.507 E0.02032
G1 X132.258 Y111.507 E0.01984
G1 X131.829 Y111.079 E0.02031
G1 X132.042 Y111.079 E0.00712
G1 X132.042 Y111.287 E0.00699
G1 X132.630 Y111.287 E0.01972
G1 X132.849 Y111.507 E0.01041
G1 X133.441 Y111.507 E0.01984
G1 X133.013 Y111.079 E0.02028
G1 X133.605 Y111.079 E0.01985
G1 X134.033 Y111.506 E0.02027
G1 X134.624 Y111.506 E0.01984
G1 X134.197 Y111.079 E0.02025
G1 X134.789 Y111.079 E0.01985
G1 X135.216 Y111.506 E0.02024
G1 X135.808 Y111.505 E0.01984
G1 X135.381 Y111.079 E0.02023
G1 X135.973 Y111.079 E0.01985
G1 X136.420 Y111.525 E0.02118
G1 X137.070 Y111.583 E0.02188
G1 X136.604 Y111.118 E0.02207
G1 X137.260 Y111.182 E0.02211
G1 X137.809 Y111.730 E0.02599
G1 X138.572 Y111.962 E0.02675
G1 X138.701 Y112.031 E0.00491
G1 X138.035 Y111.365 E0.03159
G1 X138.731 Y111.576 E0.02440
G1 X138.961 Y111.699 E0.00875
G1 X142.478 Y115.215 E0.16674
G1 X142.737 Y116.067 F3600.000
G1 F960
G1 X141.791 Y115.121 E0.04485
G1 X141.858 Y115.246 E0.00475
G1 X142.090 Y116.012 E0.02683
G1 X142.638 Y116.560 E0.02599
G1 X142.702 Y117.216 E0.02210
G1 X142.239 Y116.753 E0.02195
G1 X142.304 Y117.409 E0.02212
G1 X142.712 Y117.818 E0.01937
G1 X142.660 Y118.357 E0.01817
G1 X142.279 Y117.977 E0.01803
G1 X142.226 Y118.516 E0.01816
