; generated by Slic3r 1.36.2-prusa3d-stable-win64 on 2017-12-22 at 09:15:04

; 

; external perimeters extrusion width = 0.45mm
; perimeters extrusion width = 0.45mm
; infill extrusion width = 0.45mm
; solid infill extrusion width = 0.45mm
; top infill extrusion width = 0.40mm
; first layer extrusion width = 0.46mm

M107
M115 U3.0.12 ; tell printer latest fw version
M83  ; extruder relative mode
M104 S200 ; set extruder temp
M140 S60 ; set bed temp
M190 S60 ; wait for bed temp
M109 S200 ; wait for extruder temp
G28 W ; home all without mesh bed level
G80 ; mesh bed leveling
G1 Y-3.0 F1000.0 ; go outside pritn area
G1 X60.0 E9.0  F1000.0 ; intro line
G1 X100.0 E12.5  F1000.0 ; intro line
; Filament gcode

G21 ; set units to millimeters
G90 ; use absolute coordinates
M83 ; use relative distances for extrusion
G1 E-2.00000 F2100.00000
G1 Z0.200 F3600.000
G1 X70.820 Y101.834 F3600.000
G1 E2.00000 F2100.00000
M204 S1000
G1 F1080
G1 X71.190 Y101.153 E0.02590
G1 X71.730 Y100.597 E0.02590
G1 X72.405 Y100.207 E0.02604
G1 X73.156 Y100.015 E0.02590
G1 X135.627 Y94.760 E2.09427
G1 X176.534 Y94.756 E1.36654
G1 X177.080 Y94.810 E0.01831
G1 X177.605 Y94.968 E0.01831
G1 X178.089 Y95.224 E0.01831
G1 X178.519 Y95.571 E0.01845
G1 X178.870 Y95.992 E0.01831
G1 X179.134 Y96.472 E0.01831
G1 X179.301 Y96.995 E0.01831
G1 X179.364 Y97.543 E0.01845
G1 X179.330 Y111.130 E0.45387
G1 X179.042 Y112.003 E0.03071
G1 X178.490 Y112.738 E0.03071
G1 X177.732 Y113.257 E0.03071
G1 X176.847 Y113.507 E0.03071
G1 X116.115 Y114.834 E2.02930
G1 X94.816 Y114.828 E0.71150
G1 X94.287 Y114.743 E0.01790
G1 X72.567 Y109.040 E0.75018
G1 X71.853 Y108.680 E0.02673
G1 X71.267 Y108.135 E0.02673
G1 X70.858 Y107.447 E0.02673
G1 X70.657 Y106.673 E0.02673
G1 X70.641 Y102.736 E0.13152
G1 X70.808 Y101.893 E0.02870
G1 X71.189 Y102.040 F3600.000
G1 F1080
G1 X71.499 Y101.437 E0.02264
G1 X71.966 Y100.941 E0.02276
G1 X72.550 Y100.598 E0.02264
G1 X73.210 Y100.429 E0.02276
G1 X135.651 Y95.177 E2.09325
G1 X176.534 Y95.173 E1.36572
G1 X177.447 Y95.354 E0.03111
G1 X178.227 Y95.870 E0.03124
G1 X178.754 Y96.643 E0.03124
G1 X178.947 Y97.554 E0.03111
G1 X178.924 Y111.024 E0.44997
G1 X178.686 Y111.783 E0.02657
G1 X178.215 Y112.423 E0.02657
G1 X177.558 Y112.878 E0.02669
G1 X176.793 Y113.093 E0.02657
G1 X116.107 Y114.417 E2.02773
G1 X94.853 Y114.413 E0.71000
G1 X72.720 Y108.652 E0.76402
G1 X72.103 Y108.346 E0.02302
G1 X71.596 Y107.878 E0.02302
G1 X71.243 Y107.287 E0.02302
G1 X71.070 Y106.616 E0.02314
G1 X71.057 Y102.770 E0.12848
G1 X71.179 Y102.099 E0.02279
G1 F2880
G1 X71.499 Y101.437 E-0.50930
G1 F2880
G1 X71.966 Y100.941 E-0.47202
G1 F2880
G1 X72.550 Y100.598 E-0.46938
G1 F2880
G1 X73.179 Y100.437 E-0.44931
G1 E-0.10000 F2100.00000
G1 X175.676 Y109.837 F3600.000
G1 E2.00000 F2100.00000
G1 F960
G1 X175.676 Y98.693 E0.37225
G1 X166.032 Y98.693 E0.32217
G1 X166.032 Y99.549 E0.02857
G1 X164.526 Y99.549 E0.05031
G1 X164.526 Y98.693 E0.02857
G1 X154.884 Y98.693 E0.32210
G1 X154.884 Y109.837 E0.37225
G1 X155.543 Y109.837 E0.02202
G1 X155.296 Y110.042 E0.01072
G1 X154.676 Y110.043 E0.02072
G1 X154.676 Y98.238 E0.39436
G1 X175.883 Y98.238 E0.70843
G1 X175.883 Y110.043 E0.39437
G1 X175.263 Y110.043 E0.02069
G1 X175.016 Y109.837 E0.01075
G1 X175.616 Y109.837 E0.02004
G1 X175.259 Y109.420 F3600.000
G1 F720
G1 X175.259 Y99.111 E0.34439
G1 X166.449 Y99.111 E0.29431
G1 X166.449 Y99.966 E0.02857
G1 X164.109 Y99.966 E0.07817
G1 X164.109 Y99.111 E0.02857
G1 X155.301 Y99.111 E0.29424
G1 X155.301 Y109.420 E0.34439
G1 X156.695 Y109.420 E0.04659
G1 X155.448 Y110.459 E0.05425
G1 X154.259 Y110.460 E0.03971
G1 X154.259 Y97.821 E0.42224
G1 X176.300 Y97.821 E0.73630
G1 X176.300 Y110.461 E0.42225
G1 X175.112 Y110.460 E0.03967
G1 X173.864 Y109.420 E0.05427
G1 X175.199 Y109.420 E0.04459
G1 X175.614 Y109.236 F3600.000
G1 F2880
G1 X175.215 Y106.677 E-1.90000
G1 E-0.10000 F2100.00000
G1 X165.907 Y99.221 F3600.000
G1 E2.00000 F2100.00000
G1 F960
G1 X165.236 Y98.550 E0.03225
G1 X164.839 Y98.550 E0.01351
G1 X164.839 Y98.753 E0.00689
G1 X165.509 Y99.424 E0.03224
G1 F2880
G1 X164.839 Y98.753 E-0.65687
G1 F2880
G1 X164.839 Y98.550 E-0.14038
G1 F2880
G1 X165.236 Y98.550 E-0.27524
G1 F2880
G1 X165.907 Y99.221 E-0.65701
G1 E-0.27051 F2100.00000
G1 X139.003 Y97.907 F3600.000
G1 E2.00000 F2100.00000
G1 F720
G1 X139.368 Y98.026 E0.01282
G1 X140.312 Y98.569 E0.03635
G1 X141.114 Y99.291 E0.03609
G1 X141.750 Y100.166 E0.03610
G1 X142.189 Y101.153 E0.03610
G1 X142.414 Y102.210 E0.03610
G1 X142.414 Y103.290 E0.03610
G1 X142.189 Y104.347 E0.03610
G1 X141.750 Y105.334 E0.03610
G1 X141.114 Y106.209 E0.03610
G1 X140.311 Y106.932 E0.03609
G1 X139.376 Y107.472 E0.03610
G1 X138.348 Y107.806 E0.03610
G1 X137.273 Y107.919 E0.03609
G1 X136.199 Y107.806 E0.03610
G1 X135.171 Y107.472 E0.03610
G1 X134.235 Y106.932 E0.03609
G1 X133.432 Y106.209 E0.03610
G1 X132.797 Y105.334 E0.03610
G1 X132.358 Y104.347 E0.03610
G1 X132.133 Y103.290 E0.03610
G1 X132.133 Y102.210 E0.03610
G1 X132.358 Y101.153 E0.03610
G1 X132.797 Y100.166 E0.03610
G1 X133.432 Y99.291 E0.03610
G1 X134.235 Y98.568 E0.03609
G1 X135.171 Y98.028 E0.03610
G1 X135.543 Y97.907 E0.01307
G1 X135.543 Y98.365 E0.01528
G1 X135.349 Y98.428 E0.00683
G1 X134.492 Y98.922 E0.03304
G1 X133.757 Y99.584 E0.03305
G1 X133.176 Y100.384 E0.03304
G1 X132.774 Y101.288 E0.03304
G1 X132.568 Y102.255 E0.03304
G1 X132.568 Y103.245 E0.03305
G1 X132.774 Y104.212 E0.03304
G1 X133.176 Y105.116 E0.03304
G1 X133.757 Y105.916 E0.03305
G1 X134.492 Y106.578 E0.03304
G1 X135.349 Y107.072 E0.03304
G1 X136.290 Y107.378 E0.03304
G1 X137.273 Y107.481 E0.03304
G1 X138.257 Y107.378 E0.03304
G1 X139.198 Y107.072 E0.03304
G1 X140.054 Y106.578 E0.03304
G1 X140.789 Y105.916 E0.03304
G1 X141.371 Y105.116 E0.03305
G1 X141.773 Y104.212 E0.03304
G1 X141.979 Y103.245 E0.03304
G1 X141.979 Y102.256 E0.03304
G1 X141.773 Y101.288 E0.03305
G1 X141.371 Y100.384 E0.03304
G1 X140.789 Y99.584 E0.03303
G1 X140.054 Y98.922 E0.03305
G1 X139.198 Y98.428 E0.03304
G1 X139.003 Y98.365 E0.00683
G1 X139.003 Y97.967 E0.01328
G1 X139.317 Y98.128 F3600.000
G1 F2880
G1 X139.368 Y98.026 E-0.25611
G1 F2880
G1 X140.312 Y98.569 E-0.75381
G1 F2880
G1 X141.114 Y99.291 E-0.74835
G1 F2880
G1 X141.235 Y99.457 E-0.14172
G1 E-0.10000 F2100.00000
G1 X115.423 Y108.847 F3600.000
G1 E2.00000 F2100.00000
G1 F960
G1 X115.423 Y111.353 E0.08371
G1 X95.267 Y111.353 E0.67332
G1 X94.004 Y110.090 E0.05967
G1 X94.004 Y106.051 E0.13492
G1 X88.120 Y106.050 E0.19656
G1 X88.120 Y105.308 E0.02479
G1 X74.120 Y105.308 E0.46768
G1 X74.120 Y103.878 E0.04775
G1 X97.191 Y103.876 E0.77069
G1 X101.863 Y108.847 E0.22789
G1 X115.363 Y108.847 E0.45098
G1 F2880
G1 X115.423 Y111.353 E-1.73631
G1 F2880
G1 X115.187 Y111.353 E-0.16369
G1 E-0.10000 F2100.00000
G1 X102.043 Y108.430 F3600.000
G1 E2.00000 F2100.00000
G1 F720
G1 X115.840 Y108.430 E0.46089
G1 X115.840 Y111.770 E0.11158
G1 X95.094 Y111.770 E0.69303
G1 X93.587 Y110.263 E0.07121
G1 X93.587 Y106.468 E0.12676
G1 X87.703 Y106.467 E0.19656
G1 X87.703 Y105.725 E0.02479
G1 X73.703 Y105.725 E0.46768
G1 X73.703 Y103.461 E0.07562
G1 X97.371 Y103.459 E0.79065
G1 X102.002 Y108.386 E0.22589
G1 X102.223 Y108.787 F3600.000
G1 F2880
G1 X104.745 Y108.395 E-1.90000
G1 E-0.10000 F2100.00000
G1 X95.958 Y111.228 F3600.000
G1 E2.00000 F2100.00000
G1 F960
G1 X94.317 Y109.587 E0.07792
G1 X94.317 Y108.994 E0.01991
G1 X96.363 Y111.040 E0.09716
G1 X96.956 Y111.040 E0.01991
G1 X94.317 Y108.401 E0.12531
G1 X94.317 Y107.809 E0.01991
G1 X97.549 Y111.040 E0.15347
G1 X98.141 Y111.040 E0.01991
G1 X94.317 Y107.216 E0.18162
G1 X94.317 Y106.623 E0.01991
G1 X98.734 Y111.040 E0.20977
G1 X99.327 Y111.040 E0.01991
G1 X92.476 Y104.190 E0.32533
G1 X93.069 Y104.189 E0.01990
G1 X99.920 Y111.040 E0.32533
G1 X100.513 Y111.040 E0.01991
G1 X93.662 Y104.189 E0.32534
G1 X94.255 Y104.189 E0.01990
G1 X101.105 Y111.040 E0.32534
G1 X101.698 Y111.040 E0.01991
G1 X94.847 Y104.189 E0.32534
G1 X95.440 Y104.189 E0.01990
G1 X102.291 Y111.040 E0.32534
G1 X102.884 Y111.040 E0.01991
G1 X96.033 Y104.189 E0.32535
G1 X96.626 Y104.189 E0.01990
G1 X103.477 Y111.040 E0.32535
G1 X104.069 Y111.040 E0.01991
G1 X102.189 Y109.160 E0.08929
G1 X102.782 Y109.160 E0.01991
G1 X104.662 Y111.040 E0.08929
G1 X105.255 Y111.040 E0.01991
G1 X103.375 Y109.160 E0.08929
G1 X103.968 Y109.160 E0.01991
G1 X105.848 Y111.040 E0.08929
G1 X106.441 Y111.040 E0.01991
G1 X104.560 Y109.160 E0.08929
G1 X105.153 Y109.160 E0.01991
G1 X107.033 Y111.040 E0.08929
G1 X107.626 Y111.040 E0.01991
G1 X105.746 Y109.160 E0.08929
G1 X106.339 Y109.160 E0.01991
G1 X108.219 Y111.040 E0.08929
G1 X108.812 Y111.040 E0.01991
G1 X106.932 Y109.160 E0.08929
G1 X107.524 Y109.160 E0.01991
G1 X109.405 Y111.040 E0.08929
G1 X109.997 Y111.040 E0.01991
G1 X108.117 Y109.160 E0.08929
G1 X108.710 Y109.160 E0.01991
G1 X110.590 Y111.040 E0.08929
G1 X111.183 Y111.040 E0.01991
G1 X109.303 Y109.160 E0.08929
G1 X109.896 Y109.160 E0.01991
G1 X111.776 Y111.040 E0.08929
G1 X112.369 Y111.040 E0.01991
G1 X110.488 Y109.160 E0.08929
G1 X111.081 Y109.160 E0.01991
G1 X112.961 Y111.040 E0.08929
G1 X113.554 Y111.040 E0.01991
G1 X111.674 Y109.160 E0.08929
G1 X112.267 Y109.160 E0.01991
G1 X114.147 Y111.040 E0.08929
G1 X114.740 Y111.040 E0.01991
G1 X112.860 Y109.160 E0.08929
G1 X113.452 Y109.160 E0.01991
G1 X115.110 Y110.818 E0.07873
G1 X115.110 Y110.225 E0.01991
G1 X114.045 Y109.160 E0.05058
G1 X114.638 Y109.160 E0.01991
G1 X115.298 Y109.820 E0.03134
G1 F2880
G1 X114.638 Y109.160 E-0.64645
G1 F2880
G1 X114.045 Y109.160 E-0.41064
G1 F2880
G1 X114.906 Y110.020 E-0.84291
G1 E-0.10000 F2100.00000
G1 X93.620 Y105.926 F3600.000
G1 E2.00000 F2100.00000
G1 F960
G1 X91.884 Y104.190 E0.08245
G1 X91.291 Y104.190 E0.01990
G1 X92.839 Y105.738 E0.07353
G1 X92.246 Y105.738 E0.01991
G1 X90.698 Y104.190 E0.07352
G1 X90.105 Y104.190 E0.01990
G1 X91.653 Y105.738 E0.07352
G1 X91.061 Y105.738 E0.01991
G1 X89.513 Y104.190 E0.07351
G1 X88.920 Y104.190 E0.01990
G1 X90.468 Y105.738 E0.07350
G1 X89.875 Y105.738 E0.01991
G1 X88.327 Y104.190 E0.07350
G1 X87.734 Y104.190 E0.01990
G1 X89.282 Y105.737 E0.07349
G1 X88.689 Y105.737 E0.01991
G1 X88.433 Y105.481 E0.01216
G1 X88.433 Y104.995 E0.01633
G1 X87.947 Y104.995 E0.01633
G1 X87.142 Y104.190 E0.03823
G1 X86.549 Y104.190 E0.01990
G1 X87.354 Y104.995 E0.03823
G1 X86.761 Y104.995 E0.01991
G1 X85.956 Y104.190 E0.03823
G1 X85.363 Y104.190 E0.01990
G1 X86.168 Y104.995 E0.03823
G1 X85.575 Y104.995 E0.01991
G1 X84.771 Y104.190 E0.03822
G1 X84.178 Y104.190 E0.01990
G1 X84.983 Y104.995 E0.03822
G1 X84.390 Y104.995 E0.01991
G1 X83.585 Y104.190 E0.03822
G1 X82.992 Y104.190 E0.01990
G1 X83.797 Y104.995 E0.03821
G1 X83.204 Y104.995 E0.01991
G1 X82.400 Y104.190 E0.03821
G1 X81.807 Y104.191 E0.01990
G1 X82.611 Y104.995 E0.03821
G1 X82.019 Y104.995 E0.01991
G1 X81.214 Y104.191 E0.03821
G1 X80.621 Y104.191 E0.01990
G1 X81.426 Y104.995 E0.03820
G1 X80.833 Y104.995 E0.01991
G1 X80.029 Y104.191 E0.03820
G1 X79.436 Y104.191 E0.01990
G1 X80.240 Y104.995 E0.03820
G1 X79.647 Y104.995 E0.01991
G1 X78.843 Y104.191 E0.03820
G1 X78.250 Y104.191 E0.01990
G1 X79.055 Y104.995 E0.03819
G1 X78.462 Y104.995 E0.01991
G1 X77.658 Y104.191 E0.03819
G1 X77.065 Y104.191 E0.01990
G1 X77.869 Y104.995 E0.03819
G1 X77.276 Y104.995 E0.01991
G1 X76.472 Y104.191 E0.03819
G1 X75.879 Y104.191 E0.01990
G1 X76.683 Y104.995 E0.03818
G1 X76.091 Y104.995 E0.01991
G1 X75.287 Y104.191 E0.03818
G1 X74.694 Y104.191 E0.01990
G1 X75.498 Y104.995 E0.03818
G1 X74.905 Y104.995 E0.01991
G1 X74.245 Y104.335 E0.03133
M106 S247.35
G1 F2880
G1 X74.905 Y104.995 E-0.64632
G1 F2880
G1 X75.498 Y104.995 E-0.41064
G1 F2880
G1 X74.694 Y104.191 E-0.78755
G1 F2880
G1 X74.774 Y104.191 E-0.05549
G1 E-0.10000 F2100.00000
G1 Z0.400 F3600.000
M104 S195 ; set temperature
M140 S55 ; set bed temperature
G1 X70.820 Y101.834 F3600.000
G1 E2.00000 F2100.00000
G1 F2700
G1 X71.190 Y101.153 E0.02590
G1 X71.730 Y100.597 E0.02590
G1 X72.405 Y100.207 E0.02604
G1 X73.156 Y100.015 E0.02590
G1 X135.627 Y94.760 E2.09427
G1 X176.534 Y94.756 E1.36654
G1 X177.080 Y94.810 E0.01831
G1 X177.605 Y94.968 E0.01831
G1 X178.089 Y95.224 E0.01831
G1 X178.519 Y95.571 E0.01845
G1 X178.870 Y95.992 E0.01831
G1 X179.134 Y96.472 E0.01831
G1 X179.301 Y96.995 E0.01831
G1 X179.364 Y97.543 E0.01845
G1 X179.330 Y111.130 E0.45387
G1 X179.042 Y112.003 E0.03071
G1 X178.490 Y112.738 E0.03071
G1 X177.732 Y113.257 E0.03071
G1 X176.847 Y113.507 E0.03071
G1 X116.115 Y114.834 E2.02930
G1 X94.816 Y114.828 E0.71150
G1 X94.287 Y114.743 E0.01790
G1 X72.567 Y109.040 E0.75018
G1 X71.853 Y108.680 E0.02673
G1 X71.267 Y108.135 E0.02673
G1 X70.858 Y107.447 E0.02673
G1 X70.657 Y106.673 E0.02673
G1 X70.641 Y102.736 E0.13152
G1 X70.808 Y101.893 E0.02870
G1 X71.189 Y102.040 F3600.000
G1 F2700
G1 X71.499 Y101.437 E0.02264
G1 X71.966 Y100.941 E0.02276
G1 X72.550 Y100.598 E0.02264
G1 X73.210 Y100.429 E0.02276
G1 X135.651 Y95.177 E2.09325
G1 X176.534 Y95.173 E1.36572
G1 X177.447 Y95.354 E0.03111
G1 X178.227 Y95.870 E0.03124
G1 X178.754 Y96.643 E0.03124
G1 X178.947 Y97.554 E0.03111
G1 X178.924 Y111.024 E0.44997
G1 X178.686 Y111.783 E0.02657
G1 X178.215 Y112.423 E0.02657
G1 X177.558 Y112.878 E0.02669
G1 X176.793 Y113.093 E0.02657
G1 X116.107 Y114.417 E2.02773
G1 X94.853 Y114.413 E0.71000
G1 X72.720 Y108.652 E0.76402
G1 X72.103 Y108.346 E0.02302
G1 X71.596 Y107.878 E0.02302
G1 X71.243 Y107.287 E0.02302
G1 X71.070 Y106.616 E0.02314
G1 X71.057 Y102.770 E0.12848
G1 X71.179 Y102.099 E0.02279
G1 F2880
G1 X71.499 Y101.437 E-0.50930
G1 F2880
G1 X71.966 Y100.941 E-0.47202
G1 F2880
G1 X72.550 Y100.598 E-0.46938
G1 F2880
G1 X73.179 Y100.437 E-0.44931
G1 E-0.10000 F2100.00000
G1 X175.661 Y109.822 F3600.000
G1 E2.00000 F2100.00000
M204 S800
G1 F2400
G1 X175.661 Y98.708 E0.36201
G1 X166.047 Y98.708 E0.31318
G1 X166.047 Y99.564 E0.02786
G1 X164.511 Y99.564 E0.05003
G1 X164.511 Y98.708 E0.02786
G1 X154.899 Y98.708 E0.31311
G1 X154.899 Y109.822 E0.36201
G1 X155.584 Y109.822 E0.02233
G1 X155.302 Y110.057 E0.01198
G1 X154.661 Y110.058 E0.02087
G1 X154.661 Y98.223 E0.38552
G1 X175.898 Y98.223 E0.69178
G1 X175.898 Y110.058 E0.38554
G1 X175.258 Y110.058 E0.02084
G1 X174.975 Y109.822 E0.01201
G1 X175.601 Y109.822 E0.02040
M204 S1000
G1 X175.254 Y109.415 F3600.000
M204 S800
G1 F1800
G1 X175.254 Y99.116 E0.33549
G1 X166.454 Y99.116 E0.28666
G1 X166.454 Y99.971 E0.02786
G1 X164.104 Y99.971 E0.07655
G1 X164.104 Y99.116 E0.02786
G1 X155.306 Y99.116 E0.28659
G1 X155.306 Y109.415 E0.33549
G1 X156.709 Y109.415 E0.04571
G1 X155.449 Y110.464 E0.05341
G1 X154.254 Y110.465 E0.03894
G1 X154.254 Y97.816 E0.41206
G1 X176.305 Y97.816 E0.71830
G1 X176.305 Y110.466 E0.41206
G1 X175.110 Y110.465 E0.03891
G1 X173.850 Y109.415 E0.05343
G1 X175.194 Y109.415 E0.04377
M204 S1000
G1 X175.609 Y109.231 F3600.000
G1 F2880
G1 X175.210 Y106.672 E-1.90000
G1 E-0.10000 F2100.00000
G1 X175.694 Y98.466 F3600.000
G1 E2.00000 F2100.00000
G1 F2400
G1 X165.843 Y98.466 E0.01681
G1 F2880
G1 X168.586 Y98.466 E-1.90000
G1 E-0.10000 F2100.00000
G1 X164.714 Y98.466 F3600.000
G1 E2.00000 F2100.00000
G1 F2400
G1 X154.865 Y98.466 E0.01681
G1 F2880
G1 X157.607 Y98.466 E-1.90000
G1 E-0.10000 F2100.00000
G1 X164.633 Y99.047 F3600.000
G1 E2.00000 F2100.00000
M204 S2000
G1 F2400
G1 X165.152 Y98.528 E0.02887
G1 X165.538 Y98.528 E0.01519
G1 X165.538 Y98.810 E0.01111
G1 X165.560 Y98.810 E0.00088
G1 X164.929 Y99.442 E0.03513
M204 S1000
G1 F2880
G1 X165.560 Y98.810 E-0.61849
G1 F2880
G1 X165.538 Y98.810 E-0.01554
G1 F2880
G1 X165.538 Y98.528 E-0.19556
G1 F2880
G1 X165.152 Y98.528 E-0.26744
G1 F2880
G1 X164.633 Y99.047 E-0.50831
G1 E-0.39466 F2100.00000
G1 X138.998 Y97.900 F3600.000
G1 E2.00000 F2100.00000
M204 S800
G1 F1800
G1 X139.356 Y98.017 E0.01225
G1 X140.315 Y98.565 E0.03597
G1 X141.118 Y99.288 E0.03522
G1 X141.754 Y100.163 E0.03523
G1 X142.194 Y101.151 E0.03523
G1 X142.419 Y102.209 E0.03523
G1 X142.419 Y103.291 E0.03523
G1 X142.194 Y104.349 E0.03523
G1 X141.754 Y105.337 E0.03523
G1 X141.118 Y106.212 E0.03523
G1 X140.314 Y106.936 E0.03523
G1 X139.378 Y107.476 E0.03524
G1 X138.349 Y107.811 E0.03524
G1 X137.273 Y107.924 E0.03523
G1 X136.198 Y107.811 E0.03524
