; generated by Slic3r 1.36.2-prusa3d-stable-win64 on 2017-12-02 at 18:41:02

; 

; external perimeters extrusion width = 0.45mm
; perimeters extrusion width = 0.45mm
; infill extrusion width = 0.45mm
; solid infill extrusion width = 0.45mm
; top infill extrusion width = 0.45mm
; first layer extrusion width = 0.42mm

M107
M115 U3.0.12 ; tell printer latest fw version
M83  ; extruder relative mode
M104 S230 ; set extruder temp
M140 S85 ; set bed temp
M190 S85 ; wait for bed temp
M109 S230 ; wait for extruder temp
G28 W ; home all without mesh bed level
G80 ; mesh bed leveling
G1 Y-3.0 F1000.0 ; go outside pritn area
G1 X60.0 E9.0  F1000.0 ; intro line
G1 X100.0 E12.5  F1000.0 ; intro line
; Filament gcode

G21 ; set units to millimeters
G90 ; use absolute coordinates
M83 ; use relative distances for extrusion
G1 E-0.80000 F2100.00000
G1 Z0.200 F2400.000
G1 X106.111 Y53.453 F2400.000
G1 E0.80000 F2100.00000
M204 S1000
G1 F1200
G1 X146.730 Y53.419 E1.23402
G1 X147.464 Y53.536 E0.02259
G1 X148.126 Y53.875 E0.02259
G1 X148.651 Y54.401 E0.02259
G1 X148.988 Y55.064 E0.02259
G1 X151.254 Y67.392 E0.38080
G1 X153.290 Y86.141 E0.57296
G1 X153.970 Y104.949 E0.57177
G1 X153.285 Y123.924 E0.57685
G1 X151.255 Y142.604 E0.57088
G1 X148.935 Y155.084 E0.38563
G1 X148.591 Y155.679 E0.02087
G1 X148.091 Y156.150 E0.02087
G1 X147.478 Y156.459 E0.02087
G1 X146.798 Y156.580 E0.02099
G1 X106.503 Y156.581 E1.22417
G1 X105.630 Y156.412 E0.02703
G1 X104.852 Y155.907 E0.02817
G1 X104.327 Y155.143 E0.02817
G1 X101.770 Y148.874 E0.20568
G1 X99.388 Y141.864 E0.22494
G1 X97.390 Y134.599 E0.22892
G1 X96.031 Y128.024 E0.20396
G1 X96.076 Y81.688 E1.40770
G1 X97.390 Y75.400 E0.19517
G1 X99.348 Y68.264 E0.22482
G1 X101.791 Y61.070 E0.23080
G1 X104.443 Y54.623 E0.21179
G1 X104.751 Y54.198 E0.01594
G1 X105.144 Y53.851 E0.01594
G1 X105.604 Y53.599 E0.01594
G1 X106.054 Y53.469 E0.01423
G1 F1920
G1 X106.785 Y53.468 E-0.76000
G1 E-0.04000 F2100.00000
G1 X99.999 Y129.118 F2400.000
G1 E0.80000 F2100.00000
G1 F960
G1 X148.846 Y129.125 E1.48402
G1 X148.601 Y131.943 E0.08593
G1 X147.618 Y140.991 E0.27650
G1 X147.436 Y142.429 E0.04406
G1 X145.622 Y152.382 E0.30735
G1 X107.190 Y152.380 E1.16758
G1 X105.232 Y147.579 E0.15750
G1 X102.900 Y140.715 E0.22025
G1 X100.981 Y133.726 E0.22020
G1 X100.011 Y129.177 E0.14130
G1 X100.465 Y129.496 F2400.000
G1 F600
G1 X148.435 Y129.502 E1.45737
G1 X148.226 Y131.906 E0.07332
G1 X147.244 Y140.946 E0.27627
G1 X147.063 Y142.372 E0.04365
G1 X145.307 Y152.005 E0.29748
G1 X107.444 Y152.003 E1.15032
G1 X105.586 Y147.448 E0.14945
G1 X103.261 Y140.605 E0.21956
G1 X101.347 Y133.637 E0.21952
G1 X100.477 Y129.554 E0.12681
G1 X100.432 Y129.097 F2400.000
G1 F1920
G1 X101.209 Y129.553 E-0.76000
G1 E-0.04000 F2100.00000
G1 X106.962 Y152.757 F2400.000
G1 E0.80000 F2100.00000
G1 F960
G1 X145.936 Y152.759 E1.18407
G1 X146.101 Y151.853 E0.02798
G1 X146.129 Y152.105 E0.00769
G1 X145.922 Y153.240 E0.03507
G1 X107.159 Y153.240 E1.17765
G1 X106.984 Y152.812 E0.01404
G1 F1920
G1 X107.716 Y152.811 E-0.76000
G1 E-0.04000 F2100.00000
G1 X109.609 Y128.742 F2400.000
G1 E0.80000 F2100.00000
G1 F960
G1 X109.609 Y125.842 E0.08809
G1 X144.714 Y125.842 E1.06651
G1 X144.714 Y83.979 E1.27183
G1 X109.609 Y83.979 E1.06651
G1 X109.609 Y81.079 E0.08810
G1 X149.309 Y81.079 E1.20612
G1 X147.874 Y67.873 E0.40355
G1 X145.936 Y57.241 E0.32833
G1 X106.963 Y57.241 E1.18405
G1 X107.159 Y56.760 E0.01579
G1 X145.922 Y56.760 E1.17765
G1 X147.946 Y67.863 E0.34287
G1 X149.957 Y86.384 E0.56598
G1 X150.629 Y105.000 E0.56595
G1 X149.957 Y123.616 E0.56595
G1 X147.946 Y142.137 E0.56598
G1 X146.360 Y150.831 E0.26849
G1 X146.288 Y150.831 E0.00220
G1 X147.808 Y142.487 E0.25769
G1 X147.993 Y141.035 E0.04448
G1 X148.977 Y131.979 E0.27673
G1 X149.258 Y128.748 E0.09855
G1 X109.669 Y128.742 E1.20274
G1 F1920
G1 X109.654 Y128.010 E-0.76000
G1 E-0.04000 F2100.00000
G1 X107.191 Y57.618 F2400.000
G1 E0.80000 F2100.00000
G1 F960
G1 X145.622 Y57.618 E1.16756
G1 X147.501 Y67.928 E0.31837
G1 X148.889 Y80.702 E0.39037
G1 X100.044 Y80.702 E1.48393
G1 X100.981 Y76.274 E0.13749
G1 X102.900 Y69.285 E0.22021
G1 X105.232 Y62.421 E0.22025
G1 X107.168 Y57.674 E0.15574
G1 X107.444 Y57.995 F2400.000
G1 F600
G1 X145.307 Y57.995 E1.15030
G1 X147.127 Y67.982 E0.30840
G1 X148.469 Y80.325 E0.37719
G1 X100.509 Y80.325 E1.45703
G1 X101.347 Y76.363 E0.12302
G1 X103.261 Y69.395 E0.21953
G1 X105.586 Y62.553 E0.21956
G1 X107.422 Y58.051 E0.14770
G1 X107.491 Y57.598 F2400.000
G1 F1920
G1 X108.153 Y58.050 E-0.76000
G1 E-0.04000 F2100.00000
G1 X146.410 Y151.209 F2400.000
G1 E0.80000 F2100.00000
G1 F960
G1 X146.510 Y152.118 E0.02780
G1 X146.237 Y153.617 E0.04630
G1 X106.906 Y153.617 E1.19490
G1 X104.548 Y147.838 E0.18961
G1 X102.201 Y140.931 E0.22164
G1 X100.270 Y133.898 E0.22155
G1 X99.131 Y128.515 E0.16717
G1 X109.232 Y128.515 E0.30687
G1 X109.232 Y125.465 E0.09266
G1 X144.337 Y125.465 E1.06651
G1 X144.337 Y84.356 E1.24892
G1 X109.232 Y84.356 E1.06651
G1 X109.232 Y81.305 E0.09269
G1 X99.169 Y81.305 E0.30571
G1 X100.270 Y76.102 E0.16158
G1 X102.201 Y69.069 E0.22155
G1 X104.549 Y62.158 E0.22176
G1 X106.906 Y56.383 E0.18949
G1 X146.237 Y56.383 E1.19490
G1 X148.319 Y67.808 E0.35284
G1 X150.334 Y86.356 E0.56681
G1 X151.006 Y105.000 E0.56678
G1 X150.334 Y123.644 E0.56677
G1 X148.319 Y142.192 E0.56681
G1 X146.675 Y151.209 E0.27846
G1 X146.470 Y151.209 E0.00622
G1 F1920
G1 X146.502 Y151.939 E-0.76000
G1 E-0.04000 F2100.00000
G1 X108.855 Y128.138 F2400.000
G1 E0.80000 F2100.00000
G1 F600
G1 X108.855 Y125.088 E0.09266
G1 X143.960 Y125.088 E1.06651
G1 X143.960 Y84.733 E1.22601
G1 X108.855 Y84.733 E1.06651
G1 X108.855 Y81.682 E0.09269
G1 X98.704 Y81.682 E0.30839
G1 X99.904 Y76.013 E0.17606
G1 X101.840 Y68.959 E0.22223
G1 X104.195 Y62.026 E0.22245
G1 X106.652 Y56.006 E0.19753
G1 X146.551 Y56.006 E1.21216
G1 X148.693 Y67.754 E0.36281
G1 X150.710 Y86.329 E0.56764
G1 X151.383 Y105.000 E0.56760
G1 X150.710 Y123.671 E0.56760
G1 X148.693 Y142.246 E0.56764
G1 X146.989 Y151.586 E0.28843
G1 X146.831 Y151.586 E0.00481
G1 X146.891 Y152.132 E0.01669
G1 X146.551 Y153.994 E0.05752
G1 X106.652 Y153.994 E1.21216
G1 X104.194 Y147.970 E0.19765
G1 X101.840 Y141.041 E0.22232
G1 X99.904 Y133.987 E0.22223
G1 X98.666 Y128.138 E0.18165
G1 X108.795 Y128.138 E0.30772
G1 X109.247 Y128.061 F2400.000
G1 X109.420 Y128.817 F2400.000
G1 F960
G1 X99.766 Y128.817 E0.13651
G1 X99.707 Y128.840 E0.00090
G1 F960
G1 X99.589 Y128.886 E0.00278
G1 X99.596 Y128.966 E0.00176
G1 X100.626 Y133.812 E0.10842
G1 X102.551 Y140.823 E0.15912
G1 X104.891 Y147.710 E0.15919
G1 X106.872 Y152.568 E0.11482
G1 X107.264 Y152.998 F2400.000
G1 F960
G1 X145.774 Y153.000 E0.15506
G1 F1920
G1 X145.043 Y153.000 E-0.76000
G1 E-0.04000 F2100.00000
G1 X146.108 Y151.664 F2400.000
G1 E0.80000 F2100.00000
G1 F960
G1 X146.123 Y151.235 E0.00808
G1 F960
G1 X146.131 Y151.020 E0.00256
G1 F1920
G1 X146.123 Y151.235 E-0.22335
G1 E-0.57665 F2100.00000
G1 X109.722 Y127.865 F2400.000
G1 E0.80000 F2100.00000
G1 F960
G1 X110.316 Y128.459 E0.02557
G1 X110.850 Y128.459 E0.01626
G1 X109.891 Y127.501 E0.04126
G1 X109.891 Y126.966 E0.01626
G1 X111.384 Y128.459 E0.06425
G1 X111.919 Y128.459 E0.01626
G1 X109.891 Y126.432 E0.08724
G1 X109.891 Y126.125 E0.00935
G1 X110.118 Y126.125 E0.00691
G1 X112.453 Y128.459 E0.10047
G1 X112.987 Y128.459 E0.01626
G1 X110.653 Y126.125 E0.10047
G1 X111.187 Y126.125 E0.01626
G1 X113.521 Y128.460 E0.10048
G1 X114.055 Y128.460 E0.01626
G1 X111.721 Y126.125 E0.10048
G1 X112.255 Y126.125 E0.01626
G1 X114.590 Y128.460 E0.10048
G1 X115.124 Y128.460 E0.01626
G1 X112.789 Y126.125 E0.10049
G1 X113.323 Y126.125 E0.01626
G1 X115.658 Y128.460 E0.10049
G1 X116.192 Y128.460 E0.01626
G1 X113.857 Y126.125 E0.10049
G1 X114.392 Y126.125 E0.01626
G1 X116.727 Y128.460 E0.10050
G1 X117.261 Y128.460 E0.01626
G1 X114.926 Y126.125 E0.10050
G1 X115.460 Y126.125 E0.01626
G1 X117.795 Y128.460 E0.10050
G1 X118.329 Y128.460 E0.01626
G1 X115.994 Y126.125 E0.10051
G1 X116.528 Y126.125 E0.01626
G1 X118.864 Y128.460 E0.10051
G1 X119.398 Y128.460 E0.01626
G1 X117.062 Y126.125 E0.10052
G1 X117.597 Y126.125 E0.01626
G1 X119.932 Y128.460 E0.10052
G1 X120.466 Y128.461 E0.01626
G1 X118.131 Y126.125 E0.10052
G1 X118.665 Y126.125 E0.01626
G1 X121.001 Y128.461 E0.10053
G1 X121.535 Y128.461 E0.01626
G1 X119.199 Y126.125 E0.10053
G1 X119.733 Y126.125 E0.01626
G1 X122.069 Y128.461 E0.10053
G1 X122.603 Y128.461 E0.01626
G1 X120.267 Y126.125 E0.10054
G1 X120.802 Y126.125 E0.01626
G1 X123.138 Y128.461 E0.10054
G1 X123.672 Y128.461 E0.01626
G1 X121.336 Y126.125 E0.10054
G1 X121.870 Y126.125 E0.01626
G1 X124.206 Y128.461 E0.10055
G1 X124.740 Y128.461 E0.01626
G1 X122.404 Y126.125 E0.10055
G1 X122.938 Y126.125 E0.01626
G1 X125.274 Y128.461 E0.10055
G1 X125.809 Y128.461 E0.01626
G1 X123.472 Y126.125 E0.10056
G1 X124.006 Y126.125 E0.01626
G1 X126.343 Y128.461 E0.10056
G1 X126.877 Y128.462 E0.01626
G1 X124.541 Y126.125 E0.10056
G1 X125.075 Y126.125 E0.01626
G1 X127.411 Y128.462 E0.10057
G1 X127.946 Y128.462 E0.01626
G1 X125.609 Y126.125 E0.10057
G1 X126.143 Y126.125 E0.01626
G1 X128.480 Y128.462 E0.10057
G1 X129.014 Y128.462 E0.01626
G1 X126.677 Y126.125 E0.10058
G1 X127.211 Y126.125 E0.01626
G1 X129.548 Y128.462 E0.10058
G1 X130.083 Y128.462 E0.01626
G1 X127.746 Y126.125 E0.10058
G1 X128.280 Y126.125 E0.01626
G1 X130.617 Y128.462 E0.10059
G1 X131.151 Y128.462 E0.01626
G1 X128.814 Y126.125 E0.10059
G1 X129.348 Y126.125 E0.01626
G1 X131.685 Y128.462 E0.10059
G1 X132.220 Y128.462 E0.01626
G1 X129.882 Y126.125 E0.10060
G1 X130.416 Y126.125 E0.01626
G1 X132.754 Y128.462 E0.10060
G1 X133.288 Y128.462 E0.01626
G1 X130.951 Y126.125 E0.10060
G1 X131.485 Y126.125 E0.01626
G1 X133.822 Y128.463 E0.10061
G1 X134.357 Y128.463 E0.01626
G1 X132.019 Y126.125 E0.10061
G1 X132.553 Y126.125 E0.01626
G1 X134.891 Y128.463 E0.10061
G1 X135.425 Y128.463 E0.01626
G1 X133.087 Y126.125 E0.10062
G1 X133.621 Y126.125 E0.01626
G1 X135.959 Y128.463 E0.10062
G1 X136.493 Y128.463 E0.01626
G1 X134.156 Y126.125 E0.10062
G1 X134.690 Y126.125 E0.01626
G1 X137.028 Y128.463 E0.10063
G1 X137.562 Y128.463 E0.01626
G1 X135.224 Y126.125 E0.10063
G1 X135.758 Y126.125 E0.01626
G1 X138.096 Y128.463 E0.10064
G1 X138.630 Y128.463 E0.01626
G1 X136.292 Y126.125 E0.10064
G1 X136.826 Y126.125 E0.01626
G1 X139.165 Y128.463 E0.10064
G1 X139.699 Y128.463 E0.01626
G1 X137.360 Y126.125 E0.10065
G1 X137.895 Y126.125 E0.01626
G1 X140.233 Y128.463 E0.10065
G1 X140.767 Y128.464 E0.01626
G1 X138.429 Y126.125 E0.10065
G1 X138.963 Y126.125 E0.01626
G1 X141.302 Y128.464 E0.10066
G1 X141.836 Y128.464 E0.01626
G1 X139.497 Y126.125 E0.10066
G1 X140.031 Y126.125 E0.01626
G1 X142.370 Y128.464 E0.10066
G1 X142.904 Y128.464 E0.01626
G1 X140.565 Y126.125 E0.10067
G1 X141.100 Y126.125 E0.01626
G1 X143.439 Y128.464 E0.10067
G1 X143.973 Y128.464 E0.01626
G1 X141.634 Y126.125 E0.10067
G1 X142.168 Y126.125 E0.01626
G1 X144.507 Y128.464 E0.10068
G1 X145.041 Y128.464 E0.01626
G1 X142.702 Y126.125 E0.10068
G1 X143.236 Y126.125 E0.01626
G1 X145.576 Y128.464 E0.10068
G1 X146.110 Y128.464 E0.01626
G1 X143.770 Y126.125 E0.10069
G1 X144.305 Y126.125 E0.01626
G1 X146.644 Y128.464 E0.10069
G1 X147.178 Y128.465 E0.01626
G1 X144.839 Y126.125 E0.10069
G1 X144.996 Y126.125 E0.00480
G1 X144.996 Y125.749 E0.01145
G1 X147.712 Y128.465 E0.11690
G1 X148.247 Y128.465 E0.01626
G1 X144.996 Y125.214 E0.13989
G1 X144.996 Y124.680 E0.01626
G1 X148.781 Y128.465 E0.16288
G1 X149.146 Y128.465 E0.01112
G1 X149.163 Y128.312 E0.00467
G1 X144.996 Y124.146 E0.17931
G1 X144.996 Y123.612 E0.01626
G1 X149.215 Y127.831 E0.18157
G1 X149.267 Y127.349 E0.01475
G1 X144.996 Y123.078 E0.18382
G1 X144.996 Y122.544 E0.01626
G1 X149.320 Y126.867 E0.18607
G1 X149.372 Y126.385 E0.01475
G1 X144.996 Y122.009 E0.18832
G1 X144.996 Y121.475 E0.01626
G1 X149.424 Y125.903 E0.19058
G1 X149.477 Y125.421 E0.01475
G1 X144.996 Y120.941 E0.19283
G1 X144.996 Y120.407 E0.01626
G1 X149.529 Y124.940 E0.19508
G1 X149.581 Y124.458 E0.01475
G1 X144.996 Y119.873 E0.19733
G1 X144.996 Y119.339 E0.01626
G1 X149.634 Y123.976 E0.19959
G1 X149.679 Y123.487 E0.01494
G1 X144.996 Y118.805 E0.20153
G1 X144.996 Y118.270 E0.01626
G1 X149.698 Y122.971 E0.20233
G1 X149.716 Y122.456 E0.01570
G1 X144.996 Y117.736 E0.20313
G1 X144.996 Y117.202 E0.01626
G1 X149.735 Y121.940 E0.20393
G1 X149.753 Y121.425 E0.01570
G1 X144.996 Y116.668 E0.20473
G1 X144.996 Y116.134 E0.01626
G1 X149.772 Y120.909 E0.20553
G1 X149.791 Y120.394 E0.01570
G1 X144.996 Y115.600 E0.20633
G1 X144.996 Y115.065 E0.01626
G1 X149.809 Y119.878 E0.20713
G1 X149.828 Y119.362 E0.01570
G1 X144.996 Y114.531 E0.20793
G1 X144.996 Y113.997 E0.01626
G1 X149.846 Y118.847 E0.20873
G1 X149.865 Y118.331 E0.01570
G1 X144.996 Y113.463 E0.20953
G1 X144.996 Y112.929 E0.01626
G1 X149.883 Y117.816 E0.21033
G1 X149.902 Y117.300 E0.01570
G1 X144.996 Y112.395 E0.21113
G1 X144.996 Y111.860 E0.01626
G1 X149.921 Y116.785 E0.21193
G1 X149.939 Y116.269 E0.01570
G1 X144.996 Y111.326 E0.21274
G1 X144.996 Y110.792 E0.01626
G1 X149.958 Y115.754 E0.21354
G1 X149.976 Y115.238 E0.01570
G1 X144.996 Y110.258 E0.21434
G1 X144.996 Y109.724 E0.01626
G1 X149.995 Y114.722 E0.21514
G1 X150.014 Y114.207 E0.01570
G1 X144.996 Y109.190 E0.21594
G1 X144.996 Y108.656 E0.01626
G1 X150.032 Y113.691 E0.21674
G1 X150.051 Y113.176 E0.01570
G1 X144.996 Y108.121 E0.21754
G1 X144.996 Y107.587 E0.01626
G1 X150.069 Y112.660 E0.21834
G1 X150.088 Y112.145 E0.01570
G1 X144.996 Y107.053 E0.21914
G1 X144.996 Y106.519 E0.01626
G1 X150.107 Y111.629 E0.21994
G1 X150.125 Y111.114 E0.01570
G1 X144.996 Y105.985 E0.22074
G1 X144.996 Y105.451 E0.01626
G1 X150.144 Y110.598 E0.22154
G1 X150.162 Y110.082 E0.01570
G1 X144.996 Y104.916 E0.22234
G1 X144.996 Y104.382 E0.01626
G1 X150.181 Y109.567 E0.22314
G1 X150.200 Y109.051 E0.01570
G1 X144.996 Y103.848 E0.22394
G1 X144.996 Y103.314 E0.01626
G1 X150.218 Y108.536 E0.22474
G1 X150.237 Y108.020 E0.01570
G1 X144.996 Y102.780 E0.22554
G1 X144.996 Y102.246 E0.01626
G1 X150.255 Y107.505 E0.22634
G1 X150.274 Y106.989 E0.01570
G1 X144.996 Y101.711 E0.22714
G1 X144.996 Y101.177 E0.01626
G1 X150.293 Y106.473 E0.22794
G1 X150.311 Y105.958 E0.01570
G1 X144.996 Y100.643 E0.22874
G1 X144.996 Y100.109 E0.01626
G1 X150.330 Y105.442 E0.22954
G1 X150.343 Y104.921 E0.01586
G1 X144.996 Y99.575 E0.23011
G1 X144.996 Y99.041 E0.01626
G1 X150.323 Y104.367 E0.22925
G1 X150.303 Y103.813 E0.01688
G1 X144.996 Y98.507 E0.22839
G1 X144.996 Y97.972 E0.01626
G1 X150.283 Y103.259 E0.22753
G1 X150.263 Y102.705 E0.01688
G1 X144.996 Y97.438 E0.22667
G1 X144.996 Y96.904 E0.01626
G1 X150.243 Y102.151 E0.22581
G1 X150.223 Y101.596 E0.01688
G1 X144.996 Y96.370 E0.22495
G1 X144.996 Y95.836 E0.01626
G1 X150.203 Y101.042 E0.22409
G1 X150.183 Y100.488 E0.01688
G1 X144.996 Y95.302 E0.22323
G1 X144.996 Y94.767 E0.01626
G1 X150.163 Y99.934 E0.22237
G1 X150.143 Y99.380 E0.01688
G1 X144.996 Y94.233 E0.22150
G1 X144.996 Y93.699 E0.01626
G1 X150.123 Y98.826 E0.22064
G1 X150.103 Y98.272 E0.01688
G1 X144.996 Y93.165 E0.21978
G1 X144.996 Y92.631 E0.01626
G1 X150.083 Y97.717 E0.21892
G1 X150.063 Y97.163 E0.01688
G1 X144.996 Y92.097 E0.21806
G1 X144.996 Y91.562 E0.01626
G1 X150.043 Y96.609 E0.21720
G1 X150.023 Y96.055 E0.01688
G1 X144.996 Y91.028 E0.21634
G1 X144.996 Y90.494 E0.01626
G1 X150.003 Y95.501 E0.21548
G1 X149.983 Y94.947 E0.01688
G1 X144.996 Y89.960 E0.21462
G1 X144.996 Y89.426 E0.01626
G1 X149.963 Y94.392 E0.21376
G1 X149.943 Y93.838 E0.01688
G1 X144.996 Y88.892 E0.21290
G1 X144.996 Y88.357 E0.01626
G1 X149.923 Y93.284 E0.21204
G1 X149.903 Y92.730 E0.01688
G1 X144.996 Y87.823 E0.21118
G1 X144.996 Y87.289 E0.01626
G1 X149.883 Y92.176 E0.21032
G1 X149.863 Y91.622 E0.01688
G1 X144.996 Y86.755 E0.20946
G1 X144.996 Y86.221 E0.01626
G1 X149.843 Y91.068 E0.20860
G1 X149.823 Y90.513 E0.01688
G1 X144.996 Y85.687 E0.20774
G1 X144.996 Y85.153 E0.01626
G1 X149.803 Y89.959 E0.20688
G1 X149.783 Y89.405 E0.01688
G1 X144.996 Y84.618 E0.20602
G1 X144.996 Y84.084 E0.01626
G1 X149.763 Y88.851 E0.20516
G1 X149.743 Y88.297 E0.01688
G1 X142.808 Y81.362 E0.29849
G1 X143.342 Y81.362 E0.01626
