; generated by Slic3r 1.36.2-prusa3d-stable-win64 on 2017-12-24 at 12:54:54

; 

; external perimeters extrusion width = 0.45mm
; perimeters extrusion width = 0.45mm
; infill extrusion width = 0.45mm
; solid infill extrusion width = 0.45mm
; top infill extrusion width = 0.40mm
; first layer extrusion width = 0.46mm

M107
M115 U3.0.12 ; tell printer latest fw version
M83  ; extruder relative mode
M104 S200 ; set extruder temp
M140 S60 ; set bed temp
M190 S60 ; wait for bed temp
M109 S200 ; wait for extruder temp
G28 W ; home all without mesh bed level
G80 ; mesh bed leveling
G1 Y-3.0 F1000.0 ; go outside pritn area
G1 X60.0 E9.0  F1000.0 ; intro line
G1 X100.0 E12.5  F1000.0 ; intro line
; Filament gcode

G21 ; set units to millimeters
G90 ; use absolute coordinates
M83 ; use relative distances for extrusion
G1 E-2.00000 F2100.00000
G1 Z0.200 F3600.000
G1 X85.771 Y98.712 F3600.000
G1 E2.00000 F2100.00000
M204 S1000
G1 F1080
G1 X86.707 Y98.446 E0.03249
G1 X163.004 Y98.431 E2.54878
G1 X163.942 Y98.593 E0.03180
G1 X164.774 Y99.055 E0.03180
G1 X165.209 Y99.490 E0.02052
G1 X166.592 Y101.314 E0.07647
G1 X167.131 Y102.441 E0.04174
G1 X167.306 Y103.116 E0.02328
G1 X167.314 Y106.834 E0.12421
G1 X167.106 Y107.607 E0.02673
G1 X166.694 Y108.287 E0.02659
G1 X164.634 Y110.107 E0.09181
G1 X164.160 Y110.414 E0.01886
G1 X162.280 Y111.320 E0.06972
G1 X161.412 Y111.553 E0.03002
G1 X88.712 Y111.564 E2.42862
G1 X87.754 Y111.334 E0.03290
G1 X85.845 Y110.417 E0.07076
G1 X85.377 Y110.115 E0.01859
G1 X83.298 Y108.278 E0.09267
G1 X82.881 Y107.577 E0.02728
G1 X82.681 Y106.785 E0.02728
G1 X82.671 Y103.327 E0.11551
G1 X82.757 Y102.782 E0.01845
G1 X82.947 Y102.263 E0.01845
G1 X83.587 Y101.012 E0.04695
G1 X84.980 Y99.277 E0.07432
G1 X85.722 Y98.746 E0.03048
G1 X85.940 Y99.093 F3600.000
G1 F1080
G1 X86.763 Y98.860 E0.02859
G1 X163.004 Y98.848 E2.54689
G1 X163.824 Y98.993 E0.02783
G1 X164.547 Y99.408 E0.02783
G1 X165.964 Y101.106 E0.07387
G1 X166.242 Y101.547 E0.01742
G1 X166.741 Y102.591 E0.03866
G1 X166.895 Y103.188 E0.02060
G1 X166.896 Y106.816 E0.12118
G1 X166.707 Y107.478 E0.02302
G1 X166.340 Y108.061 E0.02302
G1 X164.350 Y109.799 E0.08826
G1 X162.108 Y110.940 E0.08404
G1 X161.357 Y111.140 E0.02593
G1 X88.748 Y111.148 E2.42559
G1 X87.919 Y110.951 E0.02846
G1 X85.650 Y109.799 E0.08501
G1 X83.643 Y108.041 E0.08912
G1 X83.271 Y107.429 E0.02391
G1 X83.095 Y106.732 E0.02403
G1 X83.086 Y103.371 E0.11229
G1 X83.308 Y102.474 E0.03086
G1 X83.927 Y101.255 E0.04568
G1 X85.252 Y99.596 E0.07090
G1 X85.891 Y99.129 E0.02646
G1 F2880
G1 X86.763 Y98.860 E-0.63198
G1 F2880
G1 X88.593 Y98.860 E-1.26802
G1 E-0.10000 F2100.00000
G1 X86.770 Y101.923 F3600.000
G1 E2.00000 F2100.00000
G1 F720
G1 X86.770 Y102.347 E0.01419
G1 X86.535 Y102.603 E0.01162
G1 X86.070 Y103.434 E0.03178
G1 X86.070 Y106.159 E0.09106
G1 X87.791 Y107.436 E0.07157
G1 X89.568 Y108.178 E0.06436
G1 X160.452 Y108.178 E2.36792
G1 X162.229 Y107.436 E0.06436
G1 X163.950 Y106.159 E0.07157
G1 X163.950 Y103.434 E0.09106
G1 X163.485 Y102.603 E0.03178
G1 X163.230 Y102.326 E0.01260
G1 X163.230 Y101.923 E0.01346
G1 X163.863 Y102.717 E0.03392
G1 X164.270 Y103.547 E0.03089
G1 X164.270 Y106.388 E0.09490
G1 X162.735 Y107.700 E0.06746
G1 X161.066 Y108.505 E0.06192
G1 X88.935 Y108.505 E2.40960
G1 X87.265 Y107.700 E0.06192
G1 X85.730 Y106.388 E0.06746
G1 X85.730 Y103.546 E0.09491
G1 X86.127 Y102.730 E0.03033
G1 X86.733 Y101.970 E0.03247
G1 X86.695 Y102.316 F3600.000
G1 F2880
G1 X86.770 Y102.347 E-0.26299
G1 F2880
G1 X86.535 Y102.603 E-0.24090
G1 F2880
G1 X86.070 Y103.434 E-0.65898
G1 F2880
G1 X86.070 Y104.498 E-0.73712
G1 E-0.10000 F2100.00000
G1 X86.803 Y106.996 F3600.000
G1 E2.00000 F2100.00000
G1 F960
G1 X87.409 Y107.479 E0.00147
G1 X87.667 Y107.635 E0.00057
G1 X87.769 Y107.682 F3600.000
G1 F960
G1 X89.136 Y108.296 E0.00835
G1 F2880
G1 X87.769 Y107.682 E-1.03801
G1 E-0.96199 F2100.00000
G1 X160.874 Y108.296 F3600.000
G1 E2.00000 F2100.00000
G1 F960
G1 X162.101 Y107.745 E0.00315
G1 X162.390 Y107.608 F3600.000
G1 F960
G1 X162.594 Y107.484 E0.00073
G1 X163.067 Y107.108 E0.00185
M106 S252.45
G1 F2880
G1 X162.594 Y107.484 E-0.41835
G1 F2880
G1 X162.390 Y107.608 E-0.16536
G1 E-1.41629 F2100.00000
G1 Z0.400 F3600.000
M104 S195 ; set temperature
M140 S55 ; set bed temperature
G1 X166.694 Y108.287 F3600.000
G1 E2.00000 F2100.00000
G1 F1366
G1 X164.634 Y110.107 E0.09181
G1 X164.160 Y110.414 E0.01886
G1 X162.280 Y111.320 E0.06972
G1 X161.412 Y111.553 E0.03002
G1 X88.712 Y111.564 E2.42862
G1 X87.754 Y111.334 E0.03290
G1 X85.845 Y110.417 E0.07076
G1 X85.377 Y110.115 E0.01859
G1 X83.298 Y108.278 E0.09267
G1 X82.881 Y107.577 E0.02728
G1 X82.681 Y106.785 E0.02728
G1 X82.671 Y103.327 E0.11551
G1 X82.757 Y102.782 E0.01845
G1 X82.947 Y102.263 E0.01845
G1 X83.587 Y101.012 E0.04695
G1 X84.980 Y99.277 E0.07432
G1 X85.771 Y98.712 E0.03249
G1 X86.707 Y98.446 E0.03249
G1 X163.004 Y98.431 E2.54878
G1 X163.942 Y98.593 E0.03180
G1 X164.774 Y99.055 E0.03180
G1 X165.209 Y99.490 E0.02052
G1 X166.592 Y101.314 E0.07647
G1 X167.131 Y102.441 E0.04174
G1 X167.306 Y103.116 E0.02328
G1 X167.314 Y106.834 E0.12421
G1 X167.106 Y107.607 E0.02673
G1 X166.725 Y108.236 E0.02458
G1 F2880
G1 X164.681 Y110.065 E-1.90000
G1 E-0.10000 F2100.00000
G1 X164.547 Y99.408 F3600.000
G1 E2.00000 F2100.00000
G1 F1366
G1 X165.964 Y101.106 E0.07387
G1 X166.242 Y101.547 E0.01742
G1 X166.741 Y102.591 E0.03866
G1 X166.895 Y103.188 E0.02060
G1 X166.896 Y106.816 E0.12118
G1 X166.707 Y107.478 E0.02302
G1 X166.340 Y108.061 E0.02302
G1 X164.350 Y109.799 E0.08826
G1 X162.108 Y110.940 E0.08404
G1 X161.357 Y111.140 E0.02593
G1 X88.748 Y111.148 E2.42559
G1 X87.919 Y110.951 E0.02846
G1 X85.650 Y109.799 E0.08501
G1 X83.643 Y108.041 E0.08912
G1 X83.271 Y107.429 E0.02391
G1 X83.095 Y106.732 E0.02403
G1 X83.086 Y103.371 E0.11229
G1 X83.308 Y102.474 E0.03086
G1 X83.927 Y101.255 E0.04568
G1 X85.252 Y99.596 E0.07090
G1 X85.940 Y99.093 E0.02846
G1 X86.763 Y98.860 E0.02859
G1 X163.004 Y98.848 E2.54689
G1 X163.824 Y98.993 E0.02783
G1 X164.495 Y99.378 E0.02583
G1 F2880
G1 X165.964 Y101.106 E-1.57086
G1 F2880
G1 X166.217 Y101.508 E-0.32914
G1 E-0.10000 F2100.00000
G1 X163.225 Y101.908 F3600.000
G1 E2.00000 F2100.00000
M204 S800
G1 F1800
G1 X163.846 Y102.688 E0.03247
G1 X164.275 Y103.547 E0.03127
G1 X164.275 Y106.390 E0.09262
G1 X162.738 Y107.705 E0.06588
G1 X161.067 Y108.510 E0.06043
G1 X88.933 Y108.510 E2.34969
G1 X87.262 Y107.705 E0.06043
G1 X85.725 Y106.390 E0.06588
G1 X85.725 Y103.545 E0.09266
G1 X86.122 Y102.727 E0.02963
G1 X86.775 Y101.908 E0.03410
G1 X86.775 Y102.349 E0.01436
G1 X86.539 Y102.606 E0.01137
G1 X86.075 Y103.435 E0.03093
G1 X86.075 Y106.157 E0.08866
G1 X87.793 Y107.431 E0.06968
G1 X89.569 Y108.173 E0.06271
G1 X160.451 Y108.173 E2.30892
G1 X162.227 Y107.431 E0.06270
G1 X163.945 Y106.157 E0.06969
G1 X163.945 Y103.435 E0.08866
G1 X163.481 Y102.606 E0.03093
G1 X163.225 Y102.328 E0.01233
G1 X163.225 Y101.968 E0.01170
M204 S1000
G1 X163.440 Y102.246 F3600.000
G1 F2880
G1 X163.846 Y102.688 E-0.65842
G1 F2880
G1 X164.275 Y103.547 E-0.66494
G1 F2880
G1 X164.275 Y104.379 E-0.57664
G1 E-0.10000 F2100.00000
G1 X163.305 Y106.917 F3600.000
G1 E2.00000 F2100.00000
G1 F1215
G1 X162.594 Y107.484 E0.00199
G1 X162.340 Y107.637 E0.00065
G1 X161.596 Y107.972 E0.00179
G1 F1215
G1 X160.851 Y108.306 E0.00538
G1 F2880
G1 X161.596 Y107.972 E-0.56516
G1 E-1.43484 F2100.00000
G1 X89.158 Y108.306 F3600.000
G1 E2.00000 F2100.00000
G1 F1215
G1 X87.678 Y107.641 E0.01173
G1 F1215
G1 X87.540 Y107.558 E0.00014
G1 F1215
G1 X87.409 Y107.479 E0.00088
G1 X86.564 Y106.806 E0.00618
G1 F2880
G1 X87.409 Y107.479 E-0.74838
G1 F2880
G1 X87.540 Y107.558 E-0.10607
G1 E-1.14555 F2100.00000
G1 Z0.600 F3600.000
G1 X83.298 Y108.278 F3600.000
G1 E2.00000 F2100.00000
G1 F1317
G1 X82.881 Y107.577 E0.02728
G1 X82.681 Y106.785 E0.02728
G1 X82.671 Y103.327 E0.11551
G1 X82.757 Y102.782 E0.01845
G1 X82.947 Y102.263 E0.01845
G1 X83.587 Y101.012 E0.04695
G1 X84.980 Y99.277 E0.07432
G1 X85.771 Y98.712 E0.03249
G1 X86.707 Y98.446 E0.03249
G1 X163.004 Y98.431 E2.54878
G1 X163.942 Y98.593 E0.03180
G1 X164.774 Y99.055 E0.03180
G1 X165.209 Y99.490 E0.02052
G1 X166.592 Y101.314 E0.07647
G1 X167.131 Y102.441 E0.04174
G1 X167.306 Y103.116 E0.02328
G1 X167.314 Y106.834 E0.12421
G1 X167.106 Y107.607 E0.02673
G1 X166.694 Y108.287 E0.02659
G1 X164.634 Y110.107 E0.09181
G1 X164.160 Y110.414 E0.01886
G1 X162.280 Y111.320 E0.06972
G1 X161.412 Y111.553 E0.03002
G1 X88.712 Y111.564 E2.42862
G1 X87.754 Y111.334 E0.03290
G1 X85.845 Y110.417 E0.07076
G1 X85.377 Y110.115 E0.01859
G1 X83.343 Y108.318 E0.09066
G1 X83.643 Y108.041 F3600.000
G1 F1317
G1 X83.271 Y107.429 E0.02391
G1 X83.095 Y106.732 E0.02403
G1 X83.086 Y103.371 E0.11229
G1 X83.308 Y102.474 E0.03086
G1 X83.927 Y101.255 E0.04568
G1 X85.252 Y99.596 E0.07090
G1 X85.940 Y99.093 E0.02846
G1 X86.763 Y98.860 E0.02859
G1 X163.004 Y98.848 E2.54689
G1 X163.824 Y98.993 E0.02783
G1 X164.547 Y99.408 E0.02783
G1 X165.964 Y101.106 E0.07387
G1 X166.242 Y101.547 E0.01742
G1 X166.741 Y102.591 E0.03866
G1 X166.895 Y103.188 E0.02060
G1 X166.896 Y106.816 E0.12118
G1 X166.707 Y107.478 E0.02302
G1 X166.340 Y108.061 E0.02302
G1 X164.350 Y109.799 E0.08826
G1 X162.108 Y110.940 E0.08404
G1 X161.357 Y111.140 E0.02593
G1 X88.748 Y111.148 E2.42559
G1 X87.919 Y110.951 E0.02846
G1 X85.650 Y109.799 E0.08501
G1 X83.688 Y108.081 E0.08711
G1 F2880
G1 X83.271 Y107.429 E-0.53550
G1 F2880
G1 X83.095 Y106.732 E-0.49834
G1 F2880
G1 X83.091 Y105.482 E-0.86616
G1 E-0.10000 F2100.00000
G1 X86.075 Y106.157 F3600.000
G1 E2.00000 F2100.00000
M204 S800
G1 F1800
G1 X87.793 Y107.431 E0.06968
G1 X89.569 Y108.173 E0.06271
G1 X160.451 Y108.173 E2.30892
G1 X162.227 Y107.431 E0.06270
G1 X163.945 Y106.157 E0.06969
G1 X163.945 Y103.435 E0.08866
G1 X163.481 Y102.606 E0.03093
G1 X163.225 Y102.328 E0.01233
G1 X163.225 Y101.908 E0.01366
G1 X163.878 Y102.727 E0.03410
G1 X164.275 Y103.545 E0.02963
G1 X164.275 Y106.390 E0.09266
G1 X162.738 Y107.705 E0.06588
G1 X161.067 Y108.510 E0.06043
G1 X88.933 Y108.510 E2.34969
G1 X87.262 Y107.705 E0.06043
G1 X85.725 Y106.390 E0.06588
G1 X85.725 Y103.545 E0.09266
G1 X86.122 Y102.727 E0.02963
G1 X86.775 Y101.908 E0.03410
G1 X86.775 Y102.349 E0.01436
G1 X86.539 Y102.606 E0.01137
G1 X86.075 Y103.435 E0.03093
G1 X86.075 Y106.097 E0.08671
M204 S1000
G1 X85.894 Y106.514 F3600.000
G1 X86.564 Y106.806 F3600.000
G1 F1171
G1 X87.409 Y107.479 E0.00618
G1 X87.540 Y107.558 E0.00088
G1 F1171
G1 X87.678 Y107.641 E0.00014
G1 F1171
G1 X89.158 Y108.306 E0.01173
G1 F2880
G1 X87.678 Y107.641 E-1.12358
G1 E-0.87642 F2100.00000
G1 X160.851 Y108.306 F3600.000
G1 E2.00000 F2100.00000
G1 F1171
G1 X161.596 Y107.972 E0.00538
G1 F1171
G1 X162.340 Y107.637 E0.00179
G1 X162.594 Y107.484 E0.00065
G1 X163.305 Y106.917 E0.00199
M106 S255
G1 F2880
G1 X162.594 Y107.484 E-0.62982
G1 F2880
G1 X162.340 Y107.637 E-0.20578
G1 F2880
G1 X161.596 Y107.972 E-0.56516
G1 E-0.59923 F2100.00000
G1 Z0.800 F3600.000
G1 X163.945 Y106.157 F3600.000
G1 E2.00000 F2100.00000
M204 S800
G1 F900
G1 X163.945 Y103.435 E0.08866
G1 X163.481 Y102.606 E0.03093
G1 X163.225 Y102.328 E0.01233
G1 X163.225 Y101.908 E0.01366
G1 X163.878 Y102.727 E0.03410
G1 X164.275 Y103.545 E0.02963
G1 X164.275 Y106.390 E0.09266
G1 X162.738 Y107.705 E0.06588
G1 X161.067 Y108.510 E0.06043
G1 X88.933 Y108.510 E2.34969
G1 X87.262 Y107.705 E0.06043
G1 X85.725 Y106.390 E0.06588
G1 X85.725 Y103.545 E0.09266
G1 X86.122 Y102.727 E0.02963
G1 X86.775 Y101.908 E0.03410
G1 X86.775 Y102.349 E0.01436
G1 X86.539 Y102.606 E0.01137
G1 X86.075 Y103.435 E0.03093
G1 X86.075 Y106.157 E0.08866
G1 X87.793 Y107.431 E0.06968
G1 X89.569 Y108.173 E0.06271
G1 X160.451 Y108.173 E2.30892
G1 X162.227 Y107.431 E0.06270
G1 X163.897 Y106.193 E0.06773
M204 S1000
G1 X164.339 Y106.087 F3600.000
G1 X163.305 Y106.917 F3600.000
G1 F900
G1 X162.594 Y107.484 E0.00199
G1 X162.340 Y107.637 E0.00065
G1 X161.596 Y107.972 E0.00179
G1 F900
G1 X160.851 Y108.306 E0.00538
G1 F2880
G1 X161.596 Y107.972 E-0.56516
G1 E-1.43484 F2100.00000
G1 X89.158 Y108.306 F3600.000
G1 E2.00000 F2100.00000
G1 F900
G1 X87.678 Y107.641 E0.01173
G1 F900
G1 X87.540 Y107.558 E0.00014
G1 F900
G1 X87.409 Y107.479 E0.00088
G1 X86.564 Y106.806 E0.00618
G1 F2880
G1 X87.409 Y107.479 E-0.74838
G1 F2880
G1 X87.540 Y107.558 E-0.10607
G1 E-1.14555 F2100.00000
G1 Z1.000 F3600.000
G1 X86.075 Y106.157 F3600.000
G1 E2.00000 F2100.00000
M204 S800
G1 F900
G1 X87.793 Y107.431 E0.06968
G1 X89.569 Y108.173 E0.06271
G1 X160.451 Y108.173 E2.30892
G1 X162.227 Y107.431 E0.06270
G1 X163.945 Y106.157 E0.06969
G1 X163.945 Y103.435 E0.08866
G1 X163.481 Y102.606 E0.03093
G1 X163.225 Y102.328 E0.01233
G1 X163.225 Y101.908 E0.01366
G1 X163.878 Y102.727 E0.03410
G1 X164.275 Y103.545 E0.02963
G1 X164.275 Y106.390 E0.09266
G1 X162.738 Y107.705 E0.06588
G1 X161.067 Y108.510 E0.06043
G1 X88.933 Y108.510 E2.34969
G1 X87.262 Y107.705 E0.06043
G1 X85.725 Y106.390 E0.06588
G1 X85.725 Y103.545 E0.09266
G1 X86.122 Y102.727 E0.02963
G1 X86.775 Y101.908 E0.03410
G1 X86.775 Y102.349 E0.01436
G1 X86.539 Y102.606 E0.01137
G1 X86.075 Y103.435 E0.03093
G1 X86.075 Y106.097 E0.08671
M204 S1000
G1 X85.894 Y106.514 F3600.000
G1 X86.564 Y106.806 F3600.000
G1 F900
G1 X87.409 Y107.479 E0.00618
G1 X87.540 Y107.558 E0.00088
G1 F900
G1 X87.678 Y107.641 E0.00014
G1 F900
G1 X89.158 Y108.306 E0.01173
G1 F2880
G1 X87.678 Y107.641 E-1.12358
G1 E-0.87642 F2100.00000
G1 Z1.500 F3600.000
G1 X160.851 Y108.306 F3600.000
G1 Z1.000 F3600.000
G1 E2.00000 F2100.00000
G1 F900
G1 X161.596 Y107.972 E0.00538
G1 F900
G1 X162.340 Y107.637 E0.00179
G1 X162.594 Y107.484 E0.00065
G1 X163.305 Y106.917 E0.00199
G1 F2880
G1 X162.594 Y107.484 E-0.62982
G1 F2880
G1 X162.340 Y107.637 E-0.20578
G1 F2880
G1 X161.596 Y107.972 E-0.56516
G1 E-0.59923 F2100.00000
G1 Z1.500 F3600.000
G1 X163.945 Y106.157 F3600.000
G1 Z1.200 F3600.000
G1 E2.00000 F2100.00000
M204 S800
G1 F900
G1 X163.945 Y103.435 E0.08866
G1 X163.481 Y102.606 E0.03093
G1 X163.225 Y102.328 E0.01233
G1 X163.225 Y101.908 E0.01366
G1 X163.878 Y102.727 E0.03410
G1 X164.275 Y103.545 E0.02963
G1 X164.275 Y106.390 E0.09266
G1 X162.738 Y107.705 E0.06588
G1 X161.067 Y108.510 E0.06043
G1 X88.933 Y108.510 E2.34969
G1 X87.262 Y107.705 E0.06043
G1 X85.725 Y106.390 E0.06588
G1 X85.725 Y103.545 E0.09266
G1 X86.122 Y102.727 E0.02963
G1 X86.775 Y101.908 E0.03410
G1 X86.775 Y102.349 E0.01436
G1 X86.539 Y102.606 E0.01137
G1 X86.075 Y103.435 E0.03093
G1 X86.075 Y106.157 E0.08866
G1 X87.793 Y107.431 E0.06968
G1 X89.569 Y108.173 E0.06271
G1 X160.451 Y108.173 E2.30892
G1 X162.227 Y107.431 E0.06270
G1 X163.897 Y106.193 E0.06773
M204 S1000
G1 X164.339 Y106.087 F3600.000
G1 X163.305 Y106.917 F3600.000
G1 F900
G1 X162.594 Y107.484 E0.00199
G1 X162.340 Y107.637 E0.00065
G1 X161.596 Y107.972 E0.00179
G1 F900
G1 X160.851 Y108.306 E0.00538
G1 F2880
G1 X161.596 Y107.972 E-0.56516
G1 E-1.43484 F2100.00000
G1 Z1.700 F3600.000
G1 X89.158 Y108.306 F3600.000
G1 Z1.200 F3600.000
G1 E2.00000 F2100.00000
G1 F900
G1 X87.678 Y107.641 E0.01173
G1 F900
G1 X87.540 Y107.558 E0.00014
G1 F900
G1 X87.409 Y107.479 E0.00088
G1 X86.564 Y106.806 E0.00618
G1 F2880
G1 X87.409 Y107.479 E-0.74838
G1 F2880
G1 X87.540 Y107.558 E-0.10607
G1 E-1.14555 F2100.00000
G1 Z1.700 F3600.000
G1 X86.075 Y106.157 F3600.000
G1 Z1.400 F3600.000
G1 E2.00000 F2100.00000
M204 S800
G1 F900
G1 X87.793 Y107.431 E0.06968
G1 X89.569 Y108.173 E0.06271
G1 X160.451 Y108.173 E2.30892
G1 X162.227 Y107.431 E0.06270
G1 X163.945 Y106.157 E0.06969
G1 X163.945 Y103.435 E0.08866
G1 X163.481 Y102.606 E0.03093
G1 X163.225 Y102.328 E0.01233
G1 X163.225 Y101.908 E0.01366
G1 X163.878 Y102.727 E0.03410
G1 X164.275 Y103.545 E0.02963
G1 X164.275 Y106.390 E0.09266
G1 X162.738 Y107.705 E0.06588
G1 X161.067 Y108.510 E0.06043
G1 X88.933 Y108.510 E2.34969
G1 X87.262 Y107.705 E0.06043
G1 X85.725 Y106.390 E0.06588
G1 X85.725 Y103.545 E0.09266
G1 X86.122 Y102.727 E0.02963
G1 X86.775 Y101.908 E0.03410
G1 X86.775 Y102.349 E0.01436
G1 X86.539 Y102.606 E0.01137
G1 X86.075 Y103.435 E0.03093
G1 X86.075 Y106.097 E0.08671
M204 S1000
G1 X85.894 Y106.514 F3600.000
G1 X86.564 Y106.806 F3600.000
G1 F900
